OpenColorIO/configs/aces/luts/slog2.spi1d
Version 1
From -0.125 1.125
Length 16384
Components 1
{
        -0.0633356335795
        -0.0633129728946
        -0.0632903122098
        -0.0632676515249
        -0.0632449908401
        -0.0632223301552
        -0.0631996694704
        -0.0631770087855
        -0.0631543481006
        -0.0631316874158
        -0.0631090267309
        -0.0630863660461
        -0.0630637053612
        -0.0630410446764
        -0.0630183839915
        -0.0629957233066
        -0.0629730626218
        -0.0629504019369
        -0.0629277412521
        -0.0629050805672
        -0.0628824198824
        -0.0628597591975
        -0.0628370985127
        -0.0628144378278
        -0.0627917771429
        -0.0627691164581
        -0.0627464557732
        -0.0627237950884
        -0.0627011344035
        -0.0626784737187
        -0.0626558130338
        -0.0626331523489
        -0.0626104916641
        -0.0625878309792
        -0.0625651702944
        -0.0625425096095
        -0.0625198489247
        -0.0624971882398
        -0.062474527555
        -0.0624518668701
        -0.0624292061852
        -0.0624065455004
        -0.0623838848155
        -0.0623612241307
        -0.0623385634458
        -0.062315902761
        -0.0622932420761
        -0.0622705813912
        -0.0622479207064
        -0.0622252600215
        -0.0622025993367
        -0.0621799386518
        -0.062157277967
        -0.0621346172821
        -0.0621119565973
        -0.0620892959124
        -0.0620666352275
        -0.0620439745427
        -0.0620213138578
        -0.061998653173
        -0.0619759924881
        -0.0619533318033
        -0.0619306711184
        -0.0619080104335
        -0.0618853497487
        -0.0618626890638
        -0.061840028379
        -0.0618173676941
        -0.0617947070093
        -0.0617720463244
        -0.0617493856396
        -0.0617267249547
        -0.0617040642698
        -0.061681403585
        -0.0616587429001
        -0.0616360822153
        -0.0616134215304
        -0.0615907608456
        -0.0615681001607
        -0.0615454394758
        -0.061522778791
        -0.0615001181061
        -0.0614774574213
        -0.0614547967364
        -0.0614321360516
        -0.0614094753667
        -0.0613868146819
        -0.061364153997
        -0.0613414933121
        -0.0613188326273
        -0.0612961719424
        -0.0612735112576
        -0.0612508505727
        -0.0612281898879
        -0.061205529203
        -0.0611828685181
        -0.0611602078333
        -0.0611375471484
        -0.0611148864636
        -0.0610922257787
        -0.0610695650939
        -0.061046904409
        -0.0610242437242
        -0.0610015830393
        -0.0609789223544
        -0.0609562616696
        -0.0609336009847
        -0.0609109402999
        -0.060888279615
        -0.0608656189302
        -0.0608429582453
        -0.0608202975604
        -0.0607976368756
        -0.0607749761907
        -0.0607523155059
        -0.060729654821
        -0.0607069941362
        -0.0606843334513
        -0.0606616727665
        -0.0606390120816
        -0.0606163513967
        -0.0605936907119
        -0.060571030027
        -0.0605483693422
        -0.0605257086573
        -0.0605030479725
        -0.0604803872876
        -0.0604577266027
        -0.0604350659179
        -0.060412405233
        -0.0603897445482
        -0.0603670838633
        -0.0603444231785
        -0.0603217624936
        -0.0602991018088
        -0.0602764411239
        -0.060253780439
        -0.0602311197542
        -0.0602084590693
        -0.0601857983845
        -0.0601631376996
        -0.0601404770148
        -0.0601178163299
        -0.060095155645
        -0.0600724949602
        -0.0600498342753
        -0.0600271735905
        -0.0600045129056
        -0.0599818522208
        -0.0599591915359
        -0.0599365308511
        -0.0599138701662
        -0.0598912094813
        -0.0598685487965
        -0.0598458881116
        -0.0598232274268
        -0.0598005667419
        -0.0597779060571
        -0.0597552453722
        -0.0597325846873
        -0.0597099240025
        -0.0596872633176
        -0.0596646026328
        -0.0596419419479
        -0.0596192812631
        -0.0595966205782
        -0.0595739598934
        -0.0595512992085
        -0.0595286385236
        -0.0595059778388
        -0.0594833171539
        -0.0594606564691
        -0.0594379957842
        -0.0594153350994
        -0.0593926744145
        -0.0593700137296
        -0.0593473530448
        -0.0593246923599
        -0.0593020316751
        -0.0592793709902
        -0.0592567103054
        -0.0592340496205
        -0.0592113889357
        -0.0591887282508
        -0.0591660675659
        -0.0591434068811
        -0.0591207461962
        -0.0590980855114
        -0.0590754248265
        -0.0590527641417
        -0.0590301034568
        -0.0590074427719
        -0.0589847820871
        -0.0589621214022
        -0.0589394607174
        -0.0589168000325
        -0.0588941393477
        -0.0588714786628
        -0.058848817978
        -0.0588261572931
        -0.0588034966082
        -0.0587808359234
        -0.0587581752385
        -0.0587355145537
        -0.0587128538688
        -0.058690193184
        -0.0586675324991
        -0.0586448718142
        -0.0586222111294
        -0.0585995504445
        -0.0585768897597
        -0.0585542290748
        -0.05853156839
        -0.0585089077051
        -0.0584862470203
        -0.0584635863354
        -0.0584409256505
        -0.0584182649657
        -0.0583956042808
        -0.058372943596
        -0.0583502829111
        -0.0583276222263
        -0.0583049615414
        -0.0582823008565
        -0.0582596401717
        -0.0582369794868
        -0.058214318802
        -0.0581916581171
        -0.0581689974323
        -0.0581463367474
        -0.0581236760626
        -0.0581010153777
        -0.0580783546928
        -0.058055694008
        -0.0580330333231
        -0.0580103726383
        -0.0579877119534
        -0.0579650512686
        -0.0579423905837
        -0.0579197298988
        -0.057897069214
        -0.0578744085291
        -0.0578517478443
        -0.0578290871594
        -0.0578064264746
        -0.0577837657897
        -0.0577611051049
        -0.05773844442
        -0.0577157837351
        -0.0576931230503
        -0.0576704623654
        -0.0576478016806
        -0.0576251409957
        -0.0576024803109
        -0.057579819626
        -0.0575571589411
        -0.0575344982563
        -0.0575118375714
        -0.0574891768866
        -0.0574665162017
        -0.0574438555169
        -0.057421194832
        -0.0573985341472
        -0.0573758734623
        -0.0573532127774
        -0.0573305520926
        -0.0573078914077
        -0.0572852307229
        -0.057262570038
        -0.0572399093532
        -0.0572172486683
        -0.0571945879834
        -0.0571719272986
        -0.0571492666137
        -0.0571266059289
        -0.057103945244
        -0.0570812845592
        -0.0570586238743
        -0.0570359631895
        -0.0570133025046
        -0.0569906418197
        -0.0569679811349
        -0.05694532045
        -0.0569226597652
        -0.0568999990803
        -0.0568773383955
        -0.0568546777106
        -0.0568320170257
        -0.0568093563409
        -0.056786695656
        -0.0567640349712
        -0.0567413742863
        -0.0567187136015
        -0.0566960529166
        -0.0566733922318
        -0.0566507315469
        -0.056628070862
        -0.0566054101772
        -0.0565827494923
        -0.0565600888075
        -0.0565374281226
        -0.0565147674378
        -0.0564921067529
        -0.056469446068
        -0.0564467853832
        -0.0564241246983
        -0.0564014640135
        -0.0563788033286
        -0.0563561426438
        -0.0563334819589
        -0.0563108212741
        -0.0562881605892
        -0.0562654999043
        -0.0562428392195
        -0.0562201785346
        -0.0561975178498
        -0.0561748571649
        -0.0561521964801
        -0.0561295357952
        -0.0561068751103
        -0.0560842144255
        -0.0560615537406
        -0.0560388930558
        -0.0560162323709
        -0.0559935716861
        -0.0559709110012
        -0.0559482503164
        -0.0559255896315
        -0.0559029289466
        -0.0558802682618
        -0.0558576075769
        -0.0558349468921
        -0.0558122862072
        -0.0557896255224
        -0.0557669648375
        -0.0557443041526
        -0.0557216434678
        -0.0556989827829
        -0.0556763220981
        -0.0556536614132
        -0.0556310007284
        -0.0556083400435
        -0.0555856793587
        -0.0555630186738
        -0.0555403579889
        -0.0555176973041
        -0.0554950366192
        -0.0554723759344
        -0.0554497152495
        -0.0554270545647
        -0.0554043938798
        -0.0553817331949
        -0.0553590725101
        -0.0553364118252
        -0.0553137511404
        -0.0552910904555
        -0.0552684297707
        -0.0552457690858
        -0.055223108401
        -0.0552004477161
        -0.0551777870312
        -0.0551551263464
        -0.0551324656615
        -0.0551098049767
        -0.0550871442918
        -0.055064483607
        -0.0550418229221
        -0.0550191622372
        -0.0549965015524
        -0.0549738408675
        -0.0549511801827
        -0.0549285194978
        -0.054905858813
        -0.0548831981281
        -0.0548605374433
        -0.0548378767584
        -0.0548152160735
        -0.0547925553887
        -0.0547698947038
        -0.054747234019
        -0.0547245733341
        -0.0547019126493
        -0.0546792519644
        -0.0546565912795
        -0.0546339305947
        -0.0546112699098
        -0.054588609225
        -0.0545659485401
        -0.0545432878553
        -0.0545206271704
        -0.0544979664856
        -0.0544753058007
        -0.0544526451158
        -0.054429984431
        -0.0544073237461
        -0.0543846630613
        -0.0543620023764
        -0.0543393416916
        -0.0543166810067
        -0.0542940203218
        -0.054271359637
        -0.0542486989521
        -0.0542260382673
        -0.0542033775824
        -0.0541807168976
        -0.0541580562127
        -0.0541353955279
        -0.054112734843
        -0.0540900741581
        -0.0540674134733
        -0.0540447527884
        -0.0540220921036
        -0.0539994314187
        -0.0539767707339
        -0.053954110049
        -0.0539314493641
        -0.0539087886793
        -0.0538861279944
        -0.0538634673096
        -0.0538408066247
        -0.0538181459399
        -0.053795485255
        -0.0537728245702
        -0.0537501638853
        -0.0537275032004
        -0.0537048425156
        -0.0536821818307
        -0.0536595211459
        -0.053636860461
        -0.0536141997762
        -0.0535915390913
        -0.0535688784064
        -0.0535462177216
        -0.0535235570367
        -0.0535008963519
        -0.053478235667
        -0.0534555749822
        -0.0534329142973
        -0.0534102536125
        -0.0533875929276
        -0.0533649322427
        -0.0533422715579
        -0.053319610873
        -0.0532969501882
        -0.0532742895033
        -0.0532516288185
        -0.0532289681336
        -0.0532063074487
        -0.0531836467639
        -0.053160986079
        -0.0531383253942
        -0.0531156647093
        -0.0530930040245
        -0.0530703433396
        -0.0530476826548
        -0.0530250219699
        -0.053002361285
        -0.0529797006002
        -0.0529570399153
        -0.0529343792305
        -0.0529117185456
        -0.0528890578608
        -0.0528663971759
        -0.052843736491
        -0.0528210758062
        -0.0527984151213
        -0.0527757544365
        -0.0527530937516
        -0.0527304330668
        -0.0527077723819
        -0.0526851116971
        -0.0526624510122
        -0.0526397903273
        -0.0526171296425
        -0.0525944689576
        -0.0525718082728
        -0.0525491475879
        -0.0525264869031
        -0.0525038262182
        -0.0524811655333
        -0.0524585048485
        -0.0524358441636
        -0.0524131834788
        -0.0523905227939
        -0.0523678621091
        -0.0523452014242
        -0.0523225407394
        -0.0522998800545
        -0.0522772193696
        -0.0522545586848
        -0.0522318979999
        -0.0522092373151
        -0.0521865766302
        -0.0521639159454
        -0.0521412552605
        -0.0521185945756
        -0.0520959338908
        -0.0520732732059
        -0.0520506125211
        -0.0520279518362
        -0.0520052911514
        -0.0519826304665
        -0.0519599697817
        -0.0519373090968
        -0.0519146484119
        -0.0518919877271
        -0.0518693270422
        -0.0518466663574
        -0.0518240056725
        -0.0518013449877
        -0.0517786843028
        -0.0517560236179
        -0.0517333629331
        -0.0517107022482
        -0.0516880415634
        -0.0516653808785
        -0.0516427201937
        -0.0516200595088
        -0.051597398824
        -0.0515747381391
        -0.0515520774542
        -0.0515294167694
        -0.0515067560845
        -0.0514840953997
        -0.0514614347148
        -0.05143877403
        -0.0514161133451
        -0.0513934526602
        -0.0513707919754
        -0.0513481312905
        -0.0513254706057
        -0.0513028099208
        -0.051280149236
        -0.0512574885511
        -0.0512348278663
        -0.0512121671814
        -0.0511895064965
        -0.0511668458117
        -0.0511441851268
        -0.051121524442
        -0.0510988637571
        -0.0510762030723
        -0.0510535423874
        -0.0510308817025
        -0.0510082210177
        -0.0509855603328
        -0.050962899648
        -0.0509402389631
        -0.0509175782783
        -0.0508949175934
        -0.0508722569086
        -0.0508495962237
        -0.0508269355388
        -0.050804274854
        -0.0507816141691
        -0.0507589534843
        -0.0507362927994
        -0.0507136321146
        -0.0506909714297
        -0.0506683107448
        -0.05064565006
        -0.0506229893751
        -0.0506003286903
        -0.0505776680054
        -0.0505550073206
        -0.0505323466357
        -0.0505096859509
        -0.050487025266
        -0.0504643645811
        -0.0504417038963
        -0.0504190432114
        -0.0503963825266
        -0.0503737218417
        -0.0503510611569
        -0.050328400472
        -0.0503057397871
        -0.0502830791023
        -0.0502604184174
        -0.0502377577326
        -0.0502150970477
        -0.0501924363629
        -0.050169775678
        -0.0501471149932
        -0.0501244543083
        -0.0501017936234
        -0.0500791329386
        -0.0500564722537
        -0.0500338115689
        -0.050011150884
        -0.0499884901992
        -0.0499658295143
        -0.0499431688294
        -0.0499205081446
        -0.0498978474597
        -0.0498751867749
        -0.04985252609
        -0.0498298654052
        -0.0498072047203
        -0.0497845440355
        -0.0497618833506
        -0.0497392226657
        -0.0497165619809
        -0.049693901296
        -0.0496712406112
        -0.0496485799263
        -0.0496259192415
        -0.0496032585566
        -0.0495805978717
        -0.0495579371869
        -0.049535276502
        -0.0495126158172
        -0.0494899551323
        -0.0494672944475
        -0.0494446337626
        -0.0494219730778
        -0.0493993123929
        -0.049376651708
        -0.0493539910232
        -0.0493313303383
        -0.0493086696535
        -0.0492860089686
        -0.0492633482838
        -0.0492406875989
        -0.049218026914
        -0.0491953662292
        -0.0491727055443
        -0.0491500448595
        -0.0491273841746
        -0.0491047234898
        -0.0490820628049
        -0.0490594021201
        -0.0490367414352
        -0.0490140807503
        -0.0489914200655
        -0.0489687593806
        -0.0489460986958
        -0.0489234380109
        -0.0489007773261
        -0.0488781166412
        -0.0488554559563
        -0.0488327952715
        -0.0488101345866
        -0.0487874739018
        -0.0487648132169
        -0.0487421525321
        -0.0487194918472
        -0.0486968311624
        -0.0486741704775
        -0.0486515097926
        -0.0486288491078
        -0.0486061884229
        -0.0485835277381
        -0.0485608670532
        -0.0485382063684
        -0.0485155456835
        -0.0484928849986
        -0.0484702243138
        -0.0484475636289
        -0.0484249029441
        -0.0484022422592
        -0.0483795815744
        -0.0483569208895
        -0.0483342602047
        -0.0483115995198
        -0.0482889388349
        -0.0482662781501
        -0.0482436174652
        -0.0482209567804
        -0.0481982960955
        -0.0481756354107
        -0.0481529747258
        -0.0481303140409
        -0.0481076533561
        -0.0480849926712
        -0.0480623319864
        -0.0480396713015
        -0.0480170106167
        -0.0479943499318
        -0.047971689247
        -0.0479490285621
        -0.0479263678772
        -0.0479037071924
        -0.0478810465075
        -0.0478583858227
        -0.0478357251378
        -0.047813064453
        -0.0477904037681
        -0.0477677430832
        -0.0477450823984
        -0.0477224217135
        -0.0476997610287
        -0.0476771003438
        -0.047654439659
        -0.0476317789741
        -0.0476091182893
        -0.0475864576044
        -0.0475637969195
        -0.0475411362347
        -0.0475184755498
        -0.047495814865
        -0.0474731541801
        -0.0474504934953
        -0.0474278328104
        -0.0474051721255
        -0.0473825114407
        -0.0473598507558
        -0.047337190071
        -0.0473145293861
        -0.0472918687013
        -0.0472692080164
        -0.0472465473316
        -0.0472238866467
        -0.0472012259618
        -0.047178565277
        -0.0471559045921
        -0.0471332439073
        -0.0471105832224
        -0.0470879225376
        -0.0470652618527
        -0.0470426011678
        -0.047019940483
        -0.0469972797981
        -0.0469746191133
        -0.0469519584284
        -0.0469292977436
        -0.0469066370587
        -0.0468839763739
        -0.046861315689
        -0.0468386550041
        -0.0468159943193
        -0.0467933336344
        -0.0467706729496
        -0.0467480122647
        -0.0467253515799
        -0.046702690895
        -0.0466800302101
        -0.0466573695253
        -0.0466347088404
        -0.0466120481556
        -0.0465893874707
        -0.0465667267859
        -0.046544066101
        -0.0465214054162
        -0.0464987447313
        -0.0464760840464
        -0.0464534233616
        -0.0464307626767
        -0.0464081019919
        -0.046385441307
        -0.0463627806222
        -0.0463401199373
        -0.0463174592524
        -0.0462947985676
        -0.0462721378827
        -0.0462494771979
        -0.046226816513
        -0.0462041558282
        -0.0461814951433
        -0.0461588344585
        -0.0461361737736
        -0.0461135130887
        -0.0460908524039
        -0.046068191719
        -0.0460455310342
        -0.0460228703493
        -0.0460002096645
        -0.0459775489796
        -0.0459548882947
        -0.0459322276099
        -0.045909566925
        -0.0458869062402
        -0.0458642455553
        -0.0458415848705
        -0.0458189241856
        -0.0457962635008
        -0.0457736028159
        -0.045750942131
        -0.0457282814462
        -0.0457056207613
        -0.0456829600765
        -0.0456602993916
        -0.0456376387068
        -0.0456149780219
        -0.045592317337
        -0.0455696566522
        -0.0455469959673
        -0.0455243352825
        -0.0455016745976
        -0.0454790139128
        -0.0454563532279
        -0.0454336925431
        -0.0454110318582
        -0.0453883711733
        -0.0453657104885
        -0.0453430498036
        -0.0453203891188
        -0.0452977284339
        -0.0452750677491
        -0.0452524070642
        -0.0452297463793
        -0.0452070856945
        -0.0451844250096
        -0.0451617643248
        -0.0451391036399
        -0.0451164429551
        -0.0450937822702
        -0.0450711215854
        -0.0450484609005
        -0.0450258002156
        -0.0450031395308
        -0.0449804788459
        -0.0449578181611
        -0.0449351574762
        -0.0449124967914
        -0.0448898361065
        -0.0448671754216
        -0.0448445147368
        -0.0448218540519
        -0.0447991933671
        -0.0447765326822
        -0.0447538719974
        -0.0447312113125
        -0.0447085506277
        -0.0446858899428
        -0.0446632292579
        -0.0446405685731
        -0.0446179078882
        -0.0445952472034
        -0.0445725865185
        -0.0445499258337
        -0.0445272651488
        -0.0445046044639
        -0.0444819437791
        -0.0444592830942
        -0.0444366224094
        -0.0444139617245
        -0.0443913010397
        -0.0443686403548
        -0.04434597967
        -0.0443233189851
        -0.0443006583002
        -0.0442779976154
        -0.0442553369305
        -0.0442326762457
        -0.0442100155608
        -0.044187354876
        -0.0441646941911
        -0.0441420335062
        -0.0441193728214
        -0.0440967121365
        -0.0440740514517
        -0.0440513907668
        -0.044028730082
        -0.0440060693971
        -0.0439834087123
        -0.0439607480274
        -0.0439380873425
        -0.0439154266577
        -0.0438927659728
        -0.043870105288
        -0.0438474446031
        -0.0438247839183
        -0.0438021232334
        -0.0437794625485
        -0.0437568018637
        -0.0437341411788
        -0.043711480494
        -0.0436888198091
        -0.0436661591243
        -0.0436434984394
        -0.0436208377546
        -0.0435981770697
        -0.0435755163848
        -0.0435528557
        -0.0435301950151
        -0.0435075343303
        -0.0434848736454
        -0.0434622129606
        -0.0434395522757
        -0.0434168915908
        -0.043394230906
        -0.0433715702211
        -0.0433489095363
        -0.0433262488514
        -0.0433035881666
        -0.0432809274817
        -0.0432582667969
        -0.043235606112
        -0.0432129454271
        -0.0431902847423
        -0.0431676240574
        -0.0431449633726
        -0.0431223026877
        -0.0430996420029
        -0.043076981318
        -0.0430543206331
        -0.0430316599483
        -0.0430089992634
        -0.0429863385786
        -0.0429636778937
        -0.0429410172089
        -0.042918356524
        -0.0428956958392
        -0.0428730351543
        -0.0428503744694
        -0.0428277137846
        -0.0428050530997
        -0.0427823924149
        -0.04275973173
        -0.0427370710452
        -0.0427144103603
        -0.0426917496754
        -0.0426690889906
        -0.0426464283057
        -0.0426237676209
        -0.042601106936
        -0.0425784462512
        -0.0425557855663
        -0.0425331248815
        -0.0425104641966
        -0.0424878035117
        -0.0424651428269
        -0.042442482142
        -0.0424198214572
        -0.0423971607723
        -0.0423745000875
        -0.0423518394026
        -0.0423291787177
        -0.0423065180329
        -0.042283857348
        -0.0422611966632
        -0.0422385359783
        -0.0422158752935
        -0.0421932146086
        -0.0421705539238
        -0.0421478932389
        -0.042125232554
        -0.0421025718692
        -0.0420799111843
        -0.0420572504995
        -0.0420345898146
        -0.0420119291298
        -0.0419892684449
        -0.04196660776
        -0.0419439470752
        -0.0419212863903
        -0.0418986257055
        -0.0418759650206
        -0.0418533043358
        -0.0418306436509
        -0.0418079829661
        -0.0417853222812
        -0.0417626615963
        -0.0417400009115
        -0.0417173402266
        -0.0416946795418
        -0.0416720188569
        -0.0416493581721
        -0.0416266974872
        -0.0416040368023
        -0.0415813761175
        -0.0415587154326
