OpenColorIO/configs/aces_1.1/luts/ADX_CID_to_RLE.spi1d
Version 1
From -0.190000 3.000000
Length 4096
Components 1
{
         -6.0
         -5.987231114136202
         -5.974462228272405
         -5.9616933424086085
         -5.948924456544811
         -5.936155570681013
         -5.923386684817216
         -5.910617798953419
         -5.8978489130896214
         -5.885080027225825
         -5.872311141362027
         -5.859542255498229
         -5.846773369634432
         -5.834004483770635
         -5.8212355979068375
         -5.80846671204304
         -5.795697826179243
         -5.782928940315446
         -5.770160054451648
         -5.757391168587851
         -5.744622282724054
         -5.731853396860257
         -5.719084510996459
         -5.706315625132662
         -5.693546739268864
         -5.6807778534050675
         -5.66800896754127
         -5.655240081677473
         -5.642471195813675
         -5.629702309949878
         -5.61693342408608
         -5.6041645382222836
         -5.591395652358486
         -5.578626766494689
         -5.565857880630892
         -5.553088994767094
         -5.5403201089032965
         -5.5275512230395
         -5.514782337175702
         -5.502013451311905
         -5.489244565448107
         -5.47647567958431
         -5.463706793720513
         -5.450937907856716
         -5.438169021992918
         -5.425400136129121
         -5.412631250265323
         -5.3998623644015264
         -5.387093478537729
         -5.374324592673932
         -5.361555706810135
         -5.348786820946337
         -5.33601793508254
         -5.3232490492187425
         -5.310480163354946
         -5.297711277491148
         -5.28494239162735
         -5.272173505763553
         -5.259404619899756
         -5.246635734035959
         -5.233866848172161
         -5.221097962308364
         -5.208329076444567
         -5.195560190580769
         -5.182791304716972
         -5.170022418853175
         -5.157253532989377
         -5.14448464712558
         -5.131715761261783
         -5.118946875397985
         -5.106177989534188
         -5.093409103670391
         -5.080640217806594
         -5.067871331942796
         -5.055102446078999
         -5.0423335602152015
         -5.029564674351405
         -5.016795788487607
         -5.00402690262381
         -4.991258016760012
         -4.978489130896215
         -4.965720245032418
         -4.952951359168621
         -4.940182473304823
         -4.927413587441026
         -4.914644701577229
         -4.9018758157134315
         -4.889106929849634
         -4.876338043985837
         -4.863569158122039
         -4.850800272258242
         -4.838031386394444
         -4.8252625005306475
         -4.81249361466685
         -4.799724728803053
         -4.786955842939255
         -4.774186957075458
         -4.761418071211661
         -4.748649185347864
         -4.735880299484066
         -4.723111413620269
         -4.710342527756472
         -4.697573641892674
         -4.684804756028877
         -4.67203587016508
         -4.659266984301283
         -4.646498098437485
         -4.633729212573687
         -4.62096032670989
         -4.608191440846094
         -4.595422554982296
         -4.582653669118498
         -4.569884783254701
         -4.557115897390904
         -4.5443470115271065
         -4.531578125663309
         -4.518809239799512
         -4.506040353935715
         -4.493271468071917
         -4.4805025822081195
         -4.467733696344323
         -4.454964810480526
         -4.442195924616728
         -4.42942703875293
         -4.416658152889133
         -4.4038892670253365
         -4.391120381161539
         -4.378351495297742
         -4.365582609433944
         -4.352813723570147
         -4.340044837706349
         -4.3272759518425525
         -4.314507065978755
         -4.301738180114958
         -4.28896929425116
         -4.276200408387362
         -4.2634315225235655
         -4.250662636659769
         -4.237893750795971
         -4.225124864932174
         -4.212355979068376
         -4.199587093204579
         -4.186818207340782
         -4.174049321476985
         -4.161280435613188
         -4.14851154974939
         -4.135742663885592
         -4.122973778021795
         -4.110204892157998
         -4.097436006294201
         -4.084667120430403
         -4.071898234566606
         -4.059129348702808
         -4.0463604628390115
         -4.033591576975214
         -4.020822691111417
         -4.008053805247619
         -3.9952849193838222
         -3.982516033520025
         -3.9697471476562276
         -3.9569782617924303
         -3.944209375928633
         -3.9314404900648356
         -3.9186716042010383
         -3.905902718337241
         -3.8931338324734437
         -3.880364946609646
         -3.867596060745849
         -3.8548271748820517
         -3.8420582890182544
         -3.8292894031544575
         -3.8165205172906598
         -3.8037516314268625
         -3.790982745563065
         -3.778213859699268
         -3.765444973835471
         -3.752676087971673
         -3.739907202107876
         -3.7271383162440785
         -3.7143694303802817
         -3.701600544516484
         -3.6888316586526866
         -3.6760627727888893
         -3.663293886925092
         -3.650525001061295
         -3.6377561151974978
         -3.6249872293337
         -3.612218343469903
         -3.5994494576061054
         -3.586680571742308
         -3.573911685878511
         -3.5611428000147134
         -3.548373914150916
         -3.535605028287119
         -3.522836142423322
         -3.5100672565595246
         -3.497298370695727
         -3.4845294848319295
         -3.4717605989681326
         -3.4589917131043353
         -3.446222827240538
         -3.43345394137674
         -3.4206850555129433
         -3.407916169649146
         -3.3951472837853487
         -3.3823783979215514
         -3.3696095120577536
         -3.3568406261939567
         -3.3440717403301594
         -3.331302854466362
         -3.318533968602565
         -3.3057650827387675
         -3.2929961968749697
         -3.280227311011173
         -3.2674584251473755
         -3.2546895392835777
         -3.241920653419781
         -3.2291517675559835
         -3.2163828816921862
         -3.2036139958283893
         -3.190845109964591
         -3.178076224100794
         -3.165307338236997
         -3.1525384523731996
         -3.1397695665094023
         -3.127000680645605
         -3.1142317947818077
         -3.1014629089180104
         -3.088694023054213
         -3.0759251371904157
         -3.0631562513266184
         -3.050387365462821
         -3.0376184795990238
         -3.024849593735227
         -3.0120807078714296
         -2.999311822007632
         -2.9865429361438345
         -2.973774050280037
         -2.96100516441624
         -2.948236278552443
         -2.935467392688645
         -2.922698506824848
         -2.909929620961051
         -2.8971607350972537
         -2.884391849233456
         -2.8716229633696586
         -2.8588540775058613
         -2.846085191642064
         -2.833316305778267
         -2.8205474199144698
         -2.807778534050672
         -2.795009648186875
         -2.7822407623230774
         -2.7694718764592805
         -2.756702990595483
         -2.7439341047316854
         -2.7311652188678885
         -2.7194665760812646
         -2.7108110340923894
         -2.702155492103514
         -2.693499950114639
         -2.6848444081257634
         -2.6761888661368882
         -2.667533324148013
         -2.658877782159137
         -2.6502222401702618
         -2.6415666981813866
         -2.632911156192511
         -2.624255614203636
         -2.6156000722147605
         -2.6069445302258853
         -2.59828898823701
         -2.5896334462481345
         -2.5809779042592593
         -2.572322362270384
         -2.563666820281509
         -2.5550112782926333
         -2.5463557363037586
         -2.537700194314883
         -2.5290446523260077
         -2.5207981979257066
         -2.514805899625716
         -2.5088136013257256
         -2.5028213030257347
         -2.496829004725744
         -2.4908367064257537
         -2.4848444081257632
         -2.4788521098257723
         -2.472859811525782
         -2.4668675132257913
         -2.460875214925801
         -2.4548829166258104
         -2.4488906183258194
         -2.442898320025829
         -2.4369060217258385
         -2.430913723425848
         -2.424921425125857
         -2.418929126825866
         -2.4129368285258757
         -2.406944530225885
         -2.4009522319258947
         -2.3949599336259038
         -2.3889676353259133
         -2.382975337025923
         -2.376983038725932
         -2.3709907404259414
         -2.364998442125951
         -2.3590061438259604
         -2.3530138455259695
         -2.347021547225979
         -2.3410292489259885
         -2.335036950625998
         -2.329044652326007
         -2.323052354026016
         -2.3187644176555287
         -2.3149644236116322
         -2.3111644295677354
         -2.307364435523839
         -2.3035644414799425
         -2.299764447436046
         -2.2959644533921497
         -2.2921644593482533
         -2.288364465304357
         -2.2845644712604605
         -2.280764477216564
         -2.276964483172667
         -2.273164489128771
         -2.2693644950848744
         -2.265564501040978
         -2.2617645069970815
         -2.2579645129531847
         -2.2541645189092883
         -2.250364524865392
         -2.2465645308214954
         -2.242764536777599
         -2.2389645427337026
         -2.235164548689806
         -2.2313645546459098
         -2.227564560602013
         -2.223764566558117
         -2.21996457251422
         -2.2161645784703237
         -2.2123645844264272
         -2.208564590382531
         -2.2047645963386344
         -2.2009646022947376
         -2.197164608250841
         -2.1933646142069447
         -2.1895646201630483
         -2.185764626119152
         -2.1819646320752555
         -2.178164638031359
         -2.1743646439874627
         -2.170564649943566
         -2.1667646558996694
         -2.162964661855773
         -2.1591646678118765
         -2.15536467376798
         -2.1515646797240837
         -2.1477646856801873
         -2.1439646916362904
         -2.140164697592394
         -2.1363647035484976
         -2.132564709504601
         -2.128764715460705
         -2.1249647214168084
         -2.1212644325457877
         -2.1181484374297925
         -2.1150324423137974
         -2.1119164471978022
         -2.108800452081807
         -2.105684456965812
         -2.102568461849817
         -2.0994524667338217
         -2.096336471617827
         -2.093220476501832
         -2.0901044813858363
         -2.086988486269841
         -2.083872491153846
         -2.0807564960378513
         -2.077640500921856
         -2.074524505805861
         -2.071408510689866
         -2.0682925155738707
         -2.0651765204578756
         -2.0620605253418804
         -2.0589445302258853
         -2.05582853510989
         -2.052712539993895
         -2.0495965448779
         -2.0464805497619047
         -2.04336455464591
         -2.0402485595299145
         -2.0371325644139193
         -2.034016569297924
         -2.030900574181929
         -2.0277845790659343
         -2.024668583949939
         -2.021552588833944
         -2.018436593717949
         -2.0153205986019533
         -2.012204603485958
         -2.009088608369963
         -2.0059726132539684
         -2.002856618137973
         -1.999740623021978
         -1.996624627905983
         -1.9935086327899878
         -1.9903926376739927
         -1.9872766425579975
         -1.9841606474420024
         -1.9810446523260072
         -1.977928657210012
         -1.974812662094017
         -1.971696666978022
         -1.968580671862027
         -1.9654646767460318
         -1.9623486816300366
         -1.9592326865140415
         -1.9561166913980463
         -1.9530006962820514
         -1.9498847011660563
         -1.9467687060500611
         -1.943652710934066
         -1.9405367158180706
         -1.9374207207020757
         -1.9343047255860806
         -1.9311887304700854
         -1.9280727353540903
         -1.9249567402380952
         -1.9218407451221
         -1.9197227150040699
         -1.9176453849267399
         -1.9155680548494098
         -1.9134907247720796
         -1.9114133946947496
         -1.9093360646174196
         -1.9072587345400893
         -1.9051814044627595
         -1.9031040743854293
         -1.901026744308099
         -1.898949414230769
         -1.896872084153439
         -1.894794754076109
         -1.892717423998779
         -1.8906400939214487
         -1.8885627638441187
         -1.8864854337667887
         -1.8844081036894584
         -1.8823307736121286
         -1.8802534435347984
         -1.8781761134574684
         -1.8760987833801384
         -1.8740214533028081
         -1.871944123225478
         -1.869866793148148
         -1.8677894630708178
         -1.8657121329934878
         -1.8636348029161578
         -1.8615574728388276
         -1.8594801427614978
         -1.8574028126841675
         -1.8553254826068375
         -1.8532481525295075
         -1.8511708224521772
         -1.8490934923748472
         -1.8470161622975172
         -1.8449388322201872
         -1.8428615021428572
         -1.840784172065527
         -1.838706841988197
         -1.8366295119108669
         -1.8345521818335366
         -1.8324748517562066
         -1.8303975216788766
         -1.8283201916015464
         -1.8262428615242163
         -1.8241655314468863
         -1.8220882013695563
         -1.8200108712922263
         -1.817933541214896
         -1.815856211137566
         -1.813778881060236
         -1.8117015509829058
         -1.809624220905576
         -1.807546890828246
         -1.8054695607509157
         -1.8033922306735857
         -1.8013149005962554
         -1.7992375705189254
         -1.7971602404415954
         -1.7950829103642651
         -1.7930055802869351
         -1.790928250209605
         -1.788850920132275
         -1.786773590054945
         -1.784696259977615
         -1.7826189299002848
         -1.7805415998229548
         -1.7784642697456248
         -1.7763869396682945
         -1.7743096095909647
         -1.7722322795136345
         -1.7701549494363045
         -1.7680776193589742
         -1.7660002892816442
         -1.7639229592043142
         -1.7618456291269842
         -1.759768299049654
         -1.757690968972324
         -1.7556136388949939
         -1.7535363088176636
         -1.7514589787403338
         -1.7493816486630036
         -1.7473043185856736
         -1.7452269885083436
         -1.7431496584310133
         -1.7410723283536833
         -1.7389949982763533
         -1.7369176681990233
         -1.7348403381216932
         -1.732763008044363
         -1.730685677967033
         -1.728608347889703
         -1.7265310178123727
         -1.724453687735043
         -1.7223763576577127
         -1.7203877536691088
         -1.7184402567216115
         -1.7164927597741146
         -1.7145452628266178
         -1.7125977658791207
         -1.7106502689316239
         -1.7087027719841268
         -1.70675527503663
         -1.704807778089133
         -1.702860281141636
         -1.7009127841941392
         -1.698965287246642
         -1.6970177902991452
         -1.6950702933516482
         -1.6931227964041513
         -1.6911752994566545
         -1.6892278025091574
         -1.6872803055616605
         -1.6853328086141635
         -1.6833853116666666
         -1.6814378147191698
         -1.679490317771673
         -1.6775428208241758
         -1.675595323876679
         -1.673647826929182
         -1.671700329981685
         -1.669752833034188
         -1.6678053360866911
         -1.6658578391391943
         -1.6639103421916972
         -1.6619628452442003
         -1.6600153482967033
         -1.6580678513492064
         -1.6561203544017093
         -1.6541728574542123
         -1.6522253605067154
         -1.6502778635592186
         -1.6483303666117215
         -1.6463828696642246
         -1.6444353727167276
         -1.6424878757692307
         -1.6405403788217336
         -1.6385928818742368
         -1.63664538492674
         -1.6346978879792429
         -1.632750391031746
         -1.630802894084249
         -1.628855397136752
         -1.626907900189255
         -1.6249604032417582
         -1.6230129062942613
         -1.6210654093467642
         -1.6191179123992674
         -1.6171704154517703
         -1.6152229185042735
         -1.6132754215567766
         -1.6113279246092798
         -1.6093804276617827
         -1.6074329307142858
         -1.6054854337667888
         -1.603537936819292
         -1.601590439871795
         -1.599642942924298
         -1.5976954459768011
         -1.595747949029304
         -1.593800452081807
         -1.5918529551343101
         -1.589905458186813
         -1.587957961239316
         -1.5860104642918191
         -1.5840629673443223
         -1.5821154703968254
         -1.5801679734493284
         -1.5782204765018315
         -1.5762729795543344
         -1.5743254826068376
         -1.5723779856593405
         -1.5704304887118437
         -1.5684829917643468
         -1.5665354948168497
         -1.5645879978693529
         -1.5626405009218558
         -1.560693003974359
         -1.5587455070268619
         -1.556798010079365
         -1.5548505131318682
         -1.5529030161843713
         -1.5509555192368742
         -1.5490080222893772
         -1.5470605253418803
         -1.5451130283943835
         -1.5431655314468866
         -1.5412180344993895
         -1.5392705375518925
         -1.5373230406043956
         -1.5353755436568988
         -1.533428046709402
         -1.5314805497619046
         -1.5295330528144078
         -1.5275855558669107
         -1.5256380589194138
         -1.5236905619719168
         -1.52174306502442
         -1.5201801834615385
         -1.518622185903541
         -1.5170641883455434
         -1.5155061907875458
         -1.5139481932295482
         -1.5123901956715506
         -1.510832198113553
         -1.5092742005555555
         -1.507716202997558
         -1.5061582054395604
         -1.504600207881563
         -1.5030422103235654
         -1.5014842127655676
         -1.4999262152075703
         -1.4983682176495727
         -1.4968102200915752
         -1.4952522225335776
         -1.49369422497558
         -1.4921362274175825
         -1.4905782298595849
         -1.4890202323015873
         -1.4874622347435897
         -1.4859042371855922
         -1.4843462396275946
         -1.482788242069597
         -1.4812302445115997
         -1.4796722469536019
         -1.4781142493956043
         -1.4765562518376067
         -1.4749982542796092
         -1.4734402567216116
         -1.471882259163614
         -1.4703242616056165
         -1.468766264047619
         -1.4672082664896213
         -1.465650268931624
         -1.4640922713736264
         -1.4625342738156288
         -1.4609762762576313
         -1.4594182786996337
         -1.4578602811416361
         -1.4563022835836386
         -1.454744286025641
         -1.4531862884676434
         -1.4516282909096458
         -1.4500702933516483
         -1.4485122957936507
         -1.4469542982356531
         -1.4453963006776558
         -1.4438383031196582
         -1.4422803055616606
         -1.440722308003663
         -1.4391643104456655
         -1.437606312887668
         -1.4360483153296704
         -1.4344903177716728
         -1.4329323202136752
         -1.4313743226556777
         -1.42981632509768
         -1.4282583275396825
         -1.426700329981685
         -1.4251423324236874
         -1.4235843348656898
         -1.4220263373076922
         -1.4204683397496947
         -1.418910342191697
         -1.4173523446336995
         -1.415794347075702
         -1.4142363495177044
         -1.4126783519597068
         -1.4111203544017095
         -1.409562356843712
         -1.4080043592857143
         -1.4064463617277168
         -1.4048883641697192
         -1.4033303666117216
         -1.401772369053724
         -1.4002143714957265
         -1.398656373937729
         -1.3970983763797313
         -1.3955403788217338
         -1.3939823812637362
         -1.3924243837057386
         -1.3908663861477413
         -1.3893083885897437
         -1.3877503910317461
         -1.3861923934737486
         -1.384634395915751
         -1.3830763983577534
         -1.3815184007997559
         -1.379960403241758
         -1.3784024056837605
         -1.3768444081257631
         -1.3752864105677656
         -1.373728413009768
         -1.3721704154517704
         -1.3706124178937729
         -1.3690544203357753
         -1.3674964227777777
         -1.3659384252197802
         -1.3643804276617826
         -1.362822430103785
         -1.3612644325457874
         -1.3597064349877899
         -1.3581484374297923
         -1.356590439871795
         -1.3550324423137974
         -1.3534744447557998
         -1.3519164471978022
         -1.3503584496398047
         -1.348800452081807
         -1.3472424545238095
         -1.3456844569658122
         -1.3441264594078146
         -1.342568461849817
         -1.3410104642918195
         -1.339452466733822
         -1.3378944691758243
         -1.3363364716178268
         -1.3347784740598292
         -1.3332204765018316
         -1.331662478943834
         -1.3301044813858365
         -1.328546483827839
         -1.3269884862698413
         -1.3254304887118438
         -1.3238724911538462
         -1.3223144935958486
         -1.320756496037851
         -1.3191984984798535
         -1.317640500921856
         -1.3160825033638583
         -1.3145245058058608
         -1.3129665082478632
         -1.3114085106898656
         -1.309850513131868
         -1.3082925155738705
         -1.306734518015873
         -1.3051765204578754
         -1.3036185228998778
         -1.3020605253418807
         -1.300502527783883
         -1.2989445302258855
         -1.297386532667888
         -1.2958285351098904
         -1.2942705375518928
         -1.2927125399938952
         -1.2911545424358977
         -1.2895965448779
         -1.2880385473199025
         -1.286480549761905
         -1.2849225522039074
         -1.2833645546459098
         -1.2818065570879122
         -1.2802485595299147
         -1.278690561971917
         -1.2771325644139195
         -1.275574566855922
         -1.2740165692979244
         -1.2724585717399268
         -1.2709005741819293
         -1.2693425766239317
         -1.2677845790659341
         -1.2662265815079365
         -1.264668583949939
         -1.2631105863919414
         -1.2615525888339438
         -1.2599945912759463
         -1.2584365937179487
         -1.2568785961599511
         -1.2553205986019536
         -1.253762601043956
         -1.2522046034859584
         -1.2506466059279608
         -1.2490886083699633
         -1.2475306108119661
         -1.2459726132539686
         -1.244414615695971
         -1.2428566181379734
         -1.2412986205799759
         -1.2397406230219783
         -1.2381826254639807
         -1.2366246279059832
         -1.2350666303479856
         -1.233508632789988
         -1.2319506352319904
         -1.2303926376739929
         -1.2288346401159953
         -1.2272766425579977
         -1.2257186450000002
         -1.2241606474420026
         -1.222602649884005
         -1.2210446523260075
         -1.2194866547680099
         -1.2179286572100123
         -1.2163706596520147
         -1.2148126620940172
         -1.2132546645360196
         -1.211696666978022
         -1.2101386694200245
         -1.208580671862027
         -1.2070226743040293
         -1.2054646767460317
         -1.2039066791880342
         -1.2023486816300366
         -1.200790684072039
         -1.1992326865140415
         -1.197674688956044
         -1.1961166913980463
