OpenColorIO/configs/aces_1.1/luts/Dolby_PQ_10000_to_linear.spi1d
Version 1
From 0.000000 1.000000
Length 4096
Components 3
{
         0.0 0.0 0.0
         3.68487371816e-06 3.68487371816e-06 3.68487371816e-06
         1.2368383068e-05 1.2368383068e-05 1.2368383068e-05
         2.47574953391e-05 2.47574953391e-05 2.47574953391e-05
         4.0372764488e-05 4.0372764488e-05 4.0372764488e-05
         5.89474693697e-05 5.89474693697e-05 5.89474693697e-05
         8.03097937023e-05 8.03097937023e-05 8.03097937023e-05
         0.000104340688267 0.000104340688267 0.000104340688267
         0.000130950371386 0.000130950371386 0.000130950371386
         0.000160071300343 0.000160071300343 0.000160071300343
         0.000191654777154 0.000191654777154 0.000191654777154
         0.000225653013331 0.000225653013331 0.000225653013331
         0.000262038316578 0.000262038316578 0.000262038316578
         0.000300781684928 0.000300781684928 0.000300781684928
         0.000341860228218 0.000341860228218 0.000341860228218
         0.00038525936543 0.00038525936543 0.00038525936543
         0.000430967629654 0.000430967629654 0.000430967629654
         0.000478962727357 0.000478962727357 0.000478962727357
         0.000529247452505 0.000529247452505 0.000529247452505
         0.000581809668802 0.000581809668802 0.000581809668802
         0.000636653450783 0.000636653450783 0.000636653450783
         0.000693753594533 0.000693753594533 0.000693753594533
         0.000753130181693 0.000753130181693 0.000753130181693
         0.000814772618469 0.000814772618469 0.000814772618469
         0.000878685561474 0.000878685561474 0.000878685561474
         0.00094485306181 0.00094485306181 0.00094485306181
         0.00101330131292 0.00101330131292 0.00101330131292
         0.0010840134928 0.0010840134928 0.0010840134928
         0.0011570143979 0.0011570143979 0.0011570143979
         0.00123229785822 0.00123229785822 0.00123229785822
         0.00130984943826 0.00130984943826 0.00130984943826
         0.00138969323598 0.00138969323598 0.00138969323598
         0.00147182960063 0.00147182960063 0.00147182960063
         0.00155626551714 0.00155626551714 0.00155626551714
         0.00164299935568 0.00164299935568 0.00164299935568
         0.0017320663901 0.0017320663901 0.0017320663901
         0.00182343728375 0.00182343728375 0.00182343728375
         0.00191714323591 0.00191714323591 0.00191714323591
         0.00201316154562 0.00201316154562 0.00201316154562
         0.00211155158468 0.00211155158468 0.00211155158468
         0.0022122731898 0.0022122731898 0.0022122731898
         0.00231534964405 0.00231534964405 0.00231534964405
         0.0024207951501 0.0024207951501 0.0024207951501
         0.00252862670459 0.00252862670459 0.00252862670459
         0.0026388335973 0.0026388335973 0.0026388335973
         0.00275139743462 0.00275139743462 0.00275139743462
         0.00286640413105 0.00286640413105 0.00286640413105
         0.00298380362801 0.00298380362801 0.00298380362801
         0.0031036157161 0.0031036157161 0.0031036157161
         0.00322590232827 0.00322590232827 0.00322590232827
         0.00335055822507 0.00335055822507 0.00335055822507
         0.00347772822715 0.00347772822715 0.00347772822715
         0.00360733945854 0.00360733945854 0.00360733945854
         0.00373937236145 0.00373937236145 0.00373937236145
         0.00387394428253 0.00387394428253 0.00387394428253
         0.00401095161214 0.00401095161214 0.00401095161214
         0.00415052706376 0.00415052706376 0.00415052706376
         0.00429256539792 0.00429256539792 0.00429256539792
         0.00443711876869 0.00443711876869 0.00443711876869
         0.00458421604708 0.00458421604708 0.00458421604708
         0.00473384652287 0.00473384652287 0.00473384652287
         0.00488603394479 0.00488603394479 0.00488603394479
         0.00504081090912 0.00504081090912 0.00504081090912
         0.00519817508757 0.00519817508757 0.00519817508757
         0.00535807525739 0.00535807525739 0.00535807525739
         0.00552060967311 0.00552060967311 0.00552060967311
         0.00568573363125 0.00568573363125 0.00568573363125
         0.00585351977497 0.00585351977497 0.00585351977497
         0.00602385960519 0.00602385960519 0.00602385960519
         0.00619694637135 0.00619694637135 0.00619694637135
         0.00637263339013 0.00637263339013 0.00637263339013
         0.0065509872511 0.0065509872511 0.0065509872511
         0.00673202006146 0.00673202006146 0.00673202006146
         0.00691579608247 0.00691579608247 0.00691579608247
         0.00710217747837 0.00710217747837 0.00710217747837
         0.00729138730094 0.00729138730094 0.00729138730094
         0.00748321088031 0.00748321088031 0.00748321088031
         0.00767788942903 0.00767788942903 0.00767788942903
         0.00787528697401 0.00787528697401 0.00787528697401
         0.00807537417859 0.00807537417859 0.00807537417859
         0.00827830191702 0.00827830191702 0.00827830191702
         0.00848404876888 0.00848404876888 0.00848404876888
         0.00869259145111 0.00869259145111 0.00869259145111
         0.00890385080129 0.00890385080129 0.00890385080129
         0.00911806616932 0.00911806616932 0.00911806616932
         0.00933495070785 0.00933495070785 0.00933495070785
         0.00955483037978 0.00955483037978 0.00955483037978
         0.00977752264589 0.00977752264589 0.00977752264589
         0.0100031578913 0.0100031578913 0.0100031578913
         0.0102317268029 0.0102317268029 0.0102317268029
         0.0104630282149 0.0104630282149 0.0104630282149
         0.0106972875074 0.0106972875074 0.0106972875074
         0.0109346248209 0.0109346248209 0.0109346248209
         0.011174778454 0.011174778454 0.011174778454
         0.0114179225639 0.0114179225639 0.0114179225639
         0.0116640971974 0.0116640971974 0.0116640971974
         0.0119130825624 0.0119130825624 0.0119130825624
         0.0121651859954 0.0121651859954 0.0121651859954
         0.0124201942235 0.0124201942235 0.0124201942235
         0.0126784276217 0.0126784276217 0.0126784276217
         0.0129395220429 0.0129395220429 0.0129395220429
         0.0132037783042 0.0132037783042 0.0132037783042
         0.0134711945429 0.0134711945429 0.0134711945429
         0.0137413879856 0.0137413879856 0.0137413879856
         0.0140148280188 0.0140148280188 0.0140148280188
         0.0142913721502 0.0142913721502 0.0142913721502
         0.0145710986108 0.0145710986108 0.0145710986108
         0.0148539058864 0.0148539058864 0.0148539058864
         0.0151398759335 0.0151398759335 0.0151398759335
         0.0154288373888 0.0154288373888 0.0154288373888
         0.0157211292535 0.0157211292535 0.0157211292535
         0.0160167627037 0.0160167627037 0.0160167627037
         0.0163152832538 0.0163152832538 0.0163152832538
         0.0166172757745 0.0166172757745 0.0166172757745
         0.0169223304838 0.0169223304838 0.0169223304838
         0.0172306504101 0.0172306504101 0.0172306504101
         0.0175422094762 0.0175422094762 0.0175422094762
         0.0178571846336 0.0178571846336 0.0178571846336
         0.0181753430516 0.0181753430516 0.0181753430516
         0.0184966884553 0.0184966884553 0.0184966884553
         0.0188216548413 0.0188216548413 0.0188216548413
         0.0191496983171 0.0191496983171 0.0191496983171
         0.019481189549 0.019481189549 0.019481189549
         0.0198159143329 0.0198159143329 0.0198159143329
         0.0201542209834 0.0201542209834 0.0201542209834
         0.0204958245158 0.0204958245158 0.0204958245158
         0.0208407621831 0.0208407621831 0.0208407621831
         0.0211891401559 0.0211891401559 0.0211891401559
         0.0215410459787 0.0215410459787 0.0215410459787
         0.021896187216 0.021896187216 0.021896187216
         0.0222550947219 0.0222550947219 0.0222550947219
         0.0226171072572 0.0226171072572 0.0226171072572
         0.0229829698801 0.0229829698801 0.0229829698801
         0.0233521573246 0.0233521573246 0.0233521573246
         0.0237248651683 0.0237248651683 0.0237248651683
         0.0241012033075 0.0241012033075 0.0241012033075
         0.0244812332094 0.0244812332094 0.0244812332094
         0.0248643271625 0.0248643271625 0.0248643271625
         0.0252513624728 0.0252513624728 0.0252513624728
         0.0256417747587 0.0256417747587 0.0256417747587
         0.0260360948741 0.0260360948741 0.0260360948741
         0.0264337398112 0.0264337398112 0.0264337398112
         0.0268353559077 0.0268353559077 0.0268353559077
         0.0272402036935 0.0272402036935 0.0272402036935
         0.0276494212449 0.0276494212449 0.0276494212449
         0.0280617605895 0.0280617605895 0.0280617605895
         0.0284776911139 0.0284776911139 0.0284776911139
         0.0288974698633 0.0288974698633 0.0288974698633
         0.0293211899698 0.0293211899698 0.0293211899698
         0.0297484286129 0.0297484286129 0.0297484286129
         0.0301799494773 0.0301799494773 0.0301799494773
         0.0306145530194 0.0306145530194 0.0306145530194
         0.0310533996671 0.0310533996671 0.0310533996671
         0.0314956642687 0.0314956642687 0.0314956642687
         0.0319422222674 0.0319422222674 0.0319422222674
         0.032392591238 0.032392591238 0.032392591238
         0.0328463837504 0.0328463837504 0.0328463837504
         0.0333044193685 0.0333044193685 0.0333044193685
         0.0337661877275 0.0337661877275 0.0337661877275
         0.0342317335308 0.0342317335308 0.0342317335308
         0.0347020626068 0.0347020626068 0.0347020626068
         0.0351751372218 0.0351751372218 0.0351751372218
         0.0356529317796 0.0356529317796 0.0356529317796
         0.036134455353 0.036134455353 0.036134455353
         0.0366201028228 0.0366201028228 0.0366201028228
         0.0371095426381 0.0371095426381 0.0371095426381
         0.0376025959849 0.0376025959849 0.0376025959849
         0.0381003394723 0.0381003394723 0.0381003394723
         0.0386022888124 0.0386022888124 0.0386022888124
         0.0391079038382 0.0391079038382 0.0391079038382
         0.0396176762879 0.0396176762879 0.0396176762879
         0.0401314720511 0.0401314720511 0.0401314720511
         0.0406495146453 0.0406495146453 0.0406495146453
         0.0411718077958 0.0411718077958 0.0411718077958
         0.041698038578 0.041698038578 0.041698038578
         0.042228333652 0.042228333652 0.042228333652
         0.0427633933723 0.0427633933723 0.0427633933723
         0.0433020330966 0.0433020330966 0.0433020330966
         0.0438452735543 0.0438452735543 0.0438452735543
         0.0443926416337 0.0443926416337 0.0443926416337
         0.0449445769191 0.0449445769191 0.0449445769191
         0.0454999729991 0.0454999729991 0.0454999729991
         0.0460600592196 0.0460600592196 0.0460600592196
         0.0466248169541 0.0466248169541 0.0466248169541
         0.0471936166286 0.0471936166286 0.0471936166286
         0.0477662533522 0.0477662533522 0.0477662533522
         0.0483436696231 0.0483436696231 0.0483436696231
         0.0489265285432 0.0489265285432 0.0489265285432
         0.0495125278831 0.0495125278831 0.0495125278831
         0.0501032359898 0.0501032359898 0.0501032359898
         0.0506985671818 0.0506985671818 0.0506985671818
         0.0512977652252 0.0512977652252 0.0512977652252
         0.0519016571343 0.0519016571343 0.0519016571343
         0.052510112524 0.052510112524 0.052510112524
         0.053123254329 0.053123254329 0.053123254329
         0.0537410452962 0.0537410452962 0.0537410452962
         0.0543626211584 0.0543626211584 0.0543626211584
         0.0549895912409 0.0549895912409 0.0549895912409
         0.0556204468012 0.0556204468012 0.0556204468012
         0.0562557205558 0.0562557205558 0.0562557205558
         0.05689657107 0.05689657107 0.05689657107
         0.0575410425663 0.0575410425663 0.0575410425663
         0.0581910870969 0.0581910870969 0.0581910870969
         0.0588455311954 0.0588455311954 0.0588455311954
         0.0595046766102 0.0595046766102 0.0595046766102
         0.0601683706045 0.0601683706045 0.0601683706045
         0.0608355812728 0.0608355812728 0.0608355812728
         0.0615093186498 0.0615093186498 0.0615093186498
         0.0621873885393 0.0621873885393 0.0621873885393
         0.0628701001406 0.0628701001406 0.0628701001406
         0.0635572746396 0.0635572746396 0.0635572746396
         0.0642499774694 0.0642499774694 0.0642499774694
         0.0649460405111 0.0649460405111 0.0649460405111
         0.0656486898661 0.0656486898661 0.0656486898661
         0.066354803741 0.066354803741 0.066354803741
         0.0670673400164 0.0670673400164 0.0670673400164
         0.0677833408117 0.0677833408117 0.0677833408117
         0.0685048177838 0.0685048177838 0.0685048177838
         0.0692305937409 0.0692305937409 0.0692305937409
         0.0699620395899 0.0699620395899 0.0699620395899
         0.0706987529993 0.0706987529993 0.0706987529993
         0.0714399889112 0.0714399889112 0.0714399889112
         0.072186678648 0.072186678648 0.072186678648
         0.0729375854135 0.0729375854135 0.0729375854135
         0.073694139719 0.073694139719 0.073694139719
         0.0744549036026 0.0744549036026 0.0744549036026
         0.075221337378 0.075221337378 0.075221337378
         0.0759931877255 0.0759931877255 0.0759931877255
         0.0767702311277 0.0767702311277 0.0767702311277
         0.0775518119335 0.0775518119335 0.0775518119335
         0.0783388316631 0.0783388316631 0.0783388316631
         0.0791313052177 0.0791313052177 0.0791313052177
         0.079927995801 0.079927995801 0.079927995801
         0.0807314515114 0.0807314515114 0.0807314515114
         0.0815391391516 0.0815391391516 0.0815391391516
         0.0823521986604 0.0823521986604 0.0823521986604
         0.0831706747413 0.0831706747413 0.0831706747413
         0.0839947089553 0.0839947089553 0.0839947089553
         0.0848228856921 0.0848228856921 0.0848228856921
         0.0856578722596 0.0856578722596 0.0856578722596
         0.086498260498 0.086498260498 0.086498260498
         0.0873426944017 0.0873426944017 0.0873426944017
         0.0881926715374 0.0881926715374 0.0881926715374
         0.089049488306 0.089049488306 0.089049488306
         0.0899102985859 0.0899102985859 0.0899102985859
         0.0907780379057 0.0907780379057 0.0907780379057
         0.0916496440768 0.0916496440768 0.0916496440768
         0.0925268530846 0.0925268530846 0.0925268530846
         0.0934108868241 0.0934108868241 0.0934108868241
         0.094298787415 0.094298787415 0.094298787415
         0.0951952859759 0.0951952859759 0.0951952859759
         0.0960942357779 0.0960942357779 0.0960942357779
         0.0969998016953 0.0969998016953 0.0969998016953
         0.0979110896587 0.0979110896587 0.0979110896587
         0.0988275930285 0.0988275930285 0.0988275930285
         0.0997510030866 0.0997510030866 0.0997510030866
         0.100678369403 0.100678369403 0.100678369403
         0.101612731814 0.101612731814 0.101612731814
         0.102552510798 0.102552510798 0.102552510798
         0.103497669101 0.103497669101 0.103497669101
         0.104449830949 0.104449830949 0.104449830949
         0.105405554175 0.105405554175 0.105405554175
         0.106368489563 0.106368489563 0.106368489563
         0.107336826622 0.107336826622 0.107336826622
         0.108312122524 0.108312122524 0.108312122524
         0.109291128814 0.109291128814 0.109291128814
         0.110277198255 0.110277198255 0.110277198255
         0.111270472407 0.111270472407 0.111270472407
         0.112268805504 0.112268805504 0.112268805504
         0.113270759583 0.113270759583 0.113270759583
         0.114281721413 0.114281721413 0.114281721413
         0.115298017859 0.115298017859 0.115298017859
         0.116321638227 0.116321638227 0.116321638227
         0.117348462343 0.117348462343 0.117348462343
         0.118382558227 0.118382558227 0.118382558227
         0.119421929121 0.119421929121 0.119421929121
         0.120468273759 0.120468273759 0.120468273759
         0.121522046626 0.121522046626 0.121522046626
         0.122579164803 0.122579164803 0.122579164803
         0.123645558953 0.123645558953 0.123645558953
         0.124714799225 0.124714799225 0.124714799225
         0.125793799758 0.125793799758 0.125793799758
         0.126875549555 0.126875549555 0.126875549555
         0.127964749932 0.127964749932 0.127964749932
         0.129061356187 0.129061356187 0.129061356187
         0.130163028836 0.130163028836 0.130163028836
         0.131272137165 0.131272137165 0.131272137165
         0.132388368249 0.132388368249 0.132388368249
         0.133507564664 0.133507564664 0.133507564664
         0.134636580944 0.134636580944 0.134636580944
         0.13577029109 0.13577029109 0.13577029109
         0.136911854148 0.136911854148 0.136911854148
         0.138057947159 0.138057947159 0.138057947159
         0.139211937785 0.139211937785 0.139211937785
         0.140370845795 0.140370845795 0.140370845795
         0.141537129879 0.141537129879 0.141537129879
         0.142710998654 0.142710998654 0.142710998654
         0.143891945481 0.143891945481 0.143891945481
         0.145078122616 0.145078122616 0.145078122616
         0.146269217134 0.146269217134 0.146269217134
         0.147467702627 0.147467702627 0.147467702627
         0.148676469922 0.148676469922 0.148676469922
         0.149887233973 0.149887233973 0.149887233973
         0.151108250022 0.151108250022 0.151108250022
         0.15233412385 0.15233412385 0.15233412385
         0.153567835689 0.153567835689 0.153567835689
         0.154805809259 0.154805809259 0.154805809259
         0.156054198742 0.156054198742 0.156054198742
         0.157307684422 0.157307684422 0.157307684422
         0.158565834165 0.158565834165 0.158565834165
         0.159834355116 0.159834355116 0.159834355116
         0.161110073328 0.161110073328 0.161110073328
         0.162390828133 0.162390828133 0.162390828133
         0.16367650032 0.16367650032 0.16367650032
         0.164972320199 0.164972320199 0.164972320199
         0.166275680065 0.166275680065 0.166275680065
         0.167583972216 0.167583972216 0.167583972216
         0.168899908662 0.168899908662 0.168899908662
         0.170223340392 0.170223340392 0.170223340392
         0.171554371715 0.171554371715 0.171554371715
         0.172889783978 0.172889783978 0.172889783978
         0.174235865474 0.174235865474 0.174235865474
         0.175586923957 0.175586923957 0.175586923957
         0.176945522428 0.176945522428 0.176945522428
         0.178311616182 0.178311616182 0.178311616182
         0.179685428739 0.179685428739 0.179685428739
         0.181066676974 0.181066676974 0.181066676974
         0.182452768087 0.182452768087 0.182452768087
         0.183846309781 0.183846309781 0.183846309781
         0.185250937939 0.185250937939 0.185250937939
         0.18665972352 0.18665972352 0.18665972352
         0.18807952106 0.18807952106 0.18807952106
         0.189504057169 0.189504057169 0.189504057169
         0.190932512283 0.190932512283 0.190932512283
         0.19237203896 0.19237203896 0.19237203896
         0.193819865584 0.193819865584 0.193819865584
         0.195274695754 0.195274695754 0.195274695754
         0.196737632155 0.196737632155 0.196737632155
         0.198208123446 0.198208123446 0.198208123446
         0.199683144689 0.199683144689 0.199683144689
         0.201168954372 0.201168954372 0.201168954372
         0.202662870288 0.202662870288 0.202662870288
         0.204160571098 0.204160571098 0.204160571098
         0.205669701099 0.205669701099 0.205669701099
         0.207187116146 0.207187116146 0.207187116146
         0.208708062768 0.208708062768 0.208708062768
         0.210237309337 0.210237309337 0.210237309337
         0.211777478456 0.211777478456 0.211777478456
         0.213325798512 0.213325798512 0.213325798512
         0.214878305793 0.214878305793 0.214878305793
         0.216441839933 0.216441839933 0.216441839933
         0.218009531498 0.218009531498 0.218009531498
         0.219588801265 0.219588801265 0.219588801265
         0.221175834537 0.221175834537 0.221175834537
         0.222771033645 0.222771033645 0.222771033645
         0.224373802543 0.224373802543 0.224373802543
         0.225980445743 0.225980445743 0.225980445743
         0.227602705359 0.227602705359 0.227602705359
         0.229228869081 0.229228869081 0.229228869081
         0.2308588624 0.2308588624 0.2308588624
         0.232504546642 0.232504546642 0.232504546642
         0.234154105186 0.234154105186 0.234154105186
         0.235811784863 0.235811784863 0.235811784863
         0.237481638789 0.237481638789 0.237481638789
         0.239154487848 0.239154487848 0.239154487848
         0.240839421749 0.240839421749 0.240839421749
         0.242532581091 0.242532581091 0.242532581091
         0.244229316711 0.244229316711 0.244229316711
         0.245942369103 0.245942369103 0.245942369103
         0.247658997774 0.247658997774 0.247658997774
         0.249378994107 0.249378994107 0.249378994107
         0.251115351915 0.251115351915 0.251115351915
         0.252855867147 0.252855867147 0.252855867147
         0.25460806489 0.25460806489 0.25460806489
         0.256368666887 0.256368666887 0.256368666887
         0.258136600256 0.258136600256 0.258136600256
         0.259912967682 0.259912967682 0.259912967682
         0.261696696281 0.261696696281 0.261696696281
         0.263488590717 0.263488590717 0.263488590717
         0.265293180943 0.265293180943 0.265293180943
         0.267105340958 0.267105340958 0.267105340958
         0.268920511007 0.268920511007 0.268920511007
         0.270748317242 0.270748317242 0.270748317242
         0.272588908672 0.272588908672 0.272588908672
         0.274433255196 0.274433255196 0.274433255196
         0.276289612055 0.276289612055 0.276289612055
         0.278154164553 0.278154164553 0.278154164553
         0.280026227236 0.280026227236 0.280026227236
         0.28190651536 0.28190651536 0.28190651536
         0.283794283867 0.283794283867 0.283794283867
         0.285695612431 0.285695612431 0.285695612431
         0.287603825331 0.287603825331 0.287603825331
         0.289520889521 0.289520889521 0.289520889521
         0.2914455235 0.2914455235 0.2914455235
         0.293383210897 0.293383210897 0.293383210897
         0.295329093933 0.295329093933 0.295329093933
         0.29728230834 0.29728230834 0.29728230834
         0.299243867397 0.299243867397 0.299243867397
         0.301218628883 0.301218628883 0.301218628883
         0.303201705217 0.303201705217 0.303201705217
         0.305191993713 0.305191993713 0.305191993713
         0.307184517384 0.307184517384 0.307184517384
         0.30919662118 0.30919662118 0.30919662118
         0.311215817928 0.311215817928 0.311215817928
         0.313244223595 0.313244223595 0.313244223595
         0.315279006958 0.315279006958 0.315279006958
         0.31732827425 0.31732827425 0.31732827425
         0.319384843111 0.319384843111 0.319384843111
         0.321450412273 0.321450412273 0.321450412273
         0.323522359133 0.323522359133 0.323522359133
         0.325608819723 0.325608819723 0.325608819723
         0.327702760696 0.327702760696 0.327702760696
         0.329811215401 0.329811215401 0.329811215401
         0.33192127943 0.33192127943 0.33192127943
         0.334045261145 0.334045261145 0.334045261145
         0.336176276207 0.336176276207 0.336176276207
         0.338322281837 0.338322281837 0.338322281837
         0.340469628572 0.340469628572 0.340469628572
         0.342630892992 0.342630892992 0.342630892992
         0.344806164503 0.344806164503 0.344806164503
         0.346989542246 0.346989542246 0.346989542246
         0.34918102622 0.34918102622 0.34918102622
         0.351379752159 0.351379752159 0.351379752159
         0.353592455387 0.353592455387 0.353592455387
         0.35581433773 0.35581433773 0.35581433773
         0.358049452305 0.358049452305 0.358049452305
