OpenColorIO/configs/aces_1.1/luts/LMT_Shaper_to_linear.spi1d
Version 1
From 0.000000 1.000000
Length 4096
Components 1
{
         0.000175781256985
         0.000176272878889
         0.000176765883225
         0.000177260240889
         0.000177756010089
         0.000178253161721
         0.000178751695785
         0.00017925161228
         0.000179752940312
         0.000180255679879
         0.000180759816431
         0.000181265364517
         0.00018177232414
         0.000182280695299
         0.000182790492545
         0.000183301730431
         0.000183814496268
         0.000184328600881
         0.000184844131581
         0.00018536108837
         0.00018587950035
         0.000186399367522
         0.000186920675333
         0.000187443467439
         0.000187967700185
         0.000188493402675
         0.000189020574908
         0.000189549231436
         0.000190079357708
         0.000190610953723
         0.000191144077689
         0.000191678642295
         0.000192214734852
         0.000192752326257
         0.000193291416508
         0.000193832005607
         0.000194374093553
         0.000194917724002
         0.00019546286785
         0.00019600953965
         0.0001965577394
         0.00019710745255
         0.000197658737306
         0.000198211550014
         0.000198765905225
         0.00019932181749
         0.000199879272259
         0.000200438284082
         0.000200998983928
         0.000201561138965
         0.000202124865609
         0.00020269016386
         0.00020325704827
         0.000203825518838
         0.000204395561013
         0.000204967233003
         0.0002055404766
         0.000206115320907
         0.000206691795029
         0.000207269840757
         0.000207849545404
         0.000208430865314
         0.000209013785934
         0.000209598365473
         0.000210184545722
         0.000210772399441
         0.000211361897527
         0.000211953025428
         0.000212545812246
         0.000213140257983
         0.000213736362639
         0.000214334140765
         0.000214933563257
         0.000215534702875
         0.000216137501411
         0.00021674198797
         0.00021734816255
         0.000217956068809
         0.000218565633986
         0.000219177047256
         0.000219790046685
         0.000220404748688
         0.000221021182369
         0.000221639318625
         0.000222259201109
         0.00022288080072
         0.000223504175665
         0.000224129253183
         0.000224756091484
         0.000225384690566
         0.000226015035878
         0.000226647156524
         0.000227281037951
         0.000227916694712
         0.000228554126807
         0.000229193348787
         0.000229834346101
         0.0002304771333
         0.000231121754041
         0.000231768135563
         0.000232416336075
         0.000233066370129
         0.000233718194067
         0.000234371851548
         0.000235027342569
         0.000235684667132
         0.000236343825236
         0.000237004816881
         0.000237667685724
         0.000238332388108
         0.000238998953137
         0.000239667366259
         0.000240337845753
         0.000241009998717
         0.000241684057983
         0.000242359994445
         0.000243037822656
         0.000243717542617
         0.000244399154326
         0.000245082715992
         0.000245768140303
         0.000246455514571
         0.000247144780587
         0.000247835996561
         0.000248529133387
         0.00024922422017
         0.000249921256909
         0.000250620243605
         0.000251321151154
         0.000252024066867
         0.000252728903433
         0.000253435748164
         0.000254144542851
         0.000254855316598
         0.00025556809851
         0.000256282859482
         0.000256999628618
         0.000257718405919
         0.000258439191384
         0.000259161985014
         0.000259886815911
         0.000260613829596
         0.000261342531303
         0.000262073619524
         0.000262806599494
         0.000263541616732
         0.000264278671239
         0.000265017821221
         0.000265759008471
         0.000266502262093
         0.000267247640295
         0.000267995055765
         0.000268744595814
         0.000269496202236
         0.000270249933237
         0.000271005759714
         0.000271763681667
         0.000272523757303
         0.000273285957519
         0.000274050282314
         0.000274816731689
         0.000275585334748
         0.00027635609149
         0.000277129001915
         0.000277904066024
         0.000278681283817
         0.0002794607135
         0.000280242296867
         0.000281026092125
         0.00028181207017
         0.000282600201899
         0.000283390574623
         0.000284183188342
         0.000284977984848
         0.000285775167868
         0.00028657441726
         0.00028737593675
         0.000288179639028
         0.000288985640509
         0.000289793853881
         0.000290604337351
         0.000291417120025
         0.000292232143693
         0.00029304943746
         0.000293869030429
         0.000294690922601
         0.000295515113976
         0.000296341604553
         0.000297170423437
         0.000298001541523
         0.000298834987916
         0.000299670762615
         0.000300508865621
         0.000301349326037
         0.000302192143863
         0.0003030373191
         0.000303884851746
         0.000304734712699
         0.000305587018374
         0.00030644168146
         0.000307298731059
         0.000308158167172
         0.000309020018904
         0.000309884286253
         0.00031075096922
         0.000311620271532
         0.000312491582008
         0.000313365773764
         0.000314242206514
         0.000315121054882
         0.00031600240618
         0.000316886173096
         0.000317772442941
         0.000318661186611
         0.000319552404108
         0.000320446124533
         0.000321342347888
         0.000322241074173
         0.000323142303387
         0.000324046064634
         0.000324952357914
         0.000325861183228
         0.000326772540575
         0.000327686459059
         0.00032860293868
         0.000329521950334
         0.00033044355223
         0.000331367744366
         0.000332294497639
         0.000333223841153
         0.000334155804012
         0.000335090386216
         0.000336027529556
         0.000336967350449
         0.000337909761583
         0.000338854821166
         0.000339802529197
         0.000340752885677
         0.000341706094332
         0.000342661805917
         0.00034362016595
         0.000344581174431
         0.000345544889569
         0.000346511311363
         0.000347480439814
         0.00034845227492
         0.000349426816683
         0.000350404065102
         0.000351384078385
         0.000352366827428
         0.000353352312231
         0.000354340561898
         0.000355331605533
         0.000356325355824
         0.000357321929187
         0.000358321296517
         0.000359323457815
         0.000360328383977
         0.000361336162314
         0.000362346705515
         0.000363360129995
         0.000364376348443
         0.000365395448171
         0.000366417370969
         0.000367442145944
         0.000368469831301
         0.000369500368834
         0.000370534020476
         0.000371570087736
         0.000372609501937
         0.000373651651898
         0.000374696654035
         0.000375744595658
         0.000376795476768
         0.000377849297365
         0.000378906057449
         0.00037996575702
         0.000381028454285
         0.000382094091037
         0.000383162754588
         0.000384234386729
         0.000385308987461
         0.000386386585888
         0.000387467240216
         0.000388550921343
         0.000389637600165
         0.000390727334889
         0.000391820125515
         0.000392915942939
         0.000394014845369
         0.000395116803702
         0.000396221876144
         0.000397330004489
         0.000398441276047
         0.000399555603508
         0.000400673103286
         0.000401793717174
         0.000402917445172
         0.000404044549214
         0.000405174330808
         0.000406307779485
         0.000407443876611
         0.000408583669923
         0.000409726373618
         0.000410872307839
         0.000412021443481
         0.00041317375144
         0.000414329319028
         0.000415488117142
         0.00041665014578
         0.000417815434048
         0.000418983952841
         0.00042015578947
         0.000421330827521
         0.000422509212513
         0.000423690886237
         0.000424875848694
         0.000426064128987
         0.000427255756222
         0.000428450672189
         0.000429648993304
         0.000430850632256
         0.000432055618148
         0.000433263980085
         0.000434475718066
         0.000435690832091
         0.000436909409473
         0.000438131304691
         0.000439356721472
         0.00044058545609
         0.000441817683168
         0.00044305366464
         0.000444292469183
         0.000445535377366
         0.000446781428764
         0.00044803097262
         0.000449284038041
         0.000450540595921
         0.00045180064626
         0.000453064218163
         0.000454331369838
         0.000455602013972
         0.000456876237877
         0.000458154041553
         0.000459435395896
         0.000460720330011
         0.000462008873001
         0.000463300995762
         0.000464596756501
         0.000465896126116
         0.000467199133709
         0.000468505779281
         0.00046981612104
         0.000471130071674
         0.000472447747597
         0.0004737690615
         0.000475094071589
         0.000476422836073
         0.000477755296743
         0.000479091453599
         0.000480431393953
         0.000481775059598
         0.000483122770675
         0.000484473654069
         0.000485828961246
         0.000487187382532
         0.000488550285809
         0.000489916652441
         0.000491286860779
         0.000492660852615
         0.000494038686156
         0.000495420419611
         0.000496805994771
         0.000498195469845
         0.000499588844832
         0.000500986061525
         0.00050238717813
         0.000503792252857
         0.000505201227497
         0.000506614218466
         0.000508031109348
         0.000509451900143
         0.000510876765475
         0.000512305588927
         0.000513738370501
         0.00051517522661
         0.000516616040841
         0.0005180608714
         0.000519509834703
         0.000520962756127
         0.000522419752087
         0.000523880880792
         0.000525346084032
         0.000526815361809
         0.00052828877233
         0.000529766606633
         0.000531247875188
         0.000532734033186
         0.000534223974682
         0.00053571810713
         0.000537216372322
         0.000538718828466
         0.000540225533769
         0.000541736430023
         0.000543251517229
         0.000544770853594
         0.000546294497326
         0.00054782233201
         0.000549354532268
         0.000550890923478
         0.000552431622054
         0.000553976686206
         0.000555526057724
         0.000557079678401
         0.000558637781069
         0.000560200191103
         0.000561766908504
         0.000563338049687
         0.000564913614653
         0.000566493486986
         0.000568077899516
         0.00056966667762
         0.000571259937715
         0.000572857563384
         0.000574459729251
         0.000576066377107
         0.000577677914407
         0.000579293176997
         0.000580913678277
         0.000582538021263
         0.000584167602938
         0.000585801433772
         0.000587439804804
         0.000589082716033
         0.000590730283875
         0.000592382391915
         0.000594039156567
         0.000595700577833
         0.000597366597503
         0.000599037331995
         0.000600712723099
         0.000602392770816
         0.000604077533353
         0.000605767010711
         0.00060746120289
         0.000609160109889
         0.000610863848124
         0.000612572242972
         0.000614285527263
         0.000616003526375
         0.000617726356722
         0.000619454018306
         0.000621186452918
         0.000622923776973
         0.000624665990472
         0.000626413035206
         0.000628164969385
         0.000629921851214
         0.000631683564279
         0.000633450690657
         0.000635221891571
         0.000636998913251
         0.000638780416921
         0.000640566984657
         0.000642358500045
         0.000644155021291
         0.000645956606604
         0.000647763197776
         0.000649574853014
         0.000651391572319
         0.000653213413898
         0.000655040261336
         0.000656872231048
         0.000658709381241
         0.000660551653709
         0.000662399048451
         0.000664251681883
         0.000666109437589
         0.000667972431984
         0.000669840548653
         0.00067171396222
         0.000673592614476
         0.000675476505421
         0.000677365693264
         0.000679260119796
         0.000681159901433
         0.000683064921759
         0.00068497529719
         0.000686891027726
         0.000688812113367
         0.000690739019774
         0.000692670466378
         0.000694608141202
         0.000696550356224
         0.000698498915881
         0.000700452481396
         0.000702411460225
         0.00070437596878
         0.000706345948856
         0.00070832145866
         0.000710302439984
         0.000712289067451
         0.000714281166438
         0.000716278853361
         0.000718282128219
         0.000720290991012
         0.000722305499949
         0.000724325655028
         0.000726351339836
         0.000728382903617
         0.000730419997126
         0.000732462794986
         0.000734511297196
         0.000736565620173
         0.0007386256475
         0.000740691379178
         0.000742763222661
         0.000744840595871
         0.00074692373164
         0.000749012688175
         0.000751107465476
         0.000753208238166
         0.000755314773414
         0.000757427187636
         0.000759545771871
         0.000761670118663
         0.00076380034443
         0.000765936507378
         0.000768078665715
         0.000770226877648
         0.000772381026763
         0.000774541171268
         0.000776707427576
         0.000778879679274
         0.000781058042776
         0.000783242518082
         0.000785433046985
         0.000787629804108
         0.00078983255662
         0.00079204159556
         0.000794256746303
         0.000796478125267
         0.00079870573245
         0.000800939509645
         0.000803179573268
         0.000805425806902
         0.00080767844338
         0.000809937366284
         0.000812202866655
         0.000814474420622
         0.000816752319224
         0.000819036620669
         0.000821327208541
         0.000823624373879
         0.000825927883852
         0.00082823773846
         0.000830554461572
         0.000832877296489
         0.000835206708871
         0.000837542582303
         0.000839884974994
         0.000842234003358
         0.000844589492772
         0.000846951676067
         0.000849320436828
         0.000851695775054
         0.000854077807162
         0.000856466533151
         0.000858861778397
         0.000861263892148
         0.000863672699779
         0.000866088201292
         0.000868510396685
         0.000870939460583
         0.000873375218362
         0.000875817902852
         0.000878267397638
         0.000880723760929
         0.000883186934516
         0.000885656976607
         0.000888134236448
         0.000890618248377
         0.000893109070603
         0.000895606877748
         0.00089811172802
         0.000900623563211
         0.000903142383322
         0.000905668304767
         0.000908201560378
         0.000910741568077
         0.000913288793527
         0.000915843003895
         0.000918404432014
         0.000920972961467
         0.00092354870867
         0.000926131673623
         0.000928721972741
         0.000931319314986
         0.000933923991397
         0.000936536001973
         0.000939155346714
         0.000941781967413
         0.000944415864069
         0.000947057211306
         0.000949705950916
         0.000952362024691
         0.000955025607254
         0.000957696582191
         0.000960375007708
         0.00096306100022
         0.000965754559729
         0.000968455511611
         0.000971164379735
         0.000973880523816
         0.000976604293101
         0.000979335512966
         0.000982074649073
         0.000984821235761
         0.000987575622275
         0.000990337575786
         0.000993107678369
         0.000995885231532
         0.000998670584522
         0.00100146350451
         0.00100426445715
         0.00100707309321
         0.00100988976192
         0.00101271411404
         0.00101554649882
         0.00101838679984
         0.00102123490069
         0.00102409115061
         0.00102695531677
         0.00102982751559
         0.00103270763066
         0.00103559589479
         0.001038492308
         0.00104139663745
         0.00104430923238
         0.00104722997639
         0.00105015886948
         0.00105309591163
         0.00105604121927
         0.0010589947924
         0.00106195686385
         0.00106492696796
         0.00106790533755
         0.00107089197263
         0.00107388698962
         0.00107689050492
         0.00107990228571
         0.00108292256482
         0.00108595157508
         0.00108898885082
         0.00109203450847
         0.00109508866444
         0.00109815143514
         0.00110122270416
         0.00110430258792
         0.00110739096999
         0.00111048808321
         0.00111359392758
         0.00111670838669
         0.00111983157694
         0.00112296361476
         0.00112610426731
         0.00112925376743
         0.0011324119987
         0.00113557907753
         0.00113875512034
         0.0011419398943
         0.00114513363224
         0.00114833633415
         0.00115154811647
         0.00115476862993
         0.00115799822379
         0.0011612373637
         0.00116448511835
         0.0011677419534
         0.00117100786883
         0.00117428286467
         0.00117756705731
         0.00118086044677
         0.00118416303303
         0.00118747528177
         0.00119079637807
         0.00119412690401
         0.00119746651035
         0.00120081566274
         0.00120417401195
         0.00120754190721
         0.00121091911569
         0.00121430575382
         0.001217701938
         0.00122110755183
         0.00122452271171
         0.00122794741765
         0.00123138178606
         0.00123482558411
         0.00123827927746
         0.00124174240045
         0.00124521530233
         0.00124869786669
         0.00125219020993
         0.00125569233205
         0.00125920423307
         0.00126272591297
         0.00126625748817
         0.00126979942434
         0.00127335079014
         0.00127691205125
         0.00128048332408
         0.00128406449221
         0.00128765578847
         0.00129125709645
         0.00129486841615
         0.00129849032965
         0.00130212190561
         0.00130576372612
         0.00130941555835
         0.00131307775155
         0.00131675018929
         0.00132043287158
         0.00132412579842
         0.00132782908622
         0.00133154273499
         0.00133526674472
         0.00133900123183
         0.00134274619631
         0.00134650152177
         0.0013502673246
         0.00135404383764
         0.00135783071164
         0.00136162829585
         0.00136543647386
         0.00136925524566
         0.00137308484409
         0.00137692503631
         0.00138077605516
         0.00138463778421
         0.00138851080555
         0.00139239407144
         0.00139628828038
         0.00140019343235
         0.00140410952736
         0.00140803644899
         0.00141197443008
         0.00141592347063
         0.00141988391988
         0.00142385507934
         0.00142783718184
         0.00143183057662
         0.00143583514728
         0.00143985077739
         0.0014438778162
         0.00144791603088
         0.00145196542144
         0.00145602633711
         0.00146009854507
         0.00146418204531
         0.00146827718709
         0.00147238362115
         0.00147650146391
         0.00148063094821
         0.00148477184121
         0.00148892460857
         0.00149308878463
         0.00149726460222
         0.00150145206135
         0.00150565139484
         0.00150986225344
         0.00151408510283
         0.00151832017582
         0.0015225665411
         0.00152682489716
         0.00153109501116
         0.00153537711594
         0.00153967132792
         0.00154397741426
         0.00154829560779
         0.00155262637418
         0.0015569687821
         0.00156132329721
         0.00156568991952
         0.00157006888185
         0.00157445995137
         0.00157886347733
         0.00158327922691
         0.00158770720009
         0.00159214774612
         0.00159660051577
         0.00160106597468
         0.00160554377362
         0.001610034029
         0.00161453697365
         0.00161905249115
         0.00162358069792
         0.00162812159397
         0.00163267494645
         0.00163724122103
         0.0016418203013
         0.00164641207084
         0.00165101676248
         0.00165563425981
         0.00166026526131
         0.00166490871925
         0.00166956498288
         0.00167423440143
         0.00167891685851
         0.00168361247052
         0.00168832123745
         0.00169304304291
         0.00169777870178
         0.00170252704993
         0.00170728866942
         0.00171206367668
         0.00171685183886
         0.00172165350523
         0.00172646855935
         0.00173129711766
         0.00173613918014
         0.0017409947468
         0.00174586405046
         0.00175074674189
         0.00175564328674
         0.00176055345219
         0.00176547735464
         0.00177041487768
         0.00177536648698
         0.00178033171687
         0.0017853109166
         0.00179030396976
         0.00179531122558
         0.00180033233482
         0.00180536741391
         0.00181041657925
         0.00181548052933
         0.00182055798359
         0.00182564987335
         0.00183075573295
         0.00183587591164
         0.00184101052582
         0.00184615934268
         0.00185132271145
         0.00185650109779
         0.00186169333756
         0.00186690001283
         0.00187212147284
         0.00187735725194
         0.0018826079322
         0.00188787304796
         0.0018931531813
         0.00189844786655
         0.00190375722013
         0.00190908182412
         0.00191442109644
         0.00191977526993
         0.0019251445774
         0.00193052878603
         0.00193592801224
         0.00194134237245
         0.00194677186664
         0.00195221661124
         0.00195767660625
         0.00196315161884
         0.00196864199825
         0.00197414797731
         0.00197966932319
         0.00198520673439
         0.00199075881392
         0.0019963264931
         0.00200190977193
         0.00200750888325
         0.00201312336139
         0.00201875367202
         0.0020243995823
         0.00203006225638
         0.00203573983163
         0.00204143323936
         0.0020471427124
         0.00205286825076
         0.0020586096216
         0.00206436705776
         0.00207014079206
         0.00207593035884
         0.00208173622377
         0.00208755838685
         0.0020933970809
         0.00209925184026
         0.00210512266494
         0.00211101048626
         0.00211691437289
         0.00212283502333
         0.00212877220474
         0.00213472591713
         0.0021406961605
         0.00214668316767
         0.00215268717147
         0.00215870770626
         0.00216474500485
