OpenColorIO/configs/aces_1.1/luts/Log2_2000_nits_Shaper_to_linear.spi1d
Version 1
From 0.000000 1.000000
Length 4096
Components 1
{
         4.39453142462e-05
         4.41167176177e-05
         4.42888267571e-05
         4.44615725428e-05
         4.46350204584e-05
         4.48091159342e-05
         4.49839171779e-05
         4.51593768958e-05
         4.53355460195e-05
         4.55123736174e-05
         4.56898924313e-05
         4.58681352029e-05
         4.60470400867e-05
         4.62266762042e-05
         4.64069744339e-05
         4.65880148113e-05
         4.67697282147e-05
         4.6952151024e-05
         4.7135315981e-05
         4.731916124e-05
         4.75037559227e-05
         4.76890454593e-05
         4.78750844195e-05
         4.80618182337e-05
         4.82493123855e-05
         4.84375050291e-05
         4.86264289066e-05
         4.88161276735e-05
         4.90065322083e-05
         4.91977152706e-05
         4.93896004627e-05
         4.95822750963e-05
         4.97756664117e-05
         4.99698180647e-05
         5.01647555211e-05
         5.03604205733e-05
         5.05568750668e-05
         5.07540717081e-05
         5.09520687046e-05
         5.11508005729e-05
         5.13503473485e-05
         5.15506326337e-05
         5.17517073604e-05
         5.19535933563e-05
         5.21562360518e-05
         5.23597045685e-05
         5.25639261468e-05
         5.27689844603e-05
         5.29748031113e-05
         5.31814330316e-05
         5.3388896049e-05
         5.35971375939e-05
         5.38062267879e-05
         5.40160945093e-05
         5.42268135177e-05
         5.44383219676e-05
         5.46506926185e-05
         5.48638527107e-05
         5.50778459001e-05
         5.52927085664e-05
         5.55083752261e-05
         5.57249150006e-05
         5.59422696824e-05
         5.61605047551e-05
         5.6379554735e-05
         5.659945964e-05
         5.68202594877e-05
         5.70418815187e-05
         5.72644094063e-05
         5.74877667532e-05
         5.77120299567e-05
         5.79371298954e-05
         5.81631502428e-05
         5.83900109632e-05
         5.86177593505e-05
         5.88464317843e-05
         5.90759591432e-05
         5.93064214627e-05
         5.95377387071e-05
         5.97700018261e-05
         6.0003130784e-05
         6.02371692366e-05
         6.04721608397e-05
         6.07080255577e-05
         6.0944857978e-05
         6.11825671513e-05
         6.14212476648e-05
         6.16608158452e-05
         6.1901359004e-05
         6.21428043814e-05
         6.23851883574e-05
         6.26285545877e-05
         6.28728375887e-05
         6.31181101198e-05
         6.33642921457e-05
         6.36114855297e-05
         6.38595956843e-05
         6.4108724473e-05
         6.43587700324e-05
         6.46097978461e-05
         6.48618442938e-05
         6.5114836616e-05
         6.53688548482e-05
         6.56238262309e-05
         6.58798307995e-05
         6.61367885186e-05
         6.63947503199e-05
         6.6653759859e-05
         6.69137443765e-05
         6.71747766319e-05
         6.74367911415e-05
         6.7699867941e-05
         6.79639269947e-05
         6.82290119585e-05
         6.84951810399e-05
         6.87623396516e-05
         6.90305896569e-05
         6.92998364684e-05
         6.95701819495e-05
         6.98415387888e-05
         7.01139942976e-05
         7.03874684405e-05
         7.06620121491e-05
         7.09376763552e-05
         7.12143591954e-05
         7.14921698091e-05
         7.17710208846e-05
         7.20510070096e-05
         7.23320408724e-05
         7.26142097847e-05
         7.28974409867e-05
         7.31817708584e-05
         7.34672576073e-05
         7.37538139219e-05
         7.40415343898e-05
         7.43303244235e-05
         7.46203004383e-05
         7.49113532947e-05
         7.52035412006e-05
         7.54969150876e-05
         7.57913803682e-05
         7.60870534577e-05
         7.63838252169e-05
         7.6681804785e-05
         7.69808975747e-05
         7.72811545176e-05
         7.75826338213e-05
         7.78852481744e-05
         7.81890848884e-05
         7.84940566518e-05
         7.8800265328e-05
         7.91076163296e-05
         7.94162260718e-05
         7.97259854153e-05
         8.00369525678e-05
         8.03491857368e-05
         8.06625757832e-05
         8.09772536741e-05
         8.12930957181e-05
         8.16102328827e-05
         8.19285414764e-05
         8.22481597424e-05
         8.25689567137e-05
         8.28910124255e-05
         8.32143778098e-05
         8.3538951003e-05
         8.38648484205e-05
         8.4191953647e-05
         8.45203976496e-05
         8.48500640132e-05
         8.51810182212e-05
         8.55133112054e-05
         8.58468556544e-05
         8.61817461555e-05
         8.65178953973e-05
         8.68554052431e-05
         8.71941811056e-05
         8.75342739164e-05
         8.78757564351e-05
         8.82185049704e-05
         8.85626577656e-05
         8.89080838533e-05
         8.92549287528e-05
         8.96030614967e-05
         8.99526203284e-05
         9.03034670046e-05
         9.06557470444e-05
         9.10093440325e-05
         9.13643161766e-05
         9.17207362363e-05
         9.20784877962e-05
         9.24376945477e-05
         9.27982400754e-05
         9.31602553464e-05
         9.35236239457e-05
         9.38884040806e-05
         9.42546830629e-05
         9.46223153733e-05
         9.4991439255e-05
         9.53619528445e-05
         9.57339652814e-05
         9.61073674262e-05
         9.64822247624e-05
         9.68586173258e-05
         9.7236406873e-05
         9.76157316472e-05
         9.79964825092e-05
         9.83787685982e-05
         9.87624880509e-05
         9.91477136267e-05
         9.95344962575e-05
         9.99227268039e-05
         0.000100312528957
         0.000100703793578
         0.000101096644357
         0.000101490972156
         0.000101886886114
         0.000102284291643
         0.000102683312434
         0.000103083824797
         0.000103485894215
         0.000103889607999
         0.00010429482063
         0.000104701684904
         0.000105110062577
         0.000105520106445
         0.000105931678263
         0.000106344865344
         0.000106759725895
         0.00010717612895
         0.000107594241854
         0.000108013904537
         0.000108435269794
         0.000108858221211
         0.000109282816993
         0.000109709129902
         0.000110137050797
         0.00011056670337
         0.00011099796393
         0.000111430970719
         0.000111865607323
         0.000112301924673
         0.000112740024633
         0.000113179761684
         0.000113621288619
         0.000114064459922
         0.000114509435662
         0.000114956077596
         0.000115404531243
         0.000115854658361
         0.000116306611744
         0.000116760260426
         0.00011721568444
         0.000117672949273
         0.000118131916679
         0.000118592768558
         0.000119055330288
         0.000119519769214
         0.00011998595437
         0.000120453943964
         0.000120923854411
         0.000121395503811
         0.00012186908134
         0.000122344426927
         0.000122821715195
         0.000123300764244
         0.00012378169049
         0.000124264566693
         0.000124749247334
         0.000125235921587
         0.000125724400277
         0.000126214843476
         0.00012670714932
         0.000127201448777
         0.000127697581775
         0.00012819575204
         0.0001286957704
         0.000129197724164
         0.000129701744299
         0.00013020762708
         0.000130715590785
         0.000131225431687
         0.000131737368065
         0.000132251196192
         0.000132767032483
         0.000133284964249
         0.000133804831421
         0.000134326823172
         0.000134850750328
         0.000135376816615
         0.000135904847411
         0.000136434930027
         0.000136967180879
         0.000137501410791
         0.00013803782349
         0.000138576229801
         0.0001391168189
         0.000139659445267
         0.00014020416711
         0.000140751129948
         0.00014130010095
         0.000141851327498
         0.000142404620419
         0.000142960154335
         0.000143517754623
         0.000144077639561
         0.000144639605423
         0.000145203855936
         0.000145770201925
         0.000146338774357
         0.000146909660543
         0.000147482671309
         0.000148058010382
         0.000148635503137
         0.000149215353304
         0.000149797342601
         0.000150381631101
         0.000150968277012
         0.000151557120262
         0.000152148350026
         0.000152741806232
         0.000153337663505
         0.000153935747221
         0.000154536159243
         0.000155139015988
         0.000155744128278
         0.000156351699843
         0.000156961541506
         0.000157573871547
         0.000158188471687
         0.000158805472893
         0.00015942499158
         0.000160046809469
         0.000160671173944
         0.000161297866725
         0.000161927106092
         0.000162558673765
         0.00016319284623
         0.000163829361554
         0.000164468467119
         0.00016510997375
         0.000165753968759
         0.000166400597664
         0.000167049627635
         0.000167701306054
         0.000168355414644
         0.000169012186234
         0.000169671402546
         0.000170333194546
         0.000170997678651
         0.000171664651134
         0.000172334330273
         0.000173006512341
         0.000173681415617
         0.000174358865479
         0.000175038934685
         0.000175721783307
         0.000176407178515
         0.000177095353138
         0.00017778610345
         0.00017847964773
         0.000179175796802
         0.000179874667083
         0.000180576374987
         0.000181280818651
         0.00018198788166
         0.000182697724085
         0.000183410447789
         0.000184125819942
         0.000184844000614
         0.00018556509167
         0.000186289005796
         0.000187015612028
         0.00018774504133
         0.000188477453776
         0.000189212601981
         0.000189950733329
         0.000190691629541
         0.000191435523448
         0.000192182211322
         0.000192931809579
         0.000193684463738
         0.000194439897314
         0.000195198444999
         0.000195959786652
         0.000196724256966
         0.000197491564904
         0.000198261855985
         0.000199035304831
         0.000199811634957
         0.000200591108296
         0.00020137350657
         0.000202159091714
         0.00020294758724
         0.000203739182325
         0.000204533978831
         0.000205331889447
         0.000206132754101
         0.000206936776522
         0.000207744058571
         0.000208554352866
         0.000209367790376
         0.000210184545722
         0.000211004502489
         0.000211827529711
         0.00021265372925
         0.000213483304833
         0.000214315994526
         0.000215152060264
         0.000215991254663
         0.000216833854211
         0.000217679611524
         0.00021852865757
         0.000219381152419
         0.000220236819587
         0.000221095979214
         0.000221958354814
         0.000222824251978
         0.000223693350563
         0.000224565868848
         0.000225441894145
         0.000226321222726
         0.000227204131079
         0.000228090328164
         0.000228980134125
         0.00022987324337
         0.000230769859627
         0.000231670113862
         0.00023257387511
         0.000233480997849
         0.00023439170036
         0.000235306084505
         0.000236223873799
         0.000237145228311
         0.000238070366322
         0.000238999098656
         0.000239931294345
         0.000240867142566
         0.000241806788836
         0.000242749942117
         0.000243696922553
         0.000244647468207
         0.000245601841016
         0.000246559793595
         0.000247521500569
         0.000248487078352
         0.000249456294114
         0.000250429438893
         0.000251406221651
         0.000252386991633
         0.000253371399594
         0.000254359678365
         0.000255351944361
         0.000256347935647
         0.000257347972365
         0.000258351734374
         0.000259359570919
         0.000260371220065
         0.000261386769125
         0.000262406480033
         0.000263430119958
         0.000264457630692
         0.000265489128651
         0.000266524846666
         0.000267564377282
         0.000268608011538
         0.00026965586585
         0.000270707823802
         0.000271763681667
         0.00027282370138
         0.000273887999356
         0.000274956284557
         0.000276028935332
         0.000277105544228
         0.000278186576907
         0.000279271625914
         0.000280360894976
         0.000281454616925
         0.000282552384306
         0.00028365466278
         0.000284761044895
         0.000285871909
         0.000286986934952
         0.000288106326479
         0.000289230258204
         0.00029035838088
         0.000291491101962
         0.000292628043098
         0.000293769611744
         0.000294915429549
         0.000296065729344
         0.000297220714856
         0.000298380182358
         0.000299544015434
         0.000300712359603
         0.000301885476802
         0.000303062959574
         0.000304245011648
         0.000305431924062
         0.000306623405777
         0.000307819398586
         0.000309020018904
         0.000310225557769
         0.00031143554952
         0.000312650488922
         0.000313869939419
         0.000315094395773
         0.000316323392326
         0.000317557220114
         0.000318796024658
         0.000320039485814
         0.000321287981933
         0.000322541134665
         0.000323799380567
         0.00032506234129
         0.00032633045339
         0.000327603280311
         0.000328881287714
         0.000330164068146
         0.000331451854436
         0.000332744879415
         0.000334042735631
         0.000335345859639
         0.000336653843988
         0.000337967183441
         0.000339285383234
         0.000340608763508
         0.000341937498888
         0.000343271211023
         0.000344610336469
         0.000345954467775
         0.000347304070601
         0.00034865870839
         0.000350018643076
         0.000351384078385
         0.000352754839696
         0.000354130781488
         0.000355512020178
         0.000356898905011
         0.000358290970325
         0.000359688478056
         0.000361091661034
         0.000362500315532
         0.00036391420872
         0.000365333602531
         0.000366758817108
         0.000368189357687
         0.000369625689927
         0.000371067377273
         0.000372514972696
         0.000373967923224
         0.000375426548999
         0.000376891111955
         0.000378361175535
         0.000379837176297
         0.00038131873589
         0.000382806261769
         0.000384299375582
         0.000385798310162
         0.000387303356547
         0.000388813990867
         0.000390330824303
         0.000391853274778
         0.000393381924368
         0.00039491627831
         0.000396456627641
         0.000398003234295
         0.00039955592365
         0.00040111434646
         0.00040267885197
         0.000404249731218
         0.000405826489441
         0.000407409388572
         0.000408998719649
         0.000410594278947
         0.000412195775425
         0.000413803500123
         0.000415417773183
         0.000417038128944
         0.000418665003963
         0.000420297990786
         0.000421937613282
         0.000423583347583
         0.000425235513831
         0.000426894403063
         0.000428559462307
         0.000430231331848
         0.000431909400504
         0.000433594308561
         0.000435285532149
         0.000436983333202
         0.000438688031863
         0.000440399133367
         0.000442117161583
         0.000443841621745
         0.000445573066827
         0.000447311002063
         0.000449055689387
         0.00045080750715
         0.000452566164313
         0.000454331369838
         0.00045610347297
         0.000457882764749
         0.000459668692201
         0.000461461604573
         0.000463261822006
         0.000465069024358
         0.000466883007903
         0.000468704063678
         0.00047053254093
         0.000472367799375
         0.000474210537504
         0.000476060173241
         0.000477917317767
         0.000479781418107
         0.000481652765302
         0.0004835317377
         0.000485417695018
         0.000487311393954
         0.000489212106913
         0.000491120561492
         0.000493036117405
         0.000494959182106
         0.000496890104841
         0.000498828187119
         0.000500774127431
         0.000502727401908
         0.000504688592628
         0.000506657059304
         0.0005086332676
         0.000510617450345
         0.000512609432917
         0.000514608866069
         0.000516616040841
         0.000518631422892
         0.000520654313732
         0.000522685062606
         0.000524724135175
         0.000526771123987
         0.000528825796209
         0.000530888384674
         0.000532959413249
         0.000535038241651
         0.000537125451956
         0.000539220462088
         0.000541324028745
         0.000543435453437
         0.000545555027202
         0.000547683332115
         0.000549819495063
         0.000551964447368
         0.000554117315914
         0.000556278973818
         0.000558448722586
         0.000560626911465
         0.000562813947909
         0.000565009191632
         0.000567213341128
         0.000569425697904
         0.000571647135075
         0.000573876779526
         0.000576115155127
         0.000578362611122
         0.000580618856475
         0.000582883541938
         0.000585157016758
         0.000587439804804
         0.00058973103296
         0.000592031225096
         0.000594340846874
         0.000596659374423
         0.000598986633122
         0.000601322972216
         0.000603668740951
         0.000606023299042
         0.000608387461398
         0.000610760471318
         0.000613143085502
         0.000615534605458
         0.000617935496848
         0.000620346108917
         0.000622765684966
         0.000625195156317
         0.000627633708064
         0.000630082155112
         0.000632539740764
         0.000635006930679
         0.00063748419052
         0.000639970588963
         0.000642467231955
         0.000644973071758
         0.000647489214316
         0.0006500146701
         0.000652550021186
         0.000655095675029
         0.000657651282381
         0.00066021643579
         0.000662791542709
         0.000665377185214
         0.000667972431984
         0.000670577806886
         0.000673193775583
         0.000675819988828
         0.00067845598096
         0.000681102275848
         0.000683759280946
         0.000686426239554
         0.000689104082994
         0.000691791879945
         0.000694490619935
         0.000697199371643
         0.000699918775354
         0.000702649238519
         0.000705390179064
         0.000708141422365
         0.000710903783329
         0.000713676738087
         0.000716460694093
         0.000719255418517
         0.00072206108598
         0.000724877638277
         0.000727705191821
         0.00073054357199
         0.000733393244445
         0.000736254092772
         0.000739126058761
         0.000742009200621
         0.000744903634768
         0.000747809302993
         0.000750726263504
         0.000753654516302
         0.000756594294216
         0.00075954553904
         0.000762508367188
         0.000765482778661
         0.000768468773458
         0.00077146635158
         0.000774475629441
         0.000777496374212
         0.000780529284384
         0.000783573952504
         0.000786630494986
         0.000789698970038
         0.000792779377662
         0.000795871776063
         0.000798976281658
         0.000802092661615
         0.000805221498013
         0.000808362441603
         0.000811515608802
         0.000814681232441
         0.000817859021481
         0.000821049383376
         0.000824252085295
         0.000827466952614
         0.000830694742035
         0.000833935104311
         0.000837188039441
         0.000840453722049
         0.000843732152134
         0.000847023387905
         0.000850327429362
         0.000853644043673
         0.000856973871123
         0.000860316737089
         0.000863672699779
         0.000867041642778
         0.000870423740707
         0.000873819051776
         0.000877227634192
         0.000880649196915
         0.000884084380232
         0.000887533009518
         0.000890995084774
         0.000894470664207
         0.000897959747817
         0.000901462510228
         0.000904978893232
         0.000908508663997
         0.000912052521016
         0.000915610231459
         0.000919181853533
         0.000922767387237
         0.000926366774365
         0.00092998042237
         0.000933608040214
         0.000937249453273
         0.000940905476455
         0.000944575760514
         0.000948260247242
         0.000951959285885
         0.000955672643613
         0.000959400495049
         0.000963142840192
         0.000966899504419
         0.000970671186224
         0.000974457536358
         0.000978258671239
         0.000982074649073
         0.000985905528069
         0.000989751308225
         0.000993611989543
         0.000997487455606
         0.00100137852132
         0.00100528460462
         0.00100920593832
         0.00101314275526
         0.00101709470619
         0.00102106214035
         0.00102504505776
         0.00102904322557
         0.00103305734228
         0.00103708694223
         0.00104113237467
         0.00104519363958
         0.00104927062057
         0.00105336366687
         0.00105747254565
         0.00106159714051
         0.00106573814992
         0.00106989545748
         0.00107406871393
         0.00107825850137
         0.00108246447053
         0.00108668697067
         0.00109092588536
         0.00109518098179
         0.00109945295844
         0.0011037416989
         0.00110804720316
         0.00111236935481
         0.00111670838669
         0.0011210644152
         0.00112543744035
         0.00112982722931
         0.00113423436414
         0.00113865872845
         0.00114310032222
         0.0011475593783
         0.00115203578025
         0.00115652952809
         0.00116104085464
         0.00116556941066
         0.00117011601105
         0.00117468030658
         0.00117926253006
         0.00118386256509
         0.00118848052807
         0.00119311653543
         0.00119777058717
         0.00120244245045
         0.00120713282377
         0.0012118415907
         0.00121656863485
         0.00122131430544
         0.00122607825324
         0.00123086094391
         0.00123566226102
         0.00124048185535
         0.0012453206582
         0.00125017832033
         0.00125505507458
         0.00125995068811
         0.00126486539375
         0.00126979942434
         0.00127475254703
         0.00127972464543
         0.00128471653443
         0.0012897279812
         0.00129475886934
         0.00129980943166
         0.00130487966817
         0.00130996969528
         0.00131507962942
         0.00132020900492
         0.00132535875309
         0.00133052864112
         0.00133571878541
         0.00134092906956
         0.00134615972638
         0.00135141075589
         0.00135668227449
         0.00136197404936
         0.00136728666257
         0.00137262023054
         0.00137797440402
         0.00138334964868
         0.00138874573167
         0.00139416288584
         0.0013996012276
         0.00140506029129
         0.00141054112464
         0.001416043262
