OpenColorIO/configs/aces_1.1/luts/Log2_48_nits_Shaper_to_linear.spi1d
Version 1
From 0.000000 1.000000
Length 4096
Components 1
{
         0.00198873784393
         0.00199311901815
         0.00199750927277
         0.00200190977193
         0.00200632004999
         0.00201073940843
         0.00201516901143
         0.00201960792765
         0.00202405708842
         0.00202851626091
         0.00203298428096
         0.00203746301122
         0.00204195152037
         0.00204644934274
         0.0020509576425
         0.00205547525547
         0.00206000357866
         0.00206454168074
         0.00206908932887
         0.00207364745438
         0.00207821559161
         0.00208279327489
         0.00208738190122
         0.00209197984077
         0.0020965882577
         0.00210120715201
         0.00210583535954
         0.00211047451012
         0.00211512413807
         0.00211978307925
         0.00212445296347
         0.00212913239375
         0.00213382299989
         0.00213852385059
         0.00214323424734
         0.00214795581996
         0.00215268763714
         0.00215742946602
         0.00216218223795
         0.0021669450216
         0.00217171874829
         0.00217650295235
         0.00218129716814
         0.00218610279262
         0.00219091866165
         0.00219574454241
         0.00220058183186
         0.0022054289002
         0.00221028761007
         0.00221515679732
         0.00222003622912
         0.00222492706962
         0.0022298283875
         0.00223473994993
         0.00223966315389
         0.00224459636956
         0.00224954145961
         0.00225449725986
         0.00225946307182
         0.00226444075815
         0.00226942938752
         0.00227442826144
         0.0022794387769
         0.0022844595369
         0.00228949240409
         0.00229453621432
         0.0022995902691
         0.00230465643108
         0.00230973353609
         0.00231482111849
         0.00231992057525
         0.00232503074221
         0.00233015278354
         0.00233528623357
         0.00234043016098
         0.00234558596276
         0.00235075340606
         0.00235593155958
         0.00236112158746
         0.00236632232554
         0.00237153540365
         0.00237675989047
         0.00238199508749
         0.00238724262454
         0.00239250180312
         0.0023977716919
         0.00240305415355
         0.0024083473254
         0.00241365283728
         0.00241897022352
         0.0024242985528
         0.0024296392221
         0.00243499176577
         0.00244035525247
         0.00244573131204
         0.00245111854747
         0.00245651835576
         0.00246193027124
         0.00246735289693
         0.00247278856114
         0.00247823609971
         0.00248369504698
         0.0024891665671
         0.00249464949593
         0.00250014523044
         0.00250565307215
         0.00251117208973
         0.00251670437865
         0.00252224877477
         0.00252780434676
         0.00253337319009
         0.00253895344213
         0.00254454673268
         0.00255015236326
         0.00255576963536
         0.00256140017882
         0.00256704282947
         0.00257269712165
         0.00257836491801
         0.00258404412307
         0.00258973683231
         0.0025954421144
         0.00260115903802
         0.00260688946582
         0.00261263246648
         0.0026183873415
         0.00262415548787
         0.00262993574142
         0.00263572973199
         0.00264153606258
         0.00264735450037
         0.00265318667516
         0.00265903165564
         0.00266488874331
         0.00267075933516
         0.00267664319836
         0.00268253893591
         0.00268844887614
         0.0026943704579
         0.00270030624233
         0.00270625506528
         0.00271221599542
         0.00271819112822
         0.00272417860106
         0.0027301798109
         0.00273619452491
         0.00274222134613
         0.00274826260284
         0.00275431713089
         0.00276038399898
         0.00276646506973
         0.00277255964465
         0.00277866679244
         0.00278478814289
         0.00279092229903
         0.00279707065783
         0.00280323252082
         0.00280940718949
         0.00281559629366
         0.00282179843634
         0.0028280147817
         0.00283424486406
         0.00284048798494
         0.00284674554132
         0.00285301683471
         0.00285930139944
         0.00286560016684
         0.00287191313691
         0.0028782391455
         0.00288457982242
         0.00289093353786
         0.00289730262011
         0.00290368520655
         0.00291008129716
         0.0029164920561
         0.00292291631922
         0.0029293554835
         0.00293580908328
         0.00294227548875
         0.00294875726104
         0.00295525370166
         0.00296176294796
         0.00296828779392
         0.00297482707538
         0.00298137962818
         0.00298794778064
         0.00299452920444
         0.0030011262279
         0.00300773768686
         0.00301436288282
         0.00302100367844
         0.00302765797824
         0.00303432787769
         0.00304101221263
         0.00304771075025
         0.00305442488752
         0.00306115392596
         0.0030678967014
         0.00307465530932
         0.0030814288184
         0.0030882160645
         0.00309501960874
         0.00310183712281
         0.00310867023654
         0.0031155187171
         0.00312238116749
         0.00312925991602
         0.0031361526344
         0.00314306165092
         0.00314998580143
         0.00315692415461
         0.00316387880594
         0.00317084928975
         0.00317783351056
         0.00318483426236
         0.0031918506138
         0.00319888116792
         0.00320592825301
         0.00321299023926
         0.003220068058
         0.00322716217488
         0.00323427049443
         0.00324139581062
         0.00324853556231
         0.00325569184497
         0.00326286442578
         0.00327005144209
         0.0032772552222
         0.00328447530046
         0.00329171004705
         0.00329896155745
         0.00330622913316
         0.00331351161003
         0.0033208115492
         0.00332812638953
         0.0033354582265
         0.00334280612879
         0.00335016939789
         0.00335754989646
         0.0033649452962
         0.00337235839106
         0.00337978778407
         0.0033872325439
         0.00339469430037
         0.00340217305347
         0.00340966670774
         0.00341717875563
         0.003424706636
         0.00343225011602
         0.003439811524
         0.00344738829881
         0.00345498276874
         0.00346259423532
         0.00347022130154
         0.00347786629573
         0.00348552665673
         0.00349320564419
         0.00350090116262
         0.00350861344486
         0.00351634202525
         0.0035240885336
         0.00353185087442
         0.00353963160887
         0.00354742933996
         0.00355524336919
         0.00356307579204
         0.00357092381455
         0.00357879092917
         0.00358667480759
         0.00359457521699
         0.00360249425285
         0.00361043051817
         0.00361838331446
         0.00362635450438
         0.00363434338942
         0.00364234880544
         0.00365037284791
         0.00365841365419
         0.00366647285409
         0.00367455044761
         0.00368264433928
         0.0036907568574
         0.00369888683781
         0.00370703521185
         0.0037152019795
         0.00372338527814
         0.00373158813454
         0.00373980891891
         0.00374804623425
         0.0037563033402
         0.00376457883976
         0.00377287087031
         0.00378118269145
         0.00378951127641
         0.00379785965197
         0.00380622642115
         0.00381461041979
         0.00382301374339
         0.00383143476211
         0.0038398753386
         0.00384833477437
         0.00385681120679
         0.0038653081283
         0.00387382344343
         0.00388235622086
         0.00389090902172
         0.00389948068187
         0.00390806980431
         0.00391667988151
         0.00392530672252
         0.00393395405263
         0.00394262094051
         0.00395130505785
         0.0039600096643
         0.00396873289719
         0.00397747568786
         0.0039862380363
         0.00399501854554
         0.00400381954387
         0.00401263870299
         0.00402147881687
         0.00403033802286
         0.00403921725228
         0.00404811417684
         0.00405703252181
         0.00406596856192
         0.00407492602244
         0.00408390304074
         0.00409289868549
         0.00410191528499
         0.00411095051095
         0.00412000715733
         0.00412908336148
         0.00413817865774
         0.00414729490876
         0.0041564302519
         0.00416558654979
         0.00417476380244
         0.00418396107852
         0.0041931765154
         0.00420241430402
         0.00421167071909
         0.00422094902024
         0.00423024827614
         0.0042395661585
         0.00424890592694
         0.0042582647875
         0.00426764599979
         0.00427704770118
         0.00428646849468
         0.00429591163993
         0.00430537434295
         0.00431485893205
         0.00432436447591
         0.00433389144018
         0.00434343749657
         0.0043530059047
         0.00436259433627
         0.00437220558524
         0.00438183732331
         0.00439148908481
         0.00440116366372
         0.00441085780039
         0.00442057522014
         0.00443031359464
         0.00444007245824
         0.00444985413924
         0.00445965537801
         0.00446947989985
         0.00447932630777
         0.00448919460177
         0.00449908291921
         0.00450899451971
         0.00451892614365
         0.00452888151631
         0.00453885877505
         0.00454885652289
         0.00455887755379
         0.00456891907379
         0.00457898480818
         0.00458907242864
         0.00459918053821
         0.00460931286216
         0.0046194656752
         0.00462964223698
         0.00463984115049
         0.00465006334707
         0.00466030556709
         0.00467057246715
         0.00468086032197
         0.00469117192551
         0.00470150681213
         0.00471186311916
         0.00472224317491
         0.00473264465109
         0.00474307080731
         0.00475351978093
         0.00476399017498
         0.00477448524907
         0.00478500220925
         0.00479554338381
         0.00480610830709
         0.00481669604778
         0.00482730567455
         0.00483794044703
         0.00484859710559
         0.0048592784442
         0.00486998353153
         0.00488071050495
         0.00489146262407
         0.00490223709494
         0.00491303671151
         0.00492386054248
         0.00493470579386
         0.00494557712227
         0.00495647080243
         0.00496739009395
         0.0049783331342
         0.00498930038884
         0.00500029046088
         0.0050113061443
         0.00502234417945
         0.0050334087573
         0.00504449754953
         0.00505560869351
         0.00506674638018
         0.00507790688425
         0.00508909346536
         0.00510030472651
         0.00511153927073
         0.00512280035764
         0.00513408379629
         0.0051453942433
         0.00515672983602
         0.00516809010878
         0.00517947366461
         0.0051908842288
         0.00520231807604
         0.00521377893165
         0.00522526493296
         0.005236774683
         0.00524831097573
         0.00525987148285
         0.00527145946398
         0.00528307212517
         0.00529470900074
         0.00530637335032
         0.00531806144863
         0.00532977748662
         0.00534151867032
         0.00535328639671
         0.00536507787183
         0.00537689775229
         0.00538874091581
         0.00540061248466
         0.00541251013055
         0.00542443199083
         0.00543638225645
         0.00544835720211
         0.00546035962179
         0.00547238904983
         0.00548444269225
         0.00549652520567
         0.00550863239914
         0.00552076799795
         0.00553293013945
         0.00554511928931
         0.00555733358487
         0.00556957628578
         0.00558184459805
         0.00559414131567
         0.00560646504164
         0.00561881437898
         0.00563119258732
         0.00564359687269
         0.0056560295634
         0.00566848972812
         0.00568097596988
         0.00569349108264
         0.00570603180677
         0.00571860279888
         0.00573120033368
         0.00574382627383
         0.005756478291
         0.00576915964484
         0.00578186707571
         0.00579460524023
         0.00580737041309
         0.00582016259432
         0.0058329841122
         0.00584583263844
         0.005858710967
         0.00587161816657
         0.0058845509775
         0.00589751452208
         0.00591050507501
         0.00592352589592
         0.00593657558784
         0.00594965415075
         0.00596275925636
         0.00597589556128
         0.00598905840889
         0.0060022524558
         0.00601547537372
         0.00602872576565
         0.00604200735688
         0.00605531595647
         0.00606865575537
         0.00608202442527
         0.0060954215005
         0.00610884977505
         0.00612230598927
         0.00613579340279
         0.00614931061864
         0.00616285763681
         0.006176432129
         0.00619003921747
         0.00620367424563
         0.00621734047309
         0.00623103743419
         0.00624476466328
         0.00625851983204
         0.00627230713144
         0.00628612330183
         0.00629997160286
         0.00631385063753
         0.00632775761187
         0.00634169857949
         0.00635566702113
         0.00636966852471
         0.00638370122761
         0.00639776233584
         0.00641185650602
         0.00642598047853
         0.006440136116
         0.00645432434976
         0.00646854285151
         0.00648279162124
         0.00649707298726
         0.00651138368994
         0.00652572885156
         0.00654010474682
         0.0065545104444
         0.00656895060092
         0.0065834200941
         0.0065979231149
         0.00661245826632
         0.00662702322006
         0.0066416230984
         0.00665625277907
         0.006670916453
         0.00668561225757
         0.00670034065843
         0.00671509979293
         0.00672989245504
         0.00674471678212
         0.00675957556814
         0.00677446695045
         0.00678938860074
         0.00680434610695
         0.00681933341548
         0.00683435751125
         0.00684941327199
         0.00686450023204
         0.00687962304801
         0.00689477659762
         0.00690996553749
         0.00692518847063
         0.00694044493139
         0.00695573259145
         0.00697105610743
         0.00698641128838
         0.00700180232525
         0.00701722688973
         0.0070326840505
         0.00704817706719
         0.00706370174885
         0.00707926321775
         0.00709485867992
         0.00711048673838
         0.00712615158409
         0.0071418476291
         0.00715758185834
         0.00717334961519
         0.00718915276229
         0.00720498850569
         0.00722086103633
         0.00723676662892
         0.00725270900875
         0.00726868677884
         0.00728469761088
         0.00730074569583
         0.00731682730839
         0.00733294570819
         0.00734910089523
         0.00736528867856
         0.00738151371479
         0.00739777367562
         0.00741407042369
         0.00743040395901
         0.00744677335024
         0.00746317626908
         0.00747961783782
         0.0074960924685
         0.00751260668039
         0.00752915767953
         0.00754574174061
         0.00756236538291
         0.00757902255282
         0.00759571930394
         0.0076124528423
         0.00762922083959
         0.00764602748677
         0.00766286952421
         0.0076797506772
         0.00769666954875
         0.00771362520754
         0.00773061625659
         0.00774764688686
         0.00776471244171
         0.00778181804344
         0.00779896136373
         0.00781613960862
         0.00783335976303
         0.00785061344504
         0.00786790810525
         0.00788524188101
         0.00790261011571
         0.00792001932859
         0.00793746579438
         0.00795495137572
         0.00797247607261
         0.00799003988504
         0.00800763908774
         0.00802527740598
         0.00804295763373
         0.00806067604572
         0.00807843450457
         0.00809622835368
         0.00811406504363
         0.00813193712384
         0.00814985204488
         0.00816780608147
         0.00818580016494
         0.00820383056998
         0.0082219010219
         0.00824001431465
         0.00825816672295
         0.00827636010945
         0.00829458981752
         0.00831286050379
         0.00833117309958
         0.00834952760488
         0.00836792215705
         0.0083863530308
         0.00840482860804
         0.00842334143817
         0.00844189804047
         0.00846049655229
         0.00847913511097
         0.00849781185389
         0.00851652957499
         0.00853529199958
         0.00855409540236
         0.00857293978333
         0.00859182327986
         0.0086107486859
         0.0086297178641
         0.00864872895181
         0.00866778288037
         0.00868687499315
         0.00870601180941
         0.00872518867254
         0.00874441117048
         0.00876367464662
         0.00878298096359
         0.00880232732743
         0.00882171560079
         0.00884115044028
         0.00886062718928
         0.00888014771044
         0.00889970827848
         0.00891931075603
         0.00893895979971
         0.00895865261555
         0.00897838920355
         0.00899816583842
         0.00901798903942
         0.00903785228729
         0.00905776303262
         0.0090777175501
         0.00909771583974
         0.00911775510758
         0.00913783814758
         0.00915796961635
         0.00917814485729
         0.00919836387038
         0.00921862572432
         0.00923893135041
         0.00925928447396
         0.00927968230098
         0.00930012669414
         0.00932061113417
         0.0093411449343
         0.00936172064394
         0.00938234385103
         0.00940301362425
         0.00942372810096
         0.00944448634982
         0.00946528930217
         0.00948614161462
         0.00950703956187
         0.00952798407525
         0.00954897049814
         0.00957000441849
         0.00959108676761
         0.00961221661419
         0.00963339209557
         0.00965461134911
         0.00967588089406
         0.00969719421118
         0.0097185568884
         0.00973996706307
         0.00976142380387
         0.00978292524815
         0.00980447418988
         0.00982607342303
         0.00984772108495
         0.00986941531301
         0.00989115424454
         0.00991294160485
         0.0099347801879
         0.00995666626841
         0.00997860077769
         0.0100005809218
         0.0100226122886
         0.0100446883589
         0.0100668175146
         0.0100889950991
         0.0101112211123
         0.0101334927604
         0.0101558137685
         0.0101781869307
         0.010200609453
         0.0102230822667
         0.0102456007153
         0.0102681675926
         0.0102907884866
         0.010313459672
         0.0103361802176
         0.0103589473292
         0.0103817684576
         0.0104046361521
         0.0104275578633
         0.0104505298659
         0.01047355216
         0.0104966219515
         0.0105197429657
         0.010542918928
         0.0105661442503
         0.0105894217268
         0.0106127467006
         0.0106361228973
         0.0106595549732
         0.0106830373406
         0.0107065727934
         0.0107301557437
         0.0107537955046
         0.0107774818316
         0.0108012249693
         0.0108250202611
         0.010848867707
         0.0108727645129
         0.0108967144042
         0.0109207192436
         0.0109447780997
         0.0109688891098
         0.0109930504113
         0.0110172647983
         0.0110415359959
         0.0110658602789
         0.0110902385786
         0.0111146671697
         0.0111391525716
         0.0111636891961
         0.0111882826313
         0.0112129300833
         0.0112376324832
         0.0112623851746
         0.0112871946767
         0.0113120591268
         0.0113369794562
         0.0113619528711
         0.0113869821653
         0.0114120664075
         0.0114372065291
         0.0114624006674
         0.011487650685
         0.011512956582
         0.0115383192897
         0.0115637369454
         0.0115892104805
         0.0116147389635
         0.01164032612
         0.0116659682244
         0.0116916662082
         0.011717421934
         0.0117432363331
         0.011769104749
         0.0117950290442
         0.0118210120127
         0.0118470545858
         0.0118731511757
         0.0118993073702
         0.0119255185127
         0.0119517911226
         0.0119781186804
         0.0120045049116
         0.0120309488848
         0.0120574524626
         0.0120840147138
         0.0121106328443
         0.0121373115107
         0.0121640488505
         0.012190845795
         0.0122176995501
         0.0122446129099
         0.0122715877369
         0.0122986212373
         0.0123257124797
         0.012352864258
         0.0123800784349
         0.0124073494226
         0.0124346809462
         0.0124620730057
         0.0124895274639
         0.0125170396641
         0.0125446133316
         0.0125722466037
         0.0125999432057
         0.0126276994124
         0.0126555152237
         0.012683394365
         0.0127113368362
         0.0127393370494
         0.0127673996612
         0.0127955246717
         0.012823713012
         0.0128519618884
         0.012880272232
         0.0129086468369
         0.0129370847717
         0.0129655832425
         0.0129941441119
         0.0130227673799
         0.0130514577031
         0.013080207631
         0.0131090208888
         0.0131378984079
         0.0131668411195
         0.0131958462298
         0.01322491467
         0.0132540464401
         0.0132832461968
         0.0133125064895
         0.013341832906
         0.0133712226525
         0.0134006785229
         0.0134301995859
         0.0134597839788
         0.0134894335642
         0.0135191511363
         0.0135489311069
         0.0135787772015
         0.0136086894199
         0.0136386696249
         0.0136687150225
         0.01369882375
         0.0137290004641
         0.013759246096
         0.0137895550579
         0.013819931075
         0.0138503750786
         0.0138808870688
         0.0139114651829
         0.0139421094209
         0.0139728225768
         0.0140036046505
         0.0140344528481
         0.014065368101
         0.0140963513404
         0.0141274062917
         0.0141585264355
         0.0141897164285
         0.0142209734768
         0.0142523031682
         0.0142836980522
         0.0143151637167
         0.0143466982991
         0.0143783036619
         0.0144099770114
         0.0144417192787
         0.0144735332578
         0.0145054180175
         0.0145373707637
         0.0145693952218
         0.014601489529
         0.0146336555481
         0.0146658914164
         0.0146981989965
         0.0147305773571
         0.0147630274296
         0.0147955492139
         0.0148281408474
         0.014860805124
         0.0148935439065
         0.0149263525382
         0.0149592328817
         0.014992184937
         0.0150252133608
         0.0150583125651
         0.0150914834812
         0.0151247279719
         0.0151580478996
         0.0151914386079
         0.0152249028906
         0.0152584416792
         0.0152920549735
         0.0153257418424
         0.0153595013544
         0.0153933363035
         0.0154272476211
         0.0154612325132
