OpenColorIO/configs/aces_1.1/luts/Log2_4000_nits_Shaper_to_linear.spi1d
Version 1
From 0.000000 1.000000
Length 4096
Components 1
{
         4.39453142462e-05
         4.4124215492e-05
         4.43038152298e-05
         4.44841753051e-05
         4.46652411483e-05
         4.48470709671e-05
         4.50296174677e-05
         4.52129315818e-05
         4.53969587397e-05
         4.55817753391e-05
         4.57673049823e-05
         4.59536240669e-05
         4.61406707473e-05
         4.6328510507e-05
         4.65170815005e-05
         4.67064564873e-05
         4.68965627078e-05
         4.70874801977e-05
         4.72791434731e-05
         4.74716107419e-05
         4.76648419863e-05
         4.78588808619e-05
         4.80536837131e-05
         4.82493123855e-05
         4.84457013954e-05
         4.86429271405e-05
         4.88409168611e-05
         4.90397469548e-05
         4.9239355576e-05
         4.94398082083e-05
         4.9641046644e-05
         4.98431363667e-05
         5.00460155308e-05
         5.0249745982e-05
         5.04542804265e-05
         5.06596807099e-05
         5.08658849867e-05
         5.10729587404e-05
         5.12808401254e-05
         5.14896019013e-05
         5.16991894983e-05
         5.19096538483e-05
         5.21209440194e-05
         5.23331254954e-05
         5.25461364305e-05
         5.27600532223e-05
         5.29748031113e-05
         5.31904661329e-05
         5.34069695277e-05
         5.36243896931e-05
         5.38426538697e-05
         5.40618530067e-05
         5.42818997928e-05
         5.45028815395e-05
         5.47247254872e-05
         5.49475116713e-05
         5.51711673324e-05
         5.53957652301e-05
         5.56212471565e-05
         5.58476785955e-05
         5.60749977012e-05
         5.63032772334e-05
         5.65324517083e-05
         5.67625975236e-05
         5.69936382817e-05
         5.72256612941e-05
         5.74585865252e-05
         5.76925012865e-05
         5.79273291805e-05
         5.81631502428e-05
         5.83998917136e-05
         5.86376372667e-05
         5.88763141423e-05
         5.9115998738e-05
         5.93566219322e-05
         5.95982637606e-05
         5.98408441874e-05
         6.00844614382e-05
         6.03290245635e-05
         6.05746172369e-05
         6.08211776125e-05
         6.10687857261e-05
         6.13173542661e-05
         6.15669705439e-05
         6.18175690761e-05
         6.2069229898e-05
         6.23218729743e-05
         6.25755856163e-05
         6.28302877885e-05
         6.30860740785e-05
         6.33428498986e-05
         6.36007243884e-05
         6.38595956843e-05
         6.41195729258e-05
         6.43805542495e-05
         6.46426487947e-05
         6.49057692499e-05
         6.51699956506e-05
         6.54352625133e-05
         6.57016498735e-05
         6.59690776956e-05
         6.62376332912e-05
         6.65072439006e-05
         6.67779968353e-05
         6.70498047839e-05
         6.73227623338e-05
         6.75967894495e-05
         6.78719734424e-05
         6.8148241553e-05
         6.84256665409e-05
         6.87041829224e-05
         6.8983878009e-05
         6.92646644893e-05
         6.95466442266e-05
         6.98297226336e-05
         7.01139942976e-05
         7.03993791831e-05
         7.06859791535e-05
         7.09736923454e-05
         7.12626278982e-05
         7.15526912245e-05
         7.18439841876e-05
         7.21364122001e-05
         7.24300771253e-05
         7.27248916519e-05
         7.30209503672e-05
         7.33181732357e-05
         7.3616647569e-05
         7.39163006074e-05
         7.42172051105e-05
         7.45192955947e-05
         7.48226666474e-05
         7.51272164052e-05
         7.54330612835e-05
         7.57400994189e-05
         7.60484326747e-05
         7.63579810155e-05
         7.66688317526e-05
         7.69808975747e-05
         7.7294287621e-05
         7.76089000283e-05
         7.79248512117e-05
         7.8242024756e-05
         7.85605516285e-05
         7.88803154137e-05
         7.9201439803e-05
         7.9523815657e-05
         7.98475521151e-05
         8.01725618658e-05
         8.04989394965e-05
         8.08265976957e-05
         8.11556456028e-05
         8.14859740785e-05
         8.1817706814e-05
         8.215073467e-05
         8.24851667858e-05
         8.28209085739e-05
         8.31580691738e-05
         8.3496553998e-05
         8.38364649098e-05
         8.41777073219e-05
         8.45203976496e-05
         8.48644194775e-05
         8.52099037729e-05
         8.55567341205e-05
         8.59050414874e-05
         8.62547021825e-05
         8.66058398969e-05
         8.69583600434e-05
         8.73123644851e-05
         8.76677513588e-05
         8.80246443558e-05
         8.83829416125e-05
         8.87427449925e-05
         8.91039599082e-05
         8.94666954991e-05
         8.98308644537e-05
         9.01965613593e-05
         9.05636916286e-05
         9.09323716769e-05
         9.13024996407e-05
         9.16741919355e-05
         9.20473394217e-05
         9.24220657907e-05
         9.27982400754e-05
         9.31760296226e-05
         9.35552889132e-05
         9.39361489145e-05
         9.43185004871e-05
         9.47024745983e-05
         9.50879402808e-05
         9.54750430537e-05
         9.58636592259e-05
         9.62539270404e-05
         9.66457082541e-05
         9.70391483861e-05
         9.74341310211e-05
         9.78307798505e-05
         9.82289857347e-05
         9.86288723652e-05
         9.90303378785e-05
         9.9433484138e-05
         9.98382165562e-05
         0.000100244651549
         0.000100652687252
         0.000101062432805
         0.00010147379362
         0.000101886886114
         0.000102301601146
         0.00010271807696
         0.000103136168036
         0.000103556041722
         0.000103977545223
         0.000104400838609
         0.000104825783637
         0.000105252525827
         0.000105680948764
         0.000106111168861
         0.000106543076981
         0.000106976811367
         0.000107412248326
         0.000107849526103
         0.000108288506453
         0.000108729342173
         0.000109171902295
         0.00010961634689
         0.000110062523163
         0.000110510591185
         0.000110960405436
         0.000111412125989
         0.000111865607323
         0.00011232100951
         0.000112778194307
         0.000113237314508
         0.000113698224595
         0.000114161099191
         0.000114625770948
         0.000115092407214
         0.00011556087702
         0.000116031318612
         0.000116503608297
         0.000116977884318
         0.00011745403026
         0.000117932184367
         0.000118412208394
         0.000118894262414
         0.000119378200907
         0.000119864183944
         0.000120352073282
         0.000120842028991
         0.000121333898278
         0.000121827848488
         0.000122323734104
         0.000122821715195
         0.00012332163169
         0.000123823672766
         0.00012432767835
         0.000124833823065
         0.000125341932289
         0.000125852195197
         0.000126364451717
         0.000126878891024
         0.000127395323943
         0.00012791393965
         0.000128434592625
         0.000128957457491
         0.000129482359625
         0.000130009473651
         0.000130538654048
         0.00013107007544
         0.000131603577756
         0.000132139335619
         0.000132677188958
         0.000133217326947
         0.000133759560413
         0.000134304093081
         0.000134850750328
         0.000135399735882
         0.000135950846015
         0.000136504313559
         0.000137059920235
         0.000137617898872
         0.000138178045745
         0.00013874056458
         0.000139305280754
         0.000139872397995
         0.000140441727126
         0.000141013471875
         0.000141587443068
         0.00014216384443
         0.000142742486787
         0.000143323588418
         0.000143906974699
         0.000144492820255
         0.000145080935908
         0.000145671569044
         0.000146264501382
         0.000146859951201
         0.000147457714775
         0.000148058010382
         0.000148660648847
         0.000149265863001
         0.000149873405462
         0.000150483552716
         0.000151096071932
         0.000151711181388
         0.000152328691911
         0.000152948821778
         0.000153571381816
         0.000154196561198
         0.000154824199853
         0.000155454486958
         0.000156087233336
         0.000156722657266
         0.000157360584126
         0.00015800120309
         0.000158644310432
         0.000159290153533
         0.000159938514116
         0.000160589625011
         0.000161243267939
         0.000161899690283
         0.000162558673765
         0.000163220465765
         0.000163884818903
         0.000164551995113
         0.000165221776115
         0.00016589439474
         0.000166569632711
         0.000167247751961
         0.000167928490555
         0.00016861212498
         0.000169298436958
         0.000169987659319
         0.000170679559233
         0.000171374398633
         0.000172071944689
         0.000172772444785
         0.000173475695192
         0.000174181899638
         0.0001748908835
         0.000175602865056
         0.00017631764058
         0.000177035413799
         0.000177756010089
         0.00017847964773
         0.000179206122993
         0.000179935668712
         0.000180668081157
         0.000181403564056
         0.000182141942787
         0.000182883435627
         0.000183627824299
         0.000184375385288
         0.000185125871212
         0.00018587950035
         0.000186636098078
         0.000187395897228
         0.000188158650417
         0.000188924648683
         0.000189693630091
         0.000190465871128
         0.000191241138964
         0.000192019666429
         0.000192801249796
         0.000193586165551
         0.000194374093553
         0.000195165412151
         0.000195959786652
         0.000196757537196
         0.000197558401851
         0.000198362671654
         0.00019917008467
         0.000199980902835
         0.000200794893317
         0.000201612318051
         0.000202432944207
         0.00020325704827
         0.000204084368306
         0.000204915209906
         0.000205749267479
         0.00020658687572
         0.000207427758141
         0.00020827219123
         0.000209119927604
         0.000209971243748
         0.000210825906834
         0.000211684178794
         0.000212545812246
         0.000213411083678
         0.000214279731154
         0.000215152060264
         0.000216027809074
         0.000216907254071
         0.000217790147872
         0.000218676752411
         0.00021956684941
         0.000220460700803
         0.000221358044655
         0.000222259201109
         0.000223163864575
         0.000224072355195
         0.000224984411034
         0.00022590032313
         0.000226819814998
         0.000227743192227
         0.000228670192882
         0.000229601108003
         0.000230535661103
         0.000231474172324
         0.000232416336075
         0.000233362501604
         0.000234312363318
         0.000235266270465
         0.000236223873799
         0.000237185537117
         0.000238150954829
         0.000239120476181
         0.000240093751927
         0.000241071189521
         0.000242052425165
         0.000243037822656
         0.000244027076405
         0.000245020492002
         0.000246017822064
         0.000247019343078
         0.000248024793109
         0.000249034492299
         0.000250048178714
         0.000251066114288
         0.000252088037087
         0.000253114267252
         0.000254144542851
         0.000255179154919
         0.000256217812421
         0.000257260893704
         0.00025830802042
         0.000259359570919
         0.000260415254161
         0.000261475419393
         0.000262539717369
         0.000263608526438
         0.000264681497356
         0.000265759008471
         0.000266840739641
         0.000267927040113
         0.000269017589744
         0.000270112766884
         0.000271212193184
         0.0002723163052
         0.000273424724583
         0.000274537858786
         0.000275655300356
         0.000276777485851
         0.000277904066024
         0.000279035419226
         0.000280171167105
         0.000281311746221
         0.000282456807327
         0.000283606670564
         0.000284761044895
         0.00028592030867
         0.000287084083539
         0.000288252806058
         0.000289426097879
         0.000290604337351
         0.000291787204333
         0.000292975048069
         0.000294167577522
         0.000295365141938
         0.000296567362966
         0.000297774677165
         0.000298986735288
         0.000300203915685
         0.000301425840007
         0.000302652944811
         0.000303884851746
         0.000305121939164
         0.000306363886921
         0.000307611102471
         0.000308863178361
         0.000310120551148
         0.000311382842483
         0.000312650488922
         0.000313923083013
         0.000315201061312
         0.00031648404547
         0.000317772442941
         0.000319065875374
         0.000320364808431
         0.000321668776451
         0.000322978303302
         0.000324292923324
         0.000325613131281
         0.000326938461512
         0.000328269437887
         0.000329605623847
         0.000330947426846
         0.000332294497639
         0.000333647272782
         0.000335005315719
         0.000336369121214
         0.000337738252711
         0.000339113175869
         0.00034049351234
         0.000341879640473
         0.000343271211023
         0.000344668660546
         0.000346071581589
         0.000347480439814
         0.000348894798663
         0.0003503151529
         0.000351741036866
         0.000353172974428
         0.00035461076186
         0.000356054137228
         0.000357503391569
         0.000358958786819
         0.000360420090146
         0.000361887126928
         0.000363360129995
         0.000364839361282
         0.000366324646166
         0.000367815693608
         0.00036931282375
         0.000370816298528
         0.00037232588511
         0.000373841350665
         0.000375363015337
         0.000376891111955
         0.000378425465897
         0.00037996575702
         0.000381512363674
         0.000383065489586
         0.00038462493103
         0.000386190513382
         0.000387762440369
         0.000389341003029
         0.000390926026739
         0.000392517220462
         0.000394114875235
         0.0003957193112
         0.000397330295527
         0.000398947566282
         0.000400571414502
         0.000402202131227
         0.000403839483624
         0.000405483267969
         0.000407133687986
         0.000408791122027
         0.000410455308156
         0.000412126042647
         0.000413803500123
         0.000415488117142
         0.00041717957356
         0.000418877636548
         0.000420582597144
         0.000422294746386
         0.000424013938755
         0.000425739795901
         0.000427472725278
         0.000429212959716
         0.000430960266385
         0.000432714441558
         0.000434475718066
         0.000436244474258
         0.000438020419097
         0.000439803290647
         0.000441593467258
         0.000443391181761
         0.000445196201326
         0.00044700835133
         0.000448827806395
         0.000450654973974
         0.000452489592135
         0.000454331369838
         0.000456180656329
         0.000458037742646
         0.000459902425064
         0.000461774354335
         0.000463653967017
         0.000465541495942
         0.000467436708277
         0.000469339312986
         0.000471249688417
         0.000473168125609
         0.000475094420835
         0.000477028195746
         0.000478969886899
         0.000480919756228
         0.000482877570903
         0.000484843039885
         0.000486816512421
         0.000488798308652
         0.000490788253956
         0.00049278588267
         0.000494791718666
         0.000496805994771
         0.000498828478158
         0.000500858877786
         0.000502897601109
         0.000504944880959
         0.000507000484504
         0.000509064120706
         0.000511136197019
         0.000513217062689
         0.00051530636847
         0.000517403823324
         0.000519509834703
         0.000521624751855
         0.00052374828374
         0.000525880081113
         0.000528020609636
         0.000530170218553
         0.000532328500412
         0.00053449528059
         0.000536670791917
         0.000538855616469
         0.000541049288586
         0.000543251517229
         0.000545462768059
         0.000547683332115
         0.000549912918359
         0.000552151293959
         0.000554398691747
         0.000556655693799
         0.000558921776246
         0.000561196822673
         0.00056348106591
         0.000565774971619
         0.000568078248762
         0.000570390489884
         0.000572712218855
         0.000575043726712
         0.000577384722419
         0.000579734856728
         0.000582094595302
         0.000584464287385
         0.000586843641941
         0.000589232251514
         0.000591630639974
         0.000594039156567
         0.000596457510255
         0.000598885293584
         0.000601322972216
         0.000603770953603
         0.0006062288885
         0.000608696427662
         0.000611174036749
         0.000613662123214
         0.000616160279606
         0.000618668273091
         0.000621186452918
         0.000623715342954
         0.000626254477538
         0.000628803507425
         0.000631362956483
         0.000633933232166
         0.000636513985228
         0.000639104808215
         0.000641706166789
         0.000644318584818
         0.000646941596642
         0.000649574853014
         0.000652218819596
         0.000654874020256
         0.000657539989334
         0.00066021643579
         0.000662903708871
         0.000665602390654
         0.000668312073685
         0.000671032292303
         0.000673763628583
         0.000676506548189
         0.000679260585457
         0.000682025391143
         0.000684801489115
         0.000687589286827
         0.000690388435032
         0.000693198526278
         0.000696020084433
         0.000698853633367
         0.000701698649209
         0.000704554840922
         0.000707422790583
         0.000710302439984
         0.000713193847332
         0.000716097012628
         0.000719011994079
         0.0007219389081
         0.000724877638277
         0.000727828417439
         0.000730791070964
         0.00073376588989
         0.000736752874218
         0.000739751907531
         0.000742763222661
         0.000745786761399
         0.000748822581954
         0.000751870800741
         0.00075493141776
         0.00075800443301
         0.000761090079322
         0.000764188182075
         0.000767298974097
         0.000770422397181
         0.000773558509536
         0.000776707427576
         0.000779869151302
         0.00078304373892
         0.000786231190432
         0.000789431738667
         0.000792645209003
         0.000795871776063
         0.000799111498054
         0.000802364433184
         0.000805630581453
         0.000808910001069
         0.000812202866655
         0.000815509061795
         0.000818828761112
         0.000822161906399
         0.000825508614071
         0.000828869000543
         0.000832243065815
         0.000835630868096
         0.000839032407384
         0.000842447858304
         0.000845877162647
         0.000849320436828
         0.000852777739055
         0.000856249069329
         0.000859734602273
         0.000863234279677
         0.000866748276167
         0.000870276417118
         0.000873819051776
         0.000877376063727
         0.000880947627593
         0.000884533626959
         0.000888134236448
         0.000891749514267
         0.000895379576832
         0.000899024365935
         0.000902683997992
         0.000906358531211
         0.00091004796559
         0.000913752475753
         0.000917472119909
         0.000921206839848
         0.00092495669378
         0.000928721972741
         0.000932502443902
         0.000936298340093
         0.000940109661315
         0.000943936523981
         0.000947778986301
         0.000951637048274
         0.000955510826316
         0.000959400495049
         0.000963305821642
         0.000967227155343
         0.000971164379735
         0.000975117727648
         0.000979087082669
         0.000983072561212
         0.0009870743379
         0.000991092412733
         0.00099512678571
         0.000999177689664
         0.00100324500818
         0.00100732874125
         0.00101142923813
         0.00101554649882
         0.0010196804069
         0.0010238311952
         0.00102799886372
         0.00103218352888
         0.00103638519067
         0.00104060396552
         0.00104483985342
         0.0010490930872
         0.00105336366687
         0.00105765159242
         0.00106195686385
         0.001066279714
         0.00107062014285
         0.00107497838326
         0.00107935420237
         0.00108374783304
         0.00108815950807
         0.00109258899465
         0.00109703652561
         0.00110150221735
         0.00110598606989
         0.00111048808321
         0.00111500860658
         0.00111954740714
         0.00112410471775
         0.00112868053839
         0.00113327498548
         0.00113788829185
         0.00114252022468
         0.00114717101678
         0.00115184078459
         0.00115652952809
         0.0011612373637
         0.00116596440785
         0.00117071066052
         0.00117547612172
         0.00118026114069
         0.00118506560102
         0.00118988961913
         0.00119473319501
         0.00119959656149
         0.001204479835
         0.00120938278269
         0.00121430575382
         0.00121924874838
         0.00122421199922
         0.0012291953899
         0.00123419892043
         0.00123922294006
         0.00124426744878
         0.0012493324466
         0.00125441804994
         0.0012595243752
         0.00126465142239
         0.00126979942434
         0.00127496838104
         0.0012801582925
         0.00128536939155
         0.00129060167819
         0.00129585526884
         0.0013011302799
         0.0013064268278
         0.00131174479611
         0.00131708441768
         0.00132244580891
         0.00132782908622
         0.00133323424961
         0.0013386614155
         0.0013441107003
         0.0013495819876
         0.00135507574305
         0.00136059185024
         0.00136613030918
         0.00137169135269
         0.00137727509718
         0.00138288142625
         0.00138851080555
         0.00139416288584
         0.00139983801637
         0.00140553631354
         0.00141125777736
         0.00141700252425
         0.00142277067062
         0.00142856233288
         0.00143437751103
         0.0014402163215
         0.00144607899711
         0.00145196542144
         0.00145787606016
         0.0014638104476
         0.00146976916585
         0.00147575209849
         0.00148175947834
         0.00148779118899
         0.00149384746328
         0.00149992841762
         0.001506034052
         0.00151216459926
         0.00151832017582
         0.00152450078167
         0.00153070641682
         0.00153693754692
         0.00154319370631
         0.00154947570991
         0.00155578309204
         0.00156211608555
         0.00156847492326
         0.00157485972159
         0.00158127036411
         0.00158770720009
         0.00159417034592
         0.00160065956879
         0.00160717533436
         0.00161371764261
         0.00162028649356
         0.00162688223645
         0.00163350463845
         0.00164015416522
         0.00164683058392
         0.00165353436023
         0.00166026526131
