OFX Video Plug-Ins/Vfx1.ofx.bundle/Contents/Resources/AutoLooks/13.cube
LUT_3D_SIZE 6
0.000000 0.000000 0.000000
0.155266 0.013659 0.014062
0.403744 0.029259 0.030108
0.688804 0.044403 0.045672
0.924836 0.046952 0.048296
1.064447 0.095278 0.097856
0.020857 0.138757 0.021142
0.156465 0.139107 0.023826
0.405012 0.181517 0.035653
0.689700 0.207828 0.049134
0.925384 0.209795 0.050257
1.064922 0.205862 0.100512
0.043422 0.365159 0.044004
0.207193 0.365685 0.045224
0.410186 0.365847 0.049837
0.693180 0.414589 0.061349
0.927654 0.417193 0.057854
1.066952 0.389997 0.111283
0.068406 0.626654 0.069305
0.239125 0.626993 0.070060
0.470020 0.628451 0.073182
0.699505 0.627134 0.076316
0.932352 0.628713 0.070816
1.071121 0.582507 0.131346
0.079292 0.845193 0.080322
0.243578 0.845497 0.080790
0.475258 0.846437 0.082771
0.709809 0.848369 0.086634
0.938861 0.844457 0.082710
1.077882 0.779434 0.158371
0.077733 0.975894 0.078744
0.225928 0.975967 0.079036
0.439188 0.976655 0.080282
0.655261 0.977889 0.082750
0.872211 0.979983 0.086592
1.087761 0.981057 0.180866
0.007348 0.007236 0.127128
0.155350 0.014738 0.127494
0.403827 0.029694 0.166852
0.688876 0.044650 0.191580
0.924909 0.047083 0.193699
1.064487 0.095434 0.192476
0.021519 0.138857 0.128386
0.162347 0.138653 0.121042
0.422016 0.100277 0.073518
0.696958 0.092947 0.065875
0.928135 0.087808 0.058287
1.064960 0.126005 0.113696
0.043674 0.365288 0.170642
0.124022 0.370923 0.067415
0.414676 0.367437 0.069482
0.696910 0.396107 0.074564
0.929608 0.391622 0.065058
1.067046 0.366861 0.123814
0.068560 0.626761 0.198388
0.126910 0.629052 0.080640
0.451206 0.630273 0.083239
0.701238 0.627451 0.085270
0.933354 0.620044 0.077222
1.071247 0.572204 0.143031
0.079387 0.845267 0.203096
0.129332 0.846303 0.086844
0.448982 0.847201 0.088722
0.701889 0.849072 0.092365
0.939373 0.844126 0.087564
1.078104 0.775370 0.169478
0.077795 0.975957 0.188913
0.126983 0.976405 0.083335
0.413358 0.976947 0.084547
0.644318 0.978144 0.086968
0.868417 0.980127 0.090729
1.088164 0.980896 0.189775
0.015521 0.015285 0.328952
0.202121 0.020026 0.329603
0.404130 0.031383 0.330871
0.689147 0.045678 0.377469
0.924931 0.047646 0.381049
1.064630 0.096085 0.356832
0.025699 0.180483 0.330710
0.127308 0.092318 0.370655
0.423486 0.077186 0.340116
0.698800 0.069170 0.359030
0.929093 0.059550 0.353311
1.065226 0.115069 0.331234
0.044728 0.365745 0.335906
0.078768 0.373727 0.337925
0.436284 0.361773 0.295663
0.744099 0.282632 0.208464
0.958910 0.235752 0.144949
1.069666 0.276959 0.225297
0.069218 0.627052 0.384344
0.086829 0.630721 0.360287
0.336992 0.644655 0.164583
0.714136 0.627101 0.160533
0.947653 0.583297 0.143903
1.073978 0.539139 0.240506
0.079794 0.845478 0.389448
0.090163 0.847089 0.357435
0.311878 0.854763 0.143574
0.673951 0.854757 0.145007
0.943648 0.840672 0.133079
1.080907 0.763186 0.263754
0.078047 0.975994 0.360408
0.085420 0.976669 0.326528
0.301021 0.980499 0.126822
0.608212 0.981006 0.128529
0.859558 0.981908 0.131284
1.091904 0.980213 0.264761
0.024789 0.024413 0.560631
0.230963 0.027645 0.561046
0.461411 0.037599 0.562821
0.689630 0.047601 0.562817
0.925319 0.048712 0.567875
1.064974 0.097332 0.526810
0.032414 0.205966 0.561712
0.110438 0.075159 0.594772
0.454045 0.069977 0.578309
0.697949 0.069163 0.566660
0.929106 0.060125 0.559270
1.065577 0.115888 0.515282
0.051106 0.414682 0.566379
0.078980 0.398882 0.575876
0.360639 0.257054 0.639927
0.751094 0.225908 0.578419
0.967810 0.165568 0.511429
1.070814 0.246489 0.464278
0.070521 0.627629 0.571759
0.087723 0.631078 0.572610
0.222866 0.651130 0.561326
0.736512 0.620248 0.513431
0.975765 0.546337 0.447539
1.080858 0.549624 0.473757
0.080617 0.845883 0.578073
0.090900 0.847386 0.567395
0.184836 0.860228 0.488863
0.629967 0.869487 0.339484
0.961113 0.830950 0.324514
1.087179 0.768365 0.490180
0.078561 0.976393 0.534640
0.085906 0.976931 0.519869
0.160127 0.983612 0.414667
0.581653 0.992190 0.291005
0.866296 0.988232 0.288596
1.100896 0.978642 0.462956
0.029599 0.029156 0.751991
0.233760 0.031187 0.752206
0.466046 0.038295 0.753460
0.699001 0.048781 0.755890
0.925814 0.050286 0.753055
1.065498 0.099213 0.696713
0.034627 0.208372 0.752771
0.099915 0.061229 0.773531
0.446020 0.061719 0.766098
0.697252 0.066277 0.762628
0.929157 0.060938 0.753701
1.066080 0.117046 0.691731
0.049309 0.417553 0.755823
0.071062 0.392046 0.765000
0.322662 0.222668 0.846071
0.713357 0.191906 0.811219
0.962066 0.155769 0.760458
1.071499 0.242643 0.669020
0.067922 0.631706 0.762032
0.082501 0.625224 0.765395
0.211449 0.600052 0.799194
0.698252 0.538658 0.827276
0.976274 0.518630 0.737454
1.083007 0.534733 0.661983
0.081908 0.846542 0.765723
0.092035 0.847992 0.765475
0.184625 0.859601 0.760547
0.564834 0.874302 0.716741
0.968362 0.833819 0.708780
1.089669 0.825627 0.734729
0.079374 0.976776 0.708088
0.086681 0.977280 0.701989
0.160450 0.983588 0.662517
0.544613 0.993418 0.594358
0.928673 0.990867 0.610610
1.105062 0.978579 0.713745
0.030234 0.029780 0.866221
0.216185 0.031020 0.866407
0.430533 0.035692 0.867226
0.645009 0.043217 0.868929
0.860277 0.052462 0.871486
1.066223 0.101576 0.866302
0.033385 0.192582 0.866774
0.094480 0.052435 0.880776
0.407786 0.053896 0.877319
0.638482 0.057820 0.875128
0.860821 0.064190 0.875239
1.066860 0.118407 0.865523
0.043719 0.384965 0.868949
0.061884 0.357018 0.877356
0.299177 0.200120 0.942565
0.635503 0.171186 0.927561
0.889375 0.158908 0.908019
1.072472 0.236594 0.858898
0.058101 0.580575 0.873089
0.071134 0.569899 0.876749
0.194901 0.524640 0.921423
0.645383 0.505732 0.943429
0.943685 0.480661 0.934878
1.085716 0.516646 0.849605
0.074420 0.780475 0.879591
0.084472 0.777452 0.881280
0.179638 0.773807 0.898299
0.576146 0.784534 0.929268
0.966148 0.827846 0.883168
1.089214 0.828741 0.869714
0.080518 0.977324 0.880992
0.087769 0.977848 0.880289
0.160928 0.983495 0.873420
0.534307 0.993222 0.853217
0.928237 0.988787 0.837052
1.099044 0.980694 0.873478
