OFX Video Plug-Ins/Vfx1.ofx.bundle/Contents/Resources/AutoLooks/13.cube
LUT_3D_SIZE 16
0.000000 0.000000 0.000000
0.032829 0.003084 0.003176
0.087763 0.008082 0.008322
0.155266 0.013659 0.014062
0.231473 0.018678 0.019227
0.314510 0.023217 0.023900
0.403744 0.029259 0.030108
0.498114 0.035151 0.036166
0.595969 0.040439 0.041604
0.688804 0.044403 0.045672
0.774931 0.046837 0.048172
0.853962 0.047681 0.049043
0.924836 0.046952 0.048296
0.986436 0.044781 0.046058
1.033109 0.092011 0.094516
1.064447 0.095278 0.097856
0.004663 0.029195 0.004728
0.032957 0.029251 0.005404
0.087846 0.039426 0.009831
0.155351 0.047110 0.015105
0.231587 0.053377 0.019953
0.314606 0.058772 0.024440
0.403776 0.064248 0.030555
0.498198 0.069514 0.036537
0.596018 0.074314 0.041908
0.688880 0.077662 0.045927
0.775005 0.079556 0.048389
0.853970 0.080097 0.049223
0.924914 0.079349 0.048438
0.986510 0.077442 0.046182
1.033147 0.107632 0.094727
1.064483 0.109049 0.098051
0.012259 0.078187 0.012430
0.044793 0.078222 0.012791
0.088195 0.078349 0.014160
0.155737 0.092715 0.018732
0.232021 0.103984 0.022734
0.315074 0.113323 0.026583
0.404164 0.121813 0.032359
0.498519 0.129533 0.038062
0.596325 0.136346 0.043210
0.689168 0.140746 0.047011
0.775287 0.142986 0.049296
0.854236 0.143461 0.049965
0.924954 0.142389 0.049045
0.986581 0.139879 0.046673
1.033309 0.153455 0.095642
1.064611 0.151022 0.098863
0.020857 0.138757 0.021142
0.054336 0.138789 0.021385
0.104899 0.138935 0.022356
0.156465 0.139107 0.023826
0.232970 0.155839 0.027256
0.316028 0.169487 0.030329
0.405012 0.181517 0.035653
0.499203 0.192355 0.040939
0.596923 0.201870 0.045690
0.689700 0.207828 0.049134
0.775665 0.210779 0.051065
0.854577 0.211311 0.051444
0.925384 0.209795 0.050257
0.987041 0.206382 0.047655
1.033621 0.211795 0.097483
1.064922 0.205862 0.100512
0.028688 0.207913 0.029079
0.062632 0.207955 0.029241
0.118524 0.208131 0.029909
0.176374 0.208480 0.031199
0.234347 0.208547 0.032086
0.317557 0.226587 0.035269
0.406252 0.242157 0.040202
0.500279 0.256173 0.045037
0.597896 0.268448 0.049343
0.690503 0.276117 0.052292
0.776423 0.279815 0.053758
0.855190 0.280420 0.053701
0.925862 0.278412 0.052127
0.987409 0.273945 0.049186
1.034148 0.274481 0.100371
1.065393 0.265489 0.103074
0.034944 0.283915 0.035417
0.069712 0.283976 0.035530
0.130015 0.284170 0.035990
0.192945 0.284554 0.036902
0.256716 0.285163 0.038286
0.319522 0.284634 0.039465
0.408026 0.303611 0.045684
0.501799 0.320714 0.050140
0.599170 0.335745 0.053981
0.691702 0.345028 0.056414
0.777337 0.349495 0.057327
0.856091 0.350123 0.056734
0.926671 0.347558 0.054668
0.988144 0.342015 0.051281
1.034880 0.339078 0.104381
1.066076 0.327176 0.106661
0.043422 0.365159 0.044004
0.077170 0.365210 0.044095
0.140314 0.365408 0.044474
0.207193 0.365685 0.045224
0.275095 0.366251 0.046395
0.343517 0.366949 0.047967
0.410186 0.365847 0.049837
0.503721 0.385988 0.055760
0.600908 0.403692 0.059451
0.693180 0.414589 0.061349
0.778659 0.419673 0.061681
0.857232 0.420337 0.060487
0.927654 0.417193 0.057854
0.989136 0.410475 0.053948
1.035843 0.404752 0.109528
1.066952 0.389997 0.111283
0.052595 0.451315 0.053295
0.084879 0.451345 0.053366
0.149955 0.451510 0.053678
0.220125 0.451781 0.054329
0.291589 0.452234 0.055326
0.363635 0.452895 0.056699
0.436108 0.453702 0.058439
0.505973 0.452039 0.059978
0.602960 0.472329 0.065008
0.695005 0.484763 0.066974
0.780386 0.490448 0.066713
0.858735 0.491011 0.064892
0.928903 0.487190 0.061641
0.990169 0.479258 0.057144
1.037065 0.471082 0.115809
1.068077 0.453557 0.116941
0.061254 0.541059 0.062062
0.092282 0.541111 0.062128
0.158699 0.541223 0.062403
0.231603 0.541491 0.062952
0.306097 0.541829 0.063818
0.381307 0.542459 0.065017
0.456907 0.543202 0.066551
0.532836 0.544087 0.068416
0.605326 0.541685 0.069212
0.697134 0.555558 0.072252
0.782380 0.561897 0.072345
0.860389 0.562261 0.069878
0.930560 0.557715 0.065971
0.991491 0.548492 0.060848
1.038561 0.538066 0.123208
1.069485 0.517761 0.123652
0.068406 0.626654 0.069305
0.098080 0.626740 0.069363
0.164771 0.626824 0.069593
0.239125 0.626993 0.070060
0.315450 0.627364 0.070810
0.392562 0.627804 0.071840
0.470020 0.628451 0.073182
0.547781 0.629281 0.074828
0.625838 0.630257 0.076764
0.699505 0.627134 0.076316
0.784408 0.633852 0.077149
0.862406 0.634112 0.075392
0.932352 0.628713 0.070816
0.993186 0.618185 0.065033
1.040351 0.605619 0.131692
1.071121 0.582507 0.131346
0.073806 0.706241 0.074765
0.102204 0.706270 0.074811
0.168443 0.706438 0.075008
0.243245 0.706559 0.075411
0.320358 0.706941 0.076055
0.398265 0.707213 0.076945
0.476606 0.707772 0.078109
0.555222 0.708494 0.079538
0.634023 0.709398 0.081238
0.713164 0.710407 0.083204
0.786900 0.706434 0.080970
0.864513 0.706251 0.079591
0.934370 0.700162 0.076108
0.994897 0.688271 0.069664
1.042458 0.673666 0.141216
1.073079 0.647676 0.140036
0.077417 0.779533 0.078426
0.104698 0.779560 0.078467
0.170020 0.779652 0.078635
0.244606 0.779864 0.078978
0.321699 0.779977 0.079525
0.399723 0.780468 0.080290
0.478098 0.780862 0.081289
0.556697 0.781444 0.082526
0.635559 0.782261 0.084020
0.714696 0.783075 0.085738
0.793293 0.783543 0.087150
0.866968 0.779252 0.083088
0.936439 0.772200 0.079597
0.996904 0.758856 0.074406
1.044908 0.742251 0.151798
1.075293 0.713294 0.149706
0.079292 0.845193 0.080322
0.105607 0.845219 0.080352
0.169766 0.845331 0.080497
0.243578 0.845497 0.080790
0.320020 0.845750 0.081257
0.397406 0.845994 0.081910
0.475258 0.846437 0.082771
0.553292 0.846989 0.083841
0.631506 0.847614 0.085130
0.709809 0.848369 0.086634
0.788342 0.849346 0.088353
0.866035 0.849129 0.088848
0.938861 0.844457 0.082710
0.999078 0.829566 0.077368
1.047696 0.811052 0.158793
1.077882 0.779434 0.158371
0.079612 0.902457 0.080640
0.105057 0.902483 0.080668
0.167793 0.902592 0.080791
0.240311 0.902737 0.081041
0.315505 0.902982 0.081436
0.391696 0.903167 0.081998
0.468316 0.903520 0.082739
0.545124 0.904002 0.083650
0.622102 0.904654 0.084763
0.699149 0.905233 0.086063
0.776399 0.905997 0.087564
0.853932 0.906947 0.089257
0.929689 0.906039 0.088488
1.000020 0.901139 0.145059
1.050909 0.880698 0.163336
1.080811 0.845983 0.163472
0.078786 0.948503 0.079806
0.103270 0.948528 0.079832
0.164151 0.948518 0.079929
0.234762 0.948613 0.080144
0.308082 0.948726 0.080489
0.382362 0.948989 0.080961
0.457124 0.949375 0.081597
0.532040 0.949750 0.082388
0.607060 0.950204 0.083345
0.682192 0.950838 0.084473
0.757470 0.951505 0.085771
0.832974 0.952263 0.087240
0.908540 0.953084 0.088884
0.982124 0.951559 0.086497
1.054465 0.950951 0.173861
1.084125 0.913103 0.169488
0.077733 0.975894 0.078744
0.100605 0.975916 0.078765
0.158395 0.976014 0.078849
0.225928 0.975967 0.079036
0.296180 0.976185 0.079323
0.367492 0.976466 0.079733
0.439188 0.976655 0.080282
0.511070 0.977050 0.080955
0.583112 0.977456 0.081780
0.655261 0.977889 0.082750
0.727401 0.978590 0.083876
0.799805 0.979204 0.085157
0.872211 0.979983 0.086592
0.945056 0.980845 0.088177
1.014807 0.979596 0.176558
1.087761 0.981057 0.180866
0.001697 0.001671 0.026917
0.032839 0.003351 0.026982
0.087770 0.008213 0.036445
0.155267 0.013744 0.043708
0.231490 0.018733 0.049718
0.314523 0.023257 0.054939
0.403719 0.029291 0.060384
0.498122 0.035174 0.065662
0.595973 0.040459 0.070500
0.688809 0.044414 0.073931
0.774936 0.046851 0.075908
0.853967 0.047697 0.076497
0.924841 0.046966 0.075769
0.986442 0.044789 0.073840
1.033112 0.092019 0.107082
1.064450 0.095292 0.108912
0.004799 0.029209 0.027090
0.033753 0.029101 0.025924
0.091575 0.024418 0.020471
0.157524 0.023868 0.020198
0.232776 0.025509 0.022499
0.315311 0.028136 0.025802
0.404259 0.032925 0.031429
0.498496 0.037979 0.037110
0.596242 0.042715 0.042299
0.689067 0.046327 0.046194
0.775112 0.048551 0.048583
0.854076 0.049275 0.049356
0.924842 0.048502 0.048545
0.986551 0.046358 0.046253
1.033118 0.092911 0.094903
1.064461 0.096154 0.098256
0.012334 0.078197 0.037171
0.028806 0.078823 0.020299
0.088689 0.078404 0.020744
0.156723 0.088874 0.022626
0.232841 0.097850 0.024908
0.315642 0.105724 0.027825
0.404614 0.113222 0.033183
0.498768 0.120190 0.038620
0.596522 0.126401 0.043591
0.689234 0.130432 0.047281
0.775407 0.132481 0.049485
0.854292 0.132883 0.050102
0.925025 0.131834 0.049148
0.986620 0.129419 0.046748
1.033280 0.145081 0.095828
1.064614 0.143288 0.099069
0.020907 0.138764 0.045758
0.031392 0.139149 0.024749
0.100652 0.139191 0.025557
0.156767 0.139189 0.026715
0.233410 0.153873 0.029044
0.316453 0.166234 0.031421
0.405318 0.177430 0.036411
0.499411 0.187644 0.041458
0.597102 0.196666 0.046059
0.689838 0.202325 0.049390
0.775765 0.205090 0.051257
0.854669 0.205535 0.051582
0.925355 0.204002 0.050361
0.986925 0.200604 0.047728
1.033593 0.206619 0.097673
1.064901 0.200999 0.100711
0.028722 0.207929 0.053469
0.035957 0.208209 0.030919
0.111812 0.208365 0.031553
0.174243 0.208680 0.032769
0.234599 0.208633 0.033496
0.317804 0.225384 0.036232
0.406440 0.240092 0.040890
0.500456 0.253521 0.045541
0.598005 0.265351 0.049685
0.690582 0.272724 0.052548
0.776507 0.276235 0.053947
0.855201 0.276722 0.053840
0.925919 0.274654 0.052234
0.987445 0.270204 0.049268
1.034121 0.271018 0.100567
1.065372 0.262167 0.103294
0.034967 0.283944 0.060061
0.040423 0.284153 0.036410
0.121698 0.284340 0.036861
0.189375 0.284713 0.037751
0.255470 0.285307 0.039095
0.319689 0.284719 0.040229
0.408157 0.302766 0.046324
0.501910 0.319261 0.050617
0.599270 0.333872 0.054325
0.691740 0.342874 0.056661
0.777401 0.347115 0.057516
0.856159 0.347603 0.056871
0.926720 0.344978 0.054775
0.988170 0.339387 0.051369
1.034854 0.336615 0.104581
1.066056 0.324770 0.106870
0.043440 0.365175 0.067461
0.047562 0.365344 0.044672
0.130940 0.365500 0.045041
0.202665 0.365831 0.045795
0.272855 0.366312 0.046944
0.342707 0.367085 0.048507
0.410243 0.365928 0.050368
0.503832 0.385415 0.056214
0.600968 0.402637 0.059782
0.693219 0.413200 0.061597
0.778727 0.418082 0.061862
0.857216 0.418575 0.060629
0.927693 0.415290 0.057961
0.989006 0.408493 0.054027
1.035819 0.402884 0.109725
1.066934 0.388184 0.111497
0.052599 0.451324 0.075334
0.055796 0.451429 0.053767
0.139818 0.451564 0.054087
0.214915 0.451869 0.054728
0.288670 0.452319 0.055727
0.362038 0.452954 0.057092
0.435522 0.453794 0.058824
0.506069 0.452080 0.060364
0.603026 0.471858 0.065341
0.695072 0.483924 0.067219
0.780441 0.489413 0.066902
0.858703 0.489764 0.065037
0.928935 0.485878 0.061749
0.990183 0.477867 0.057229
1.037043 0.469681 0.116010
1.068060 0.452176 0.117154
0.061267 0.541070 0.082951
0.063844 0.541141 0.062426
0.147997 0.541252 0.062701
0.225884 0.541519 0.063251
0.302733 0.541902 0.064115
0.379273 0.542482 0.065312
0.455785 0.543225 0.066846
0.532342 0.544106 0.068706
0.605385 0.541718 0.069499
0.697191 0.555202 0.072509
0.782404 0.561243 0.072536
0.860427 0.561437 0.070024
0.930505 0.556776 0.066091
0.991503 0.547452 0.060938
1.038541 0.537040 0.123415
1.069469 0.516738 0.123857
0.068419 0.626660 0.089077
0.070607 0.626749 0.069584
0.153756 0.626826 0.069815
0.233077 0.627060 0.070286
0.311729 0.627401 0.071031
0.390152 0.627841 0.072071
0.468535 0.628458 0.073407
0.546930 0.629316 0.075057
0.625486 0.630293 0.076988
0.699556 0.627143 0.076532
0.784450 0.633554 0.077349
0.862439 0.633579 0.075543
0.932302 0.628073 0.070937
0.993195 0.617441 0.065129
1.040350 0.604828 0.131889
1.071108 0.581682 0.131560
0.073810 0.706247 0.093526
0.075761 0.706404 0.074989
0.157272 0.706470 0.075200
0.237025 0.706591 0.075598
0.316442 0.706905 0.076234
0.395658 0.707274 0.077130
0.474880 0.707835 0.078287
0.554077 0.708555 0.079720
0.633443 0.709390 0.081427
0.712829 0.710414 0.083389
0.786939 0.706436 0.081142
0.864544 0.706037 0.079738
0.934366 0.699798 0.076250
0.994906 0.687742 0.069757
1.042444 0.673048 0.141431
1.073068 0.647034 0.140254
0.077425 0.779539 0.096352
0.079225 0.779581 0.078612
0.158893 0.779673 0.078783
0.238308 0.779885 0.079127
0.317640 0.779998 0.079673
0.396951 0.780489 0.080446
0.476177 0.780883 0.081435
0.555380 0.781465 0.082686
0.634722 0.782283 0.084167
0.714165 0.783097 0.085894
0.793107 0.783588 0.087328
0.866998 0.779246 0.083240
0.936459 0.771956 0.079722
0.996914 0.758524 0.074517
1.044899 0.741791 0.152019
1.075286 0.712892 0.149940
0.079302 0.845198 0.097562
0.081004 0.845233 0.080476
0.158746 0.845345 0.080622
0.237295 0.845511 0.080910
0.315959 0.845764 0.081381
0.394542 0.846008 0.082037
0.473202 0.846451 0.082899
0.551788 0.847003 0.083964
0.630472 0.847628 0.085250
0.709184 0.848384 0.086747
0.788019 0.849362 0.088474
0.865973 0.849112 0.089002
0.938882 0.844480 0.082826
0.999088 0.829442 0.077476
1.047691 0.810883 0.159039
1.077878 0.779133 0.158617
0.079616 0.902462 0.097284
0.081286 0.902490 0.080778
0.156976 0.902599 0.080899
0.234081 0.902744 0.081150
0.311472 0.902990 0.081545
0.388830 0.903175 0.082103
0.466233 0.903528 0.082843
0.543590 0.904009 0.083769
0.620961 0.904575 0.084876
0.698384 0.905242 0.086184
0.775862 0.906006 0.087679
0.853653 0.906957 0.089367
0.929602 0.906005 0.088620
1.000020 0.901116 0.145348
1.050910 0.880586 0.163558
1.080811 0.845815 0.163707
0.078791 0.948508 0.095805
0.080466 0.948529 0.079923
0.153638 0.948519 0.080022
0.228676 0.948614 0.080244
0.304087 0.948728 0.080582
0.379555 0.948991 0.081060
0.455045 0.949377 0.081696
0.530426 0.949752 0.082485
0.605905 0.950206 0.083439
0.681317 0.950841 0.084566
0.756818 0.951508 0.085867
0.832468 0.952266 0.087339
0.908232 0.953088 0.088999
0.981949 0.951574 0.086610
1.054472 0.950940 0.174105
1.084130 0.913008 0.169665
0.077741 0.975898 0.093638
0.079435 0.975915 0.078849
0.148431 0.976013 0.078941
0.220127 0.975966 0.079127
0.292335 0.976185 0.079413
0.364737 0.976465 0.079833
0.437154 0.976654 0.080369
0.509555 0.977050 0.081052
0.581938 0.977455 0.081874
0.654333 0.977889 0.082849
0.726782 0.978590 0.083967
0.799237 0.979205 0.085244
0.871892 0.979984 0.086678
0.944826 0.980847 0.088271
1.014709 0.979588 0.176772
1.087771 0.981053 0.181085
0.004288 0.004222 0.071928
0.043975 0.005530 0.071968
0.087800 0.008714 0.072110
0.155308 0.014090 0.085364
0.231526 0.018965 0.095822
0.314551 0.023421 0.104577
0.403758 0.029427 0.112593
0.498119 0.035289 0.119917
0.595993 0.040553 0.126402
0.688831 0.044493 0.130638
0.774958 0.046914 0.132849
0.853989 0.047747 0.133374
0.924863 0.047006 0.132400
0.986464 0.044826 0.130023
1.033124 0.092074 0.146044
1.064462 0.095339 0.144357
0.007112 0.039134 0.072027
0.031897 0.026842 0.079089
0.091811 0.022306 0.074453
0.157942 0.021249 0.081933
0.233113 0.022852 0.089724
0.315511 0.025699 0.096974
0.404432 0.031006 0.104123
0.498620 0.036424 0.110795
0.596334 0.041391 0.116770
0.689119 0.045121 0.120695
0.775191 0.047399 0.122746
0.854147 0.048126 0.123185
0.924905 0.047297 0.122197
0.986608 0.045050 0.119890
1.033132 0.092562 0.138347
1.064475 0.095818 0.137252
0.012645 0.078225 0.072444
0.024496 0.079008 0.072434
0.090624 0.078003 0.069127
0.166825 0.069244 0.058216
0.242166 0.060217 0.047193
0.322151 0.055682 0.041565
0.409199 0.056097 0.042931
0.502093 0.057657 0.045653
0.598875 0.059625 0.048706
0.691045 0.061247 0.051116
0.776621 0.062124 0.052411
0.855155 0.062019 0.052360
0.925638 0.060879 0.050882
0.987085 0.058810 0.048071
1.033209 0.101157 0.098793
1.064591 0.104117 0.102038
0.021115 0.138791 0.086417
0.026733 0.139390 0.081572
0.078562 0.141573 0.052810
0.159268 0.139591 0.050788
0.238185 0.145852 0.046367
0.320726 0.151914 0.042937
0.408774 0.158957 0.045019
0.502103 0.166069 0.047896
0.599087 0.172678 0.050862
0.691304 0.176775 0.053042
0.776845 0.178613 0.054075
0.855447 0.178606 0.053767
0.925933 0.176928 0.052061
0.987328 0.173750 0.049048
1.033524 0.183818 0.100601
1.064878 0.179779 0.103642
0.028859 0.207961 0.097966
0.031768 0.208416 0.091017
0.073458 0.210636 0.046515
0.166067 0.210428 0.046857
0.236687 0.209338 0.045788
0.320523 0.220785 0.045823
0.408890 0.231698 0.048349
0.502473 0.242410 0.051295
0.599563 0.252181 0.054097
0.691810 0.258129 0.055969
0.777353 0.260756 0.056636
0.855934 0.260709 0.055952
0.926440 0.258386 0.053889
0.987869 0.253917 0.050561
1.034055 0.256380 0.103451
1.065352 0.248359 0.106185
0.035064 0.283981 0.107744
0.036629 0.284328 0.099525
0.072030 0.286187 0.045109
0.174177 0.286397 0.045690
0.251244 0.286776 0.046588
0.321296 0.285357 0.047093
0.409850 0.299726 0.052814
0.503424 0.313563 0.055741
0.600563 0.326154 0.058342
0.692786 0.333781 0.059842
0.778246 0.337077 0.060048
0.856724 0.336992 0.058893
0.927182 0.334009 0.056387
0.988384 0.328268 0.052633
1.034775 0.326332 0.107404
1.066039 0.315000 0.109714
0.043515 0.365217 0.116833
0.044569 0.365455 0.107906
0.074580 0.366805 0.050705
0.182894 0.366997 0.051320
0.264055 0.367421 0.052274
0.340073 0.368085 0.053582
0.411323 0.366311 0.055262
0.504934 0.383157 0.060854
0.601905 0.398375 0.063451
0.693965 0.407478 0.064548
0.779398 0.411422 0.064250
0.857792 0.411260 0.062555
0.928050 0.407487 0.059513
0.989282 0.400548 0.055272
1.035745 0.395323 0.112490
1.066922 0.380926 0.114284
0.052669 0.451349 0.125562
0.053434 0.451546 0.116201
0.078876 0.452483 0.058263
0.191844 0.452728 0.058835
0.276772 0.453132 0.059736
0.356234 0.453714 0.060974
0.433674 0.454491 0.062559
0.506805 0.452354 0.063957
0.603703 0.470095 0.068700
0.695665 0.480671 0.069979
0.780908 0.485118 0.069150
0.859129 0.484761 0.066875
0.929330 0.480283 0.063246
0.990363 0.471998 0.058440
1.036995 0.463983 0.118704
1.068053 0.446651 0.119884
0.061325 0.541115 0.133607
0.061896 0.541234 0.123951
0.083775 0.541919 0.065843
0.200353 0.542148 0.066362
0.288578 0.542526 0.067177
0.371119 0.543108 0.068310
0.451544 0.543749 0.069757
0.531004 0.544598 0.071529
0.605922 0.541911 0.072192
0.697665 0.553759 0.075039
0.782763 0.558702 0.074672
0.860810 0.558025 0.071790
0.930741 0.552827 0.067544
0.991786 0.543174 0.062130
1.038502 0.532716 0.126051
1.069470 0.512436 0.126524
0.068463 0.626742 0.139406
0.068912 0.626812 0.129645
0.088268 0.627306 0.072277
0.206030 0.627470 0.072730
0.296090 0.627797 0.073449
0.380497 0.628255 0.074453
0.462637 0.628867 0.075739
0.543703 0.629668 0.077333
0.624433 0.630616 0.079211
0.700050 0.627201 0.078634
0.784868 0.632375 0.079322
0.862760 0.631538 0.077250
0.932565 0.625370 0.072353
0.993251 0.614306 0.066299
1.040322 0.601542 0.134476
1.071116 0.578379 0.134165
0.073852 0.706272 0.143102
0.074216 0.706466 0.133328
0.091838 0.706669 0.077174
0.209146 0.706973 0.077568
0.299863 0.707237 0.078188
0.385011 0.707645 0.079059
0.467874 0.708182 0.080200
0.549671 0.708874 0.081598
0.630961 0.709704 0.083266
0.712152 0.710575 0.085195
0.787207 0.706454 0.082816
0.864744 0.705076 0.081331
0.934559 0.698088 0.077640
0.995089 0.685522 0.070924
1.042430 0.670606 0.143974
1.073087 0.644564 0.142825
0.077463 0.779562 0.144939
0.077759 0.779611 0.135250
0.094289 0.779860 0.080417
0.210102 0.779970 0.080751
0.300611 0.780300 0.081287
0.385690 0.780558 0.082042
0.468476 0.781060 0.083028
0.550138 0.781730 0.084251
0.631319 0.782429 0.085717
0.712178 0.783252 0.087421
0.792512 0.783751 0.088871
0.867226 0.779188 0.084598
0.936540 0.771023 0.081007
0.997055 0.757172 0.075696
1.044899 0.740174 0.154527
1.075315 0.711082 0.152454
0.079329 0.845221 0.145080
0.079583 0.845280 0.135490
0.095440 0.845507 0.081991
0.209147 0.845670 0.082278
0.298737 0.845930 0.082740
0.383006 0.846203 0.083389
0.465070 0.846651 0.084241
0.546053 0.847192 0.085293
0.626475 0.847792 0.086583
0.706534 0.848534 0.088066
0.786490 0.849449 0.089777
0.865405 0.849330 0.090304
0.939006 0.844393 0.083941
0.999159 0.828744 0.078544
1.047709 0.809672 0.161492
1.077920 0.777869 0.161157
0.079641 0.902485 0.143614
0.079853 0.902531 0.134177
0.095462 0.902726 0.082067
0.206387 0.902835 0.082319
0.294325 0.902985 0.082717
0.377151 0.903312 0.083267
0.457891 0.903639 0.084000
0.537507 0.904110 0.084921
0.616545 0.904627 0.086015
0.695289 0.905323 0.087322
0.773767 0.906098 0.088803
0.852374 0.906928 0.090489
0.929202 0.906131 0.089758
1.000020 0.901032 0.148080
1.050952 0.880011 0.165754
1.080872 0.844985 0.166035
0.078811 0.948529 0.140663
0.078991 0.948569 0.131431
0.094635 0.948545 0.081066
0.201785 0.948727 0.081275
0.287354 0.948870 0.081614
0.368015 0.949127 0.082092
0.446659 0.949393 0.082726
0.524267 0.949762 0.083510
0.601249 0.950245 0.084466
0.677890 0.950957 0.085584
0.754355 0.951529 0.086876
0.830837 0.952278 0.088358
0.907295 0.953177 0.090000
0.981692 0.951528 0.087620
1.054516 0.950825 0.176201
1.084214 0.912548 0.171753
0.077756 0.975918 0.136057
0.077927 0.975946 0.127200
0.093703 0.976030 0.079901
0.194671 0.976082 0.080090
0.276424 0.976291 0.080377
0.353637 0.976551 0.080786
0.429056 0.976745 0.081331
0.503472 0.977144 0.082006
0.577311 0.977544 0.082822
0.650811 0.977980 0.083801
0.724007 0.978512 0.084918
0.797368 0.979278 0.086191
0.870558 0.980028 0.087618
0.944107 0.980898 0.089210
1.014398 0.979677 0.178847
1.087875 0.981013 0.183154
0.007348 0.007236 0.127128
0.051988 0.008193 0.127161
0.103667 0.011162 0.127326
0.155350 0.014738 0.127494
0.231576 0.019408 0.142827
0.314596 0.023745 0.155523
0.403827 0.029694 0.166852
0.498192 0.035513 0.177012
0.596015 0.040736 0.185935
0.688876 0.044650 0.191580
0.775001 0.047042 0.194444
0.853966 0.047853 0.195014
0.924909 0.047083 0.193699
0.986506 0.044888 0.190556
1.033150 0.092185 0.197455
1.064487 0.095434 0.192476
0.009612 0.046300 0.127228
0.027960 0.022382 0.135999
0.102426 0.021073 0.131353
0.157669 0.021482 0.128904
0.233064 0.023161 0.141283
0.315544 0.025970 0.152449
0.404420 0.031248 0.162883
0.498640 0.036637 0.172462
0.596399 0.041569 0.180884
0.689161 0.045275 0.186269
0.775232 0.047525 0.188926
0.854190 0.048226 0.189449
0.924851 0.047376 0.188054
0.986496 0.045112 0.184948
1.033158 0.092690 0.192616
1.064500 0.095911 0.187889
0.015250 0.092392 0.127623
0.023976 0.089292 0.129865
0.087719 0.074061 0.138494
0.167851 0.064558 0.133153
0.244221 0.051796 0.133650
0.323945 0.044501 0.136661
0.410588 0.044932 0.142623
0.503163 0.046870 0.149145
0.599698 0.049286 0.155369
0.691539 0.051216 0.159287
0.777032 0.052151 0.161039
0.855480 0.051848 0.160998
0.925825 0.050215 0.159366
0.987204 0.047321 0.156218
1.033248 0.097390 0.169377
1.064614 0.100519 0.166038
0.021519 0.138857 0.128386
0.027013 0.139372 0.128501
0.069097 0.142314 0.127661
0.162347 0.138653 0.121042
0.253408 0.123201 0.100683
0.336896 0.106901 0.080497
0.422016 0.100277 0.073518
0.512309 0.096561 0.069629
0.606721 0.094406 0.067425
0.696958 0.092947 0.065875
0.781130 0.091569 0.064133
0.858500 0.089893 0.061683
0.928135 0.087808 0.058287
0.988853 0.085373 0.053928
1.033488 0.123553 0.110691
1.064960 0.126005 0.113696
0.029140 0.208036 0.144753
0.032012 0.208456 0.142483
0.055700 0.212019 0.128101
0.141224 0.214854 0.086506
0.242119 0.209771 0.080917
0.329612 0.210239 0.075802
0.417591 0.212681 0.072379
0.509910 0.216938 0.070402
0.605599 0.221717 0.069127
0.696578 0.224368 0.067889
0.781065 0.224855 0.066135
0.858701 0.223609 0.063531
0.928465 0.220729 0.059916
0.989123 0.216362 0.055329
1.034025 0.224805 0.113382
1.065463 0.219173 0.116098
0.035256 0.284038 0.158541
0.036810 0.284398 0.154960
0.050087 0.287507 0.133377
0.127462 0.291252 0.067489
0.242041 0.290800 0.067010
0.325822 0.286548 0.065768
0.415446 0.293670 0.073276
0.508656 0.301790 0.072477
0.605097 0.310049 0.071839
0.696480 0.314553 0.070773
0.781236 0.315802 0.068929
0.859051 0.314355 0.066088
0.928897 0.310576 0.062175
0.989740 0.304591 0.057278
1.034753 0.305466 0.117143
1.066121 0.295475 0.119457
0.043674 0.365288 0.170642
0.044719 0.365544 0.166265
0.054086 0.367775 0.141203
0.124022 0.370923 0.067415
0.244465 0.370964 0.067729
0.335648 0.371102 0.068244
0.414676 0.367437 0.069482
0.508597 0.378973 0.075845
0.605311 0.389977 0.075600
0.696910 0.396107 0.074564
0.781863 0.397897 0.072512
0.859691 0.396221 0.069345
0.929608 0.391622 0.065058
0.990398 0.384175 0.059769
1.035733 0.380426 0.122003
1.067046 0.366861 0.123814
0.052806 0.451405 0.181735
0.053563 0.451586 0.176847
0.060617 0.453258 0.149660
0.123999 0.455661 0.071428
0.250224 0.455856 0.071994
0.344598 0.456168 0.072787
0.430974 0.456695 0.073860
0.509198 0.453129 0.074857
