OFX Video Plug-Ins/Vfx1.ofx.bundle/Contents/Resources/AutoLooks/14.cube
LUT_3D_SIZE 16
0.000000 0.000000 0.000000
0.032394 -0.004372 -0.004372
0.089621 -0.012095 -0.012095
0.164377 -0.022186 -0.022186
0.256851 -0.034661 -0.034661
0.361705 -0.048808 -0.048808
0.471937 -0.063684 -0.063684
0.583236 -0.078704 -0.078704
0.690276 -0.093146 -0.093146
0.782372 -0.105567 -0.105567
0.855414 -0.115426 -0.115426
0.909707 -0.122756 -0.122756
0.950050 -0.128197 -0.128197
0.981005 -0.132379 -0.132379
1.005457 -0.135676 -0.135676
1.035520 -0.139737 -0.139737
-0.023273 0.065842 -0.023273
0.028073 0.065500 -0.020766
0.088622 0.084922 -0.018590
0.163775 0.093949 -0.028376
0.256502 0.096213 -0.039053
0.361439 0.093653 -0.051829
0.471775 0.086836 -0.065857
0.583133 0.074994 -0.080359
0.690169 0.054561 -0.094476
0.782278 -0.031365 -0.106692
0.855327 -0.064261 -0.116411
0.909624 -0.080457 -0.123637
0.949971 -0.091354 -0.129007
0.980930 -0.099676 -0.133112
1.005410 -0.106476 -0.136356
1.035477 -0.114200 -0.140345
-0.053727 0.152002 -0.053727
-0.032422 0.151774 -0.052323
0.083865 0.150865 -0.044246
0.162439 0.161266 -0.034505
0.255590 0.164900 -0.046360
0.360872 0.164616 -0.057822
0.471410 0.162000 -0.070482
0.582853 0.157690 -0.083993
0.689960 0.151903 -0.097433
0.782078 0.144817 -0.109212
0.855174 0.137221 -0.118638
0.909487 0.129759 -0.125667
0.949860 0.122450 -0.130904
0.980847 0.114888 -0.134900
1.005290 0.106685 -0.138041
1.035362 0.094849 -0.141912
-0.069808 0.197474 -0.069808
-0.052101 0.197254 -0.068505
0.091125 0.196337 -0.061164
0.161692 0.195077 -0.040696
0.254918 0.199194 -0.049859
0.360425 0.199667 -0.061641
0.471091 0.197995 -0.073748
0.582619 0.194974 -0.086682
0.689820 0.191007 -0.099682
0.781920 0.185930 -0.111144
0.855069 0.180420 -0.120364
0.909364 0.174929 -0.127256
0.949727 0.169564 -0.132375
0.980696 0.164104 -0.136287
1.005197 0.158446 -0.139358
1.035287 0.151136 -0.143153
-0.088407 0.250104 -0.088407
-0.075056 0.249930 -0.087367
0.084648 0.249123 -0.081631
0.169870 0.247596 -0.063385
0.253917 0.246811 -0.053528
0.359547 0.251443 -0.067359
0.470443 0.252092 -0.079486
0.582132 0.251266 -0.091797
0.689416 0.249868 -0.104188
0.781611 0.246399 -0.115090
0.854767 0.241409 -0.123848
0.909128 0.235307 -0.130343
0.949512 0.228255 -0.135110
0.980532 0.220160 -0.138686
1.005041 0.211084 -0.141439
1.035154 0.200197 -0.144891
-0.121634 0.344119 -0.121634
-0.113170 0.343995 -0.120939
-0.037434 0.343422 -0.117290
0.160693 0.342093 -0.106247
0.258565 0.340210 -0.078259
0.357727 0.339532 -0.074797
0.468857 0.342694 -0.089370
0.580904 0.343990 -0.101869
0.688414 0.344987 -0.113637
0.780779 0.342789 -0.123705
0.854074 0.337909 -0.131652
0.908562 0.330778 -0.137430
0.948945 0.321674 -0.141520
0.980005 0.310311 -0.144421
1.004638 0.296802 -0.146462
1.034805 0.280470 -0.149133
-0.160506 0.454060 -0.160506
-0.154774 0.453965 -0.160022
-0.120599 0.453569 -0.157573
0.127562 0.452574 -0.150501
0.249913 0.450692 -0.132318
0.359455 0.448689 -0.097005
0.466651 0.448044 -0.097953
0.578886 0.450736 -0.113076
0.686699 0.453111 -0.125677
0.779336 0.451674 -0.135552
0.852852 0.446884 -0.142953
0.907382 0.439136 -0.148080
0.948031 0.428709 -0.151498
0.979147 0.415192 -0.153656
1.003879 0.398721 -0.154897
1.034171 0.378365 -0.156528
-0.197130 0.557668 -0.197130
-0.192815 0.557639 -0.196764
-0.169064 0.557323 -0.194926
-0.034973 0.556502 -0.189745
0.230704 0.554899 -0.176909
0.354571 0.552598 -0.149332
0.468242 0.550830 -0.112676
0.576814 0.550292 -0.120815
0.684694 0.553296 -0.135586
0.777543 0.552257 -0.146557
0.851237 0.547790 -0.154232
0.905999 0.540152 -0.159299
0.946668 0.529750 -0.162491
0.977942 0.516012 -0.164331
1.002783 0.498838 -0.165129
1.033187 0.477337 -0.166003
-0.229654 0.649657 -0.229654
-0.226138 0.649603 -0.229352
-0.207351 0.649336 -0.227839
-0.139799 0.648701 -0.223656
0.203593 0.647285 -0.213590
0.344971 0.645043 -0.192247
0.467693 0.642652 -0.155205
0.579355 0.641456 -0.130803
0.682877 0.640990 -0.142259
0.775724 0.640303 -0.154789
0.849521 0.636082 -0.163473
0.904368 0.628678 -0.169015
0.945230 0.618315 -0.172391
0.976642 0.604674 -0.174271
1.001505 0.587561 -0.175008
1.032013 0.566033 -0.175501
-0.257221 0.727637 -0.257221
-0.254227 0.727564 -0.256967
-0.238528 0.727405 -0.255687
-0.187603 0.726902 -0.252172
0.163579 0.725631 -0.243816
0.329225 0.723493 -0.226491
0.460417 0.721038 -0.195541
0.577196 0.719016 -0.155104
0.681382 0.718320 -0.148910
0.774130 0.717889 -0.160617
0.847890 0.713827 -0.170356
0.902817 0.706571 -0.176675
0.943655 0.696436 -0.180589
0.975097 0.682936 -0.182764
1.000147 0.665953 -0.183707
1.030727 0.644533 -0.184094
-0.280504 0.793577 -0.280504
-0.277874 0.793531 -0.280275
-0.264361 0.793322 -0.279172
-0.222775 0.792809 -0.276123
0.092247 0.791698 -0.269007
0.308041 0.789858 -0.254469
0.447577 0.787430 -0.228570
0.569223 0.785050 -0.190305
0.675796 0.783697 -0.159233
0.768674 0.783214 -0.165048
0.846465 0.782848 -0.175474
0.901320 0.775770 -0.182470
0.942240 0.765810 -0.186977
0.973751 0.752430 -0.189639
0.998734 0.735647 -0.190976
1.029442 0.714382 -0.191419
-0.300362 0.849643 -0.300362
-0.298023 0.849599 -0.300147
-0.286189 0.849436 -0.299163
-0.251056 0.849042 -0.296506
-0.124704 0.848009 -0.290351
0.281172 0.846422 -0.277945
0.429890 0.844061 -0.255996
0.555909 0.841530 -0.222460
0.665729 0.839669 -0.183734
0.759639 0.838927 -0.171189
0.838273 0.838599 -0.178592
0.900023 0.838265 -0.187025
0.940925 0.828290 -0.191956
0.972414 0.814983 -0.195088
0.997522 0.798286 -0.196839
1.028177 0.777410 -0.197427
-0.317242 0.897479 -0.317242
-0.315178 0.897438 -0.317070
-0.304689 0.897321 -0.316180
-0.274515 0.896855 -0.313867
-0.182615 0.896046 -0.308516
0.247286 0.894532 -0.297823
0.407698 0.892391 -0.279064
0.538020 0.889885 -0.250016
0.650818 0.887713 -0.212682
0.746994 0.886451 -0.182386
0.826864 0.886027 -0.182491
0.890238 0.885770 -0.189256
0.939713 0.885468 -0.196009
0.971215 0.872149 -0.199421
0.996282 0.855380 -0.201527
1.026972 0.834356 -0.202292
-0.331553 0.937936 -0.331553
-0.329716 0.937898 -0.331401
-0.320426 0.937789 -0.330606
-0.294360 0.937460 -0.328570
-0.221842 0.936713 -0.323922
0.202447 0.935399 -0.314712
0.380301 0.933428 -0.298638
0.514965 0.930964 -0.273638
0.630687 0.928679 -0.239900
0.729524 0.926981 -0.204616
0.811584 0.926275 -0.187742
0.877103 0.925951 -0.191832
0.928183 0.925734 -0.197502
0.970105 0.925532 -0.203202
0.995117 0.908496 -0.205454
1.025865 0.887281 -0.206279
-0.343423 0.971534 -0.343423
-0.341772 0.971499 -0.343288
-0.333546 0.971342 -0.342591
-0.311005 0.971094 -0.340783
-0.252127 0.970453 -0.336788
0.133901 0.969239 -0.328869
0.347326 0.967478 -0.315126
0.486903 0.965187 -0.293672
0.605276 0.962822 -0.263964
0.706813 0.960896 -0.229396
0.791798 0.959754 -0.201100
0.860191 0.959285 -0.195273
0.913469 0.959102 -0.199166
0.956661 0.958910 -0.203959
0.994094 0.958726 -0.208983
1.024831 0.936840 -0.209699
-0.352795 0.998031 -0.352795
-0.351348 0.997999 -0.352687
-0.344089 0.997957 -0.352083
-0.324672 0.997676 -0.350500
-0.276508 0.997122 -0.347076
-0.115563 0.996101 -0.340340
0.306840 0.994472 -0.328672
0.452811 0.992382 -0.310451
0.573779 0.990173 -0.284711
0.677803 0.988053 -0.252969
0.765917 0.986524 -0.221299
0.838086 0.985767 -0.201621
0.894520 0.985448 -0.201202
0.939727 0.985211 -0.204725
0.977656 0.985063 -0.208902
1.023884 0.984805 -0.213067
0.004008 0.004008 0.030611
0.029567 0.010444 0.029428
0.089390 -0.011361 0.042264
0.164373 -0.022379 0.045450
0.256849 -0.034784 0.041708
0.361702 -0.048882 0.024024
0.471934 -0.063730 -0.041730
0.583234 -0.078742 -0.064103
0.690274 -0.093173 -0.082011
0.782370 -0.105591 -0.096449
0.855413 -0.115447 -0.107585
0.909705 -0.122772 -0.115798
0.950049 -0.128220 -0.121917
0.981004 -0.132387 -0.126679
1.005456 -0.135690 -0.130525
1.035519 -0.139747 -0.135168
-0.025852 0.066029 0.024678
0.026598 0.065622 0.025389
0.093179 0.055633 0.021742
0.168442 0.043786 -0.016169
0.260512 0.030475 -0.033084
0.364741 -0.029063 -0.048120
0.474387 -0.052491 -0.063265
0.585137 -0.070651 -0.078364
0.691679 -0.086649 -0.092809
0.783266 -0.099849 -0.105193
0.856053 -0.110069 -0.115016
0.910153 -0.117519 -0.122289
0.950316 -0.122964 -0.127679
0.981255 -0.127080 -0.131825
1.005658 -0.130308 -0.135091
1.035502 -0.129921 -0.138243
-0.055456 0.152128 -0.038102
-0.049859 0.152759 -0.051430
0.084214 0.150980 -0.041644
0.164262 0.157562 -0.031450
0.257938 0.159700 -0.044317
0.363231 0.158627 -0.056268
0.473422 0.155459 -0.069277
0.584493 0.150640 -0.082996
0.691258 0.144339 -0.096556
0.782986 0.136663 -0.108366
0.855840 0.128418 -0.117800
0.909955 0.120280 -0.124817
0.950194 0.112245 -0.130019
0.981015 0.103867 -0.133987
1.005501 0.094669 -0.137105
1.035373 0.084416 -0.140043
-0.071421 0.197590 -0.056391
-0.067637 0.197711 -0.068779
0.084390 0.196623 -0.061265
0.161917 0.195110 -0.038684
0.255898 0.198056 -0.048418
0.361737 0.197886 -0.060476
0.472492 0.195794 -0.072787
0.583868 0.192493 -0.085861
0.690820 0.188261 -0.098931
0.782665 0.182998 -0.110424
0.855720 0.177349 -0.119639
0.909761 0.171850 -0.126492
0.950055 0.166516 -0.131596
0.980914 0.161133 -0.135474
1.005373 0.155557 -0.138521
1.035292 0.148921 -0.141391
-0.089724 0.250200 -0.078120
-0.086966 0.250441 -0.087769
0.072330 0.249555 -0.082153
0.166824 0.247834 -0.063519
0.254090 0.246844 -0.052174
0.360180 0.250074 -0.066232
0.471258 0.249907 -0.078440
0.582973 0.248513 -0.090835
0.690153 0.246671 -0.103279
0.782205 0.242980 -0.114215
0.855269 0.237808 -0.122983
0.909443 0.231679 -0.129458
0.949790 0.224734 -0.134218
0.980754 0.216773 -0.137780
1.005191 0.207955 -0.140520
1.035161 0.197942 -0.143135
-0.122531 0.344181 -0.115046
-0.120730 0.344425 -0.121221
-0.064052 0.343840 -0.117669
0.155173 0.342383 -0.106719
0.256640 0.340352 -0.078115
0.357851 0.339588 -0.073795
0.469245 0.341483 -0.088457
0.581401 0.342098 -0.100943
0.688877 0.342542 -0.112703
0.781171 0.339990 -0.122774
0.854481 0.334960 -0.130727
0.908770 0.327710 -0.136484
0.949116 0.318555 -0.140546
0.980220 0.307187 -0.143431
1.004809 0.293864 -0.145478
1.034817 0.278187 -0.147390
-0.161120 0.454112 -0.156029
-0.159848 0.454303 -0.160166
-0.128716 0.453895 -0.157786
0.118023 0.452853 -0.150840
0.246368 0.450880 -0.132720
0.358103 0.448796 -0.096656
0.466755 0.448071 -0.097091
0.579108 0.449958 -0.112259
0.687018 0.451770 -0.124854
0.779591 0.449948 -0.134676
0.853124 0.444888 -0.142054
0.907620 0.436981 -0.147156
0.948167 0.426502 -0.150540
0.979361 0.412926 -0.152669
1.004010 0.396428 -0.153893
1.034169 0.376547 -0.154877
-0.197605 0.557716 -0.193749
-0.196596 0.557831 -0.196810
-0.174396 0.557573 -0.195011
-0.069325 0.556737 -0.189959
0.225738 0.555095 -0.177247
0.352218 0.552691 -0.149560
0.467370 0.550883 -0.111971
0.576844 0.550325 -0.119992
0.684823 0.552730 -0.134803
0.777680 0.551406 -0.145763
0.851422 0.546638 -0.153417
0.906169 0.538880 -0.158449
0.946741 0.528390 -0.161594
0.978092 0.514515 -0.163393
1.002870 0.497394 -0.164171
1.033203 0.476014 -0.164496
-0.230025 0.649687 -0.226894
-0.229162 0.649751 -0.229296
-0.211449 0.649524 -0.227843
-0.148555 0.648870 -0.223772
0.196929 0.647418 -0.213818
0.341844 0.645214 -0.192517
0.466135 0.642734 -0.155153
0.578707 0.641491 -0.129885
0.682924 0.641001 -0.141436
0.775757 0.639978 -0.153982
0.849603 0.635527 -0.162661
0.904510 0.627928 -0.168171
0.945231 0.617504 -0.171527
0.976689 0.603708 -0.173376
1.001552 0.586592 -0.174091
1.032028 0.565090 -0.174143
-0.257550 0.727678 -0.254868
-0.256728 0.727607 -0.256838
-0.241847 0.727540 -0.255605
-0.193547 0.726966 -0.252177
0.153971 0.725788 -0.243936
0.325481 0.723625 -0.226678
0.458372 0.721180 -0.195629
0.576160 0.719011 -0.154616
0.681045 0.718353 -0.147954
0.774161 0.717901 -0.159761
0.847883 0.713614 -0.169516
0.902894 0.706169 -0.175818
0.943679 0.695959 -0.179692
0.975187 0.682271 -0.181883
1.000159 0.665261 -0.182782
1.030738 0.643927 -0.182853
-0.280788 0.793512 -0.278445
-0.280020 0.793571 -0.280099
-0.267148 0.793439 -0.279022
-0.227370 0.792893 -0.276064
0.067104 0.791850 -0.269041
0.303736 0.789984 -0.254596
0.445143 0.787523 -0.228678
0.567835 0.785123 -0.190109
0.675147 0.783716 -0.158323
0.768384 0.783233 -0.164026
0.846478 0.782834 -0.174551
0.901349 0.775689 -0.181574
0.942279 0.765511 -0.186048
0.973800 0.751973 -0.188726
0.998791 0.735238 -0.190033
1.029450 0.713948 -0.190269
-0.300603 0.849666 -0.298529
-0.299860 0.849655 -0.299912
-0.288508 0.849498 -0.298959
-0.254739 0.849114 -0.296354
-0.136782 0.848093 -0.290304
0.276384 0.846441 -0.277956
0.427252 0.844130 -0.256016
0.554377 0.841570 -0.222310
0.664858 0.839676 -0.183113
0.759167 0.838916 -0.170088
0.838071 0.838582 -0.177513
0.900028 0.838223 -0.186011
0.940938 0.828179 -0.190936
0.972429 0.814909 -0.194081
0.997546 0.798186 -0.195841
1.028182 0.777119 -0.196351
-0.317461 0.897501 -0.315622
-0.316735 0.897448 -0.316770
-0.306688 0.897336 -0.315919
-0.277497 0.896881 -0.313647
-0.189453 0.896083 -0.308345
0.241865 0.894573 -0.297714
0.404921 0.892422 -0.278974
0.536281 0.889895 -0.249875
0.649848 0.887745 -0.212208
0.746437 0.886462 -0.181405
0.826667 0.886031 -0.181348
0.890147 0.885771 -0.188117
0.939713 0.885468 -0.194950
0.971217 0.872015 -0.198372
0.996286 0.855189 -0.200487
1.026975 0.834289 -0.201248
-0.331773 0.937956 -0.330102
-0.331050 0.937941 -0.331070
-0.322103 0.937837 -0.330295
-0.296786 0.937442 -0.328294
-0.226571 0.936784 -0.323695
0.195773 0.935473 -0.314535
0.377481 0.933497 -0.298471
0.513192 0.931020 -0.273433
0.629570 0.928711 -0.239503
0.728791 0.926994 -0.203862
0.811249 0.926277 -0.186612
0.876903 0.925952 -0.190709
0.928096 0.925734 -0.196421
0.970105 0.925531 -0.202170
0.995118 0.908456 -0.204421
1.025866 0.887173 -0.205275
-0.343608 0.971553 -0.342142
-0.342908 0.971528 -0.342916
-0.334948 0.971375 -0.342233
-0.312988 0.971135 -0.340458
-0.255597 0.970505 -0.336492
0.122995 0.969299 -0.328649
0.344359 0.967538 -0.314909
0.485046 0.965240 -0.293445
0.604091 0.962858 -0.263638
0.706026 0.960915 -0.228854
0.791435 0.959760 -0.200188
0.859996 0.959285 -0.194183
0.913402 0.959102 -0.198085
0.956587 0.958910 -0.202918
0.994094 0.958725 -0.208009
1.024830 0.936848 -0.208741
-0.352963 0.998048 -0.351637
-0.352298 0.998025 -0.352306
-0.345258 0.997986 -0.351707
-0.326305 0.997712 -0.350145
-0.279179 0.997167 -0.346764
-0.125989 0.996154 -0.340067
0.303639 0.994527 -0.328418
0.450941 0.992433 -0.310209
0.572579 0.990212 -0.284408
0.676978 0.988082 -0.252528
0.765384 0.986534 -0.220579
0.837763 0.985771 -0.200653
0.894414 0.985449 -0.200172
0.939639 0.985211 -0.203703
0.977684 0.985063 -0.207889
1.023884 0.984805 -0.212120
0.010950 0.010950 0.083638
0.041450 0.017020 0.080856
0.081782 0.028784 0.080489
0.162143 0.007738 0.098850
0.256728 -0.034817 0.103022
0.361693 -0.049255 0.101411
0.471932 -0.064005 0.095738
0.583233 -0.078946 0.085949
0.690271 -0.093335 0.070634
0.782367 -0.105720 0.043930
0.855409 -0.115561 -0.045493
0.909700 -0.122868 -0.068854
0.950043 -0.128303 -0.082722
0.980998 -0.132463 -0.092942
1.005453 -0.135758 -0.101215
1.035516 -0.139809 -0.110259
-0.038693 0.086272 0.088681
0.021181 0.063022 0.094858
0.087196 0.056968 0.085286
0.167781 0.039580 0.095359
0.261117 0.009848 0.095713
0.365369 -0.039839 0.092093
0.474915 -0.058258 0.084480
0.585521 -0.074665 0.071696
0.692019 -0.089744 0.049115
0.783517 -0.102399 -0.040505
0.856286 -0.112313 -0.068265
0.910240 -0.119553 -0.083510
0.950458 -0.124867 -0.094059
0.981259 -0.128889 -0.102206
1.005711 -0.132050 -0.108921
1.035500 -0.129984 -0.114785
-0.062113 0.152597 0.075751
-0.059781 0.153327 0.075673
0.081111 0.151286 0.076704
0.170075 0.145997 0.077594
0.271200 0.136544 0.063326
0.379907 0.124683 0.039826
0.490131 0.111607 -0.043146
0.599393 0.096137 -0.069016
0.703490 0.075823 -0.087389
0.792383 0.045021 -0.101452
0.862746 -0.047614 -0.112048
0.914935 -0.069643 -0.119716
0.954015 -0.081725 -0.125370
0.984342 -0.089806 -0.129692
1.008417 -0.095662 -0.133111
1.035385 0.071001 -0.120482
-0.078128 0.198060 0.079068
-0.076140 0.198306 0.070192
0.051680 0.198171 0.033316
0.163159 0.195226 0.059444
0.263176 0.194802 0.044610
0.372602 0.192294 -0.025147
0.484528 0.188433 -0.056289
0.595526 0.183622 -0.075909
0.700891 0.178036 -0.092211
0.790847 0.171749 -0.105340
0.861752 0.165411 -0.115400
0.914219 0.159455 -0.122733
0.953510 0.153874 -0.128149
0.983908 0.148384 -0.132279
1.008106 0.142813 -0.135534
1.035298 0.146740 -0.122262
-0.095530 0.250618 0.066232
-0.093798 0.250976 0.047703
-0.059178 0.252496 -0.071490
0.155924 0.249574 -0.045396
0.255508 0.247156 0.019442
0.365541 0.246375 -0.047503
0.478821 0.243390 -0.066400
0.591185 0.239812 -0.082440
0.697843 0.236112 -0.097063
0.788730 0.231065 -0.109233
0.860426 0.225116 -0.118708
0.913433 0.218650 -0.125622
0.952914 0.211787 -0.130678
0.983382 0.204331 -0.134500
1.007719 0.196406 -0.137474
1.035169 0.195831 -0.124355
-0.126626 0.344473 -0.070964
-0.125375 0.344893 -0.084404
-0.108949 0.347252 -0.115126
0.132931 0.345093 -0.104186
0.250154 0.341963 -0.070866
0.359204 0.339933 -0.062199
0.473160 0.338448 -0.080412
0.586664 0.336420 -0.094638
0.694410 0.334873 -0.107542
0.786199 0.330824 -0.118327
0.858608 0.324696 -0.126726
0.912026 0.316820 -0.132752
0.951880 0.307378 -0.137046
0.982630 0.296069 -0.140120
1.007045 0.283079 -0.142360
1.034848 0.276037 -0.129440
-0.164016 0.454325 -0.131592
-0.163072 0.454623 -0.138049
-0.153257 0.456803 -0.157273
0.067369 0.455427 -0.150706
0.233399 0.452886 -0.132528
0.354082 0.449932 -0.092473
0.467813 0.448400 -0.091227
0.581903 0.447833 -0.107733
0.690499 0.447848 -0.120982
0.783134 0.444646 -0.131179
0.856329 0.438532 -0.138757
0.910275 0.429886 -0.143971
0.950452 0.418944 -0.147451
0.981396 0.405064 -0.149670
1.005988 0.388604 -0.150997
1.034186 0.374758 -0.138300
-0.199821 0.557884 -0.176386
-0.199035 0.558054 -0.180758
-0.192042 0.559662 -0.195020
-0.122782 0.558769 -0.190354
0.206300 0.556858 -0.178082
0.343950 0.553999 -0.149878
0.464743 0.551606 -0.108390
0.577696 0.550514 -0.116316
0.686726 0.551454 -0.131811
0.779972 0.548957 -0.143043
0.853698 0.543368 -0.150824
0.908116 0.534979 -0.155896
0.948540 0.523948 -0.159074
0.979715 0.509794 -0.160906
1.004538 0.492417 -0.161698
1.033221 0.474789 -0.149469
-0.231851 0.649791 -0.213056
-0.231145 0.649951 -0.216430
-0.225622 0.651131 -0.228015
-0.176180 0.650423 -0.224342
0.168490 0.648950 -0.214871
0.330051 0.646411 -0.193704
0.460677 0.643611 -0.155182
0.577083 0.642001 -0.126729
0.683592 0.641163 -0.138819
0.777082 0.639181 -0.151719
0.851174 0.633974 -0.160530
0.905933 0.625850 -0.166078
0.946603 0.614975 -0.169439
0.978007 0.600979 -0.171305
1.002945 0.583634 -0.172022
1.032044 0.564274 -0.160444
-0.259113 0.727788 -0.243248
-0.258438 0.727792 -0.245981
-0.253782 0.728737 -0.255810
-0.214171 0.728102 -0.252724
0.104627 0.726976 -0.244967
0.310653 0.724650 -0.228025
0.450737 0.721872 -0.196713
0.572524 0.719537 -0.153795
0.679939 0.718689 -0.145476
0.774610 0.718000 -0.157699
0.848850 0.713029 -0.167639
0.903850 0.705282 -0.174019
0.944732 0.694572 -0.177907
0.976240 0.680713 -0.180100
1.001288 0.663489 -0.181013
1.030751 0.643331 -0.170194
-0.282149 0.793605 -0.268401
-0.281520 0.793646 -0.270678
-0.277459 0.794458 -0.279243
-0.244145 0.793966 -0.276579
-0.113457 0.792876 -0.269991
0.286036 0.790916 -0.255910
0.435775 0.788283 -0.230011
0.562799 0.785630 -0.190611
0.672789 0.784121 -0.156563
0.767726 0.783542 -0.161992
0.846835 0.782965 -0.172812
0.901936 0.775327 -0.179910
0.942991 0.764837 -0.184447
0.974490 0.751245 -0.187133
0.999622 0.734140 -0.188441
1.029460 0.713653 -0.178383
-0.301807 0.849778 -0.289694
-0.301175 0.849809 -0.291591
-0.297522 0.850377 -0.299107
-0.268805 0.849984 -0.296796
-0.175166 0.849061 -0.291131
0.255509 0.847271 -0.279165
0.416487 0.844872 -0.257385
0.548197 0.842168 -0.223351
0.661540 0.840043 -0.182786
0.757762 0.839204 -0.168217
0.837735 0.838764 -0.175771
0.900355 0.838334 -0.184449
0.941353 0.828052 -0.189456
0.973000 0.814348 -0.192609
0.998122 0.797476 -0.194379
1.028191 0.776709 -0.185048
-0.318545 0.897552 -0.307785
-0.317924 0.897539 -0.309404
-0.314546 0.898047 -0.316024
-0.289469 0.897692 -0.314004
-0.215044 0.896832 -0.309081
0.216665 0.895351 -0.298760
0.393056 0.893106 -0.280231
0.529275 0.890485 -0.251010
0.645723 0.888184 -0.212636
0.744292 0.886716 -0.180307
0.825785 0.886213 -0.179669
0.889910 0.885844 -0.186567
0.939960 0.885546 -0.193479
0.971514 0.871973 -0.196941
0.996783 0.854976 -0.199093
1.026979 0.834092 -0.190388
-0.332707 0.938020 -0.323154
-0.332118 0.938044 -0.324501
-0.329001 0.938457 -0.330372
-0.306976 0.938158 -0.328559
-0.245758 0.937420 -0.324283
0.162077 0.936090 -0.315406
0.364603 0.934146 -0.299574
0.505519 0.931611 -0.274557
0.624928 0.929158 -0.240219
0.726185 0.927342 -0.203575
0.809833 0.926454 -0.185054
0.876380 0.926118 -0.189079
0.928014 0.925746 -0.194854
0.970328 0.925585 -0.200662
0.995413 0.908372 -0.202941
1.025867 0.887058 -0.194729
-0.344443 0.971548 -0.335948
-0.343868 0.971560 -0.337059
-0.340947 0.971935 -0.342258
-0.321561 0.971714 -0.340646
-0.270549 0.971137 -0.336952
-0.026443 0.969922 -0.329331
0.330517 0.968157 -0.315824
0.477017 0.965798 -0.294421
0.599097 0.963382 -0.264361
0.703038 0.961262 -0.228905
0.789604 0.959986 -0.199223
0.859116 0.959562 -0.192547
0.913047 0.959210 -0.196452
0.956576 0.958969 -0.201336
0.994302 0.958756 -0.206432
1.024830 0.936837 -0.198464
-0.353747 0.998130 -0.346177
-0.353121 0.998134 -0.347101
-0.350415 0.998541 -0.351637
-0.333416 0.998226 -0.350231
-0.290801 0.997756 -0.347001
-0.162828 0.996745 -0.340557
0.288735 0.995085 -0.329092
0.442706 0.993023 -0.310924
0.567273 0.990585 -0.285044
0.673700 0.988472 -0.252721
0.763412 0.986847 -0.220064
0.836678 0.986068 -0.199278
0.893895 0.985638 -0.198507
0.939458 0.985416 -0.202046
0.977666 0.985165 -0.206251
1.023882 0.984802 -0.202097
0.019608 0.019608 0.149775
0.049404 0.024057 0.147506
0.095623 0.036587 0.143429
0.150204 0.052042 0.144600
0.251728 0.028970 0.164773
0.360880 -0.046267 0.168497
0.471920 -0.064556 0.166882
0.583223 -0.079428 0.163499
0.690265 -0.093737 0.158883
0.782364 -0.106065 0.152253
0.855407 -0.115859 0.144305
0.909699 -0.123136 0.135605
0.950042 -0.128539 0.126094
0.980997 -0.132683 0.115143
1.005452 -0.135951 0.102139
1.035515 -0.139978 0.082749
-0.038716 0.094899 0.161227
0.032536 0.056661 0.162360
0.096348 0.055757 0.150664
0.154315 0.062593 0.147965
0.256384 0.040790 0.163916
0.364567 -0.037389 0.164985
0.474803 -0.058925 0.162135
0.585493 -0.075170 0.157853
0.691976 -0.090143 0.152483
0.783489 -0.102733 0.145217
0.856269 -0.112603 0.136695
0.910229 -0.119815 0.127443
0.950490 -0.125099 0.117441
0.981252 -0.129096 0.105853
1.005706 -0.132234 0.091914
1.035497 -0.130165 0.073879
-0.073195 0.163939 0.157575
-0.070444 0.160930 0.161724
0.072004 0.150552 0.165876
0.166825 0.146026 0.158874
0.271279 0.134481 0.158701
0.381438 0.119844 0.151966
0.492518 0.102789 0.143288
0.601937 0.081338 0.133602
0.705833 0.046729 0.122882
0.794396 -0.055581 0.110319
0.864182 -0.080047 0.096158
0.916008 -0.093717 0.080312
0.954880 -0.102691 0.060720
0.984990 -0.109064 0.022979
1.009121 -0.113837 -0.054501
1.035386 0.070549 0.059641
-0.087261 0.198488 0.151948
-0.086520 0.198716 0.151977
-0.037543 0.199016 0.150778
0.161417 0.195375 0.149894
0.265374 0.192507 0.145975
0.379914 0.188037 0.135906
0.498295 0.181194 0.120274
0.612992 0.172459 0.099186
0.718728 0.162240 0.068946
0.806592 0.151650 -0.037532
0.874246 0.141599 -0.075581
0.923981 0.132647 -0.092797
0.961426 0.124807 -0.103641
0.990795 0.117922 -0.111229
1.011224 0.133819 -0.086777
1.035286 0.152869 0.082475
-0.106261 0.251301 0.153115
-0.105268 0.251692 0.149189
-0.085821 0.253864 0.131962
0.141982 0.251423 0.124905
0.256677 0.247121 0.129580
0.372845 0.242869 0.117827
0.490892 0.236805 0.102922
0.605985 0.229988 0.081721
0.712969 0.222880 0.043530
0.802326 0.215261 -0.061209
0.871407 0.207670 -0.085354
0.922146 0.200516 -0.099248
0.960061 0.193762 -0.108487
0.989765 0.187213 -0.115128
1.011066 0.189004 -0.096223
1.035151 0.202124 0.078445
-0.135620 0.345103 0.133432
-0.134540 0.345516 0.126592
