OFX Video Plug-Ins/Vfx1.ofx.bundle/Contents/Resources/AutoLooks/14.cube
LUT_3D_SIZE 6
0.000000 0.000000 0.000000
0.164377 -0.022186 -0.022186
0.471937 -0.063684 -0.063684
0.782372 -0.105567 -0.105567
0.950050 -0.128197 -0.128197
1.035520 -0.139737 -0.139737
-0.069808 0.197474 -0.069808
0.161692 0.195077 -0.040696
0.471091 0.197995 -0.073748
0.781920 0.185930 -0.111144
0.949727 0.169564 -0.132375
1.035287 0.151136 -0.143153
-0.160506 0.454060 -0.160506
0.127562 0.452574 -0.150501
0.466651 0.448044 -0.097953
0.779336 0.451674 -0.135552
0.948031 0.428709 -0.151498
1.034171 0.378365 -0.156528
-0.257221 0.727637 -0.257221
-0.187603 0.726902 -0.252172
0.460417 0.721038 -0.195541
0.774130 0.717889 -0.160617
0.943655 0.696436 -0.180589
1.030727 0.644533 -0.184094
-0.317242 0.897479 -0.317242
-0.274515 0.896855 -0.313867
0.407698 0.892391 -0.279064
0.746994 0.886451 -0.182386
0.939713 0.885468 -0.196009
1.026972 0.834356 -0.202292
-0.352795 0.998031 -0.352795
-0.324672 0.997676 -0.350500
0.306840 0.994472 -0.328672
0.677803 0.988053 -0.252969
0.894520 0.985448 -0.201202
1.023884 0.984805 -0.213067
0.019608 0.019608 0.149775
0.150204 0.052042 0.144600
0.471920 -0.064556 0.166882
0.782364 -0.106065 0.152253
0.950042 -0.128539 0.126094
1.035515 -0.139978 0.082749
-0.087261 0.198488 0.151948
0.161417 0.195375 0.149894
0.498295 0.181194 0.120274
0.806592 0.151650 -0.037532
0.961426 0.124807 -0.103641
1.035286 0.152869 0.082475
-0.170755 0.454796 0.075424
-0.105306 0.460374 -0.129364
0.470020 0.448956 0.036424
0.791417 0.437884 -0.108380
0.955764 0.408391 -0.131706
1.034169 0.379915 0.029942
-0.262896 0.728088 -0.210378
-0.240557 0.731006 -0.249384
0.438350 0.723947 -0.193033
0.775858 0.718374 -0.146800
0.947255 0.693186 -0.169474
1.030730 0.645031 -0.113377
-0.321152 0.897764 -0.287330
-0.306151 0.899416 -0.312534
0.372761 0.894752 -0.280078
0.741172 0.887553 -0.174211
0.940408 0.885708 -0.187410
1.026968 0.834583 -0.145481
-0.355491 0.998216 -0.332612
-0.343533 0.999651 -0.348980
0.263566 0.996457 -0.328702
0.668856 0.989347 -0.251038
0.893346 0.986202 -0.193111
1.023875 0.984792 -0.161922
0.054990 0.054990 0.420014
0.177161 0.077245 0.409063
0.432469 0.146192 0.407431
0.774827 -0.061730 0.444281
0.948589 -0.124942 0.421824
1.035385 -0.141466 0.371345
-0.043412 0.201974 0.439794
0.165101 0.195208 0.454409
0.460396 0.222533 0.430943
0.804057 0.155502 0.437114
0.962619 0.108073 0.397053
1.035244 0.151172 0.372003
-0.203532 0.455496 0.442490
-0.176763 0.461577 0.441388
0.470112 0.447277 0.426352
0.803439 0.426596 0.400856
0.968809 0.397508 0.364277
1.033719 0.437843 0.425871
-0.302504 0.730816 0.398755
-0.288515 0.734592 0.354700
0.388394 0.731136 0.307870
0.779916 0.718770 0.319931
0.957263 0.691046 0.290557
1.030534 0.664694 0.417872
-0.350847 0.899896 0.323032
-0.338979 0.902013 0.248143
0.270750 0.902813 -0.075420
0.729810 0.891625 0.238172
0.942901 0.886496 0.216726
1.026841 0.840355 0.411321
-0.375908 0.999745 0.178411
-0.366371 1.001505 -0.146501
0.139219 1.003570 -0.247960
0.655485 0.994511 -0.081560
0.893185 0.989075 0.177682
1.023779 0.984746 0.407190
0.094808 0.094808 0.724089
0.193789 0.107124 0.717813
0.449408 0.172933 0.694146
0.714094 0.250296 0.697501
0.905834 0.208248 0.711068
1.012122 0.132860 0.664179
0.093902 0.210994 0.733921
0.173479 0.202845 0.764022
0.466714 0.236465 0.728472
0.737171 0.290512 0.717992
0.919825 0.244910 0.718454
1.013816 0.219468 0.665640
-0.184711 0.455991 0.779058
-0.136696 0.451403 0.797284
0.468217 0.448794 0.747168
0.749195 0.464786 0.726795
0.939895 0.421678 0.725718
1.020595 0.449499 0.692035
-0.327631 0.729143 0.769927
-0.321752 0.732631 0.770132
0.337438 0.731570 0.762878
0.775006 0.717752 0.740643
0.957063 0.706157 0.725656
1.029828 0.714152 0.750899
-0.397749 0.901843 0.716409
-0.393826 0.904423 0.700978
-0.153162 0.908401 0.659167
0.741670 0.893034 0.686351
0.943291 0.885676 0.675768
1.026665 0.856280 0.747240
-0.425321 1.002899 0.620341
-0.419006 1.004776 0.596324
-0.269214 1.008855 0.535580
0.705804 0.997094 0.634397
0.904808 0.990158 0.630103
1.023512 0.984409 0.745217
0.115198 0.115198 0.879884
0.197062 0.123944 0.875394
0.440142 0.180106 0.850325
0.697947 0.257237 0.839616
0.867112 0.304045 0.847429
0.961327 0.290489 0.831976
0.116282 0.215659 0.887167
0.174571 0.205306 0.904823
0.450980 0.237171 0.871118
0.716701 0.294548 0.853741
0.878272 0.329512 0.856294
0.963244 0.329365 0.833839
-0.106758 0.435395 0.923873
0.086889 0.428014 0.934613
0.466325 0.446359 0.897645
0.733044 0.465243 0.865870
0.894236 0.466841 0.869542
0.973897 0.496280 0.849382
-0.322899 0.705727 0.952565
-0.316002 0.706808 0.958557
0.342251 0.708261 0.961083
0.769050 0.721218 0.892128
0.916447 0.725144 0.891349
1.000338 0.729321 0.884574
-0.403731 0.899477 0.933914
-0.400495 0.901580 0.933893
-0.203406 0.904960 0.931230
0.723446 0.893687 0.920376
0.939186 0.885130 0.907260
1.023954 0.884468 0.914661
-0.444497 1.002250 0.874097
-0.441918 1.004225 0.869533
-0.336892 1.009278 0.855874
0.674120 1.000869 0.860746
0.929808 0.988691 0.890368
1.023312 0.984132 0.912528
0.122147 0.122147 0.933007
0.188152 0.128608 0.929704
0.402471 0.174020 0.907550
0.648897 0.244454 0.891338
0.829702 0.298861 0.892981
0.945004 0.328670 0.900633
0.123508 0.212870 0.939177
0.173064 0.204742 0.949270
0.412154 0.230161 0.922315
0.667268 0.283167 0.901314
0.841790 0.325629 0.900357
0.946556 0.362464 0.902265
0.073774 0.391201 0.965313
0.135004 0.385886 0.972617
0.463110 0.442731 0.945722
0.699160 0.459151 0.913738
0.861426 0.467663 0.912700
0.956485 0.516121 0.912748
-0.290252 0.652038 1.011352
-0.280680 0.653635 1.016491
0.377052 0.669060 1.011167
0.768531 0.719980 0.942863
0.894780 0.725673 0.936002
0.980445 0.741765 0.937804
-0.383349 0.846817 1.001891
-0.379617 0.848876 1.003919
-0.059293 0.856513 1.006303
0.733071 0.861542 0.994809
0.931561 0.888178 0.956334
1.005046 0.892189 0.961567
-0.447655 1.001034 0.984406
-0.445160 1.002683 0.984262
-0.345171 1.006986 0.982467
0.664825 0.999379 0.974226
0.922725 0.989287 0.965569
1.023386 0.984018 0.969271
