OFX Video Plug-Ins/Vfx1.ofx.bundle/Contents/Resources/AutoLooks/15.cube
LUT_3D_SIZE 6
-0.087445 -0.077817 -0.057127
0.102412 -0.026820 0.060993
0.276973 0.085101 0.136718
0.538725 0.134931 0.197771
0.859146 0.189113 0.263450
0.994516 0.235772 0.318526
-0.045834 0.139508 0.096120
0.108003 0.138840 0.109692
0.273540 0.178454 0.156286
0.536610 0.218745 0.212344
0.857770 0.257792 0.275155
0.994404 0.285098 0.326716
0.093632 0.339871 0.185140
0.156699 0.339758 0.192916
0.278492 0.336996 0.202366
0.543605 0.401138 0.262139
0.857542 0.436864 0.324499
0.994255 0.436406 0.362350
0.178919 0.594172 0.296389
0.224491 0.594280 0.301948
0.359743 0.597529 0.315797
0.553964 0.597873 0.323542
0.876349 0.646240 0.386249
0.994837 0.626124 0.419449
0.273624 0.867185 0.415085
0.306718 0.867461 0.418560
0.428494 0.869989 0.428319
0.634032 0.876729 0.437127
0.903081 0.887438 0.435984
0.997088 0.840564 0.466097
0.406459 1.011896 0.549068
0.428880 1.011822 0.550217
0.518812 1.012854 0.554023
0.673849 1.015480 0.559761
0.880866 1.020350 0.561400
0.999628 1.032026 0.550011
0.305310 -0.597386 0.337922
0.334172 -0.596939 0.341622
0.189465 -0.567798 -0.163611
0.501993 -0.563101 -0.101725
0.852561 -0.556297 0.191275
0.992296 -0.547552 0.250711
-0.093145 0.142352 0.226042
0.083819 0.140157 0.227439
0.287628 0.139007 0.217766
0.542231 0.165089 0.242955
0.860502 0.208742 0.292592
0.994584 0.252895 0.341080
-0.123767 0.348436 0.250255
0.081118 0.345312 0.229559
0.281973 0.339791 0.255277
0.542373 0.391603 0.297578
0.858700 0.422323 0.345500
0.994415 0.423737 0.379244
0.134050 0.597476 0.339565
0.185430 0.595796 0.318751
0.352043 0.597481 0.343307
0.555958 0.599515 0.351178
0.875431 0.640770 0.404544
0.994845 0.620100 0.433126
0.261972 0.868530 0.442148
0.280496 0.867721 0.426709
0.417421 0.869996 0.442833
0.628506 0.876576 0.451646
0.904057 0.888499 0.450023
0.997132 0.837166 0.478047
0.404310 1.011928 0.561639
0.412930 1.011706 0.552116
0.507812 1.012727 0.556497
0.665714 1.015373 0.560068
0.876953 1.020304 0.561016
0.999637 1.032089 0.550406
0.305298 -0.597351 0.524790
0.357036 -0.597906 0.532087
0.421794 -0.594284 0.517150
0.628814 -0.591191 0.543544
0.893725 -0.570022 0.489808
0.995081 -0.555906 0.465285
-0.113956 0.157238 0.469423
0.012228 0.108360 0.466801
0.291934 0.125005 0.452634
0.581084 0.105043 0.475238
0.881267 0.186017 0.472451
0.995891 0.242461 0.472468
-0.206659 0.351182 0.459959
-0.187156 0.353536 0.462162
0.246543 0.347804 0.461848
0.560254 0.342278 0.428595
0.869478 0.362256 0.440141
0.995288 0.387894 0.462457
-0.238400 0.614433 0.461579
-0.210437 0.613334 0.454932
0.264487 0.606994 0.434000
0.563915 0.604873 0.460869
0.873174 0.624906 0.489532
0.994990 0.606036 0.502527
0.160179 0.875358 0.517778
0.206458 0.874627 0.513683
0.364328 0.872649 0.502384
0.612281 0.877107 0.522082
0.907188 0.890764 0.518061
0.996972 0.831268 0.540200
0.392493 1.012838 0.605400
0.402902 1.012710 0.600414
0.479862 1.012987 0.591263
0.649394 1.015506 0.593914
0.869963 1.020412 0.593060
0.999543 1.032029 0.583587
0.299461 -0.598946 0.756102
0.369067 -0.599976 0.756880
0.465151 -0.597479 0.742456
0.646865 -0.599444 0.728016
0.934602 -0.589043 0.691717
0.997717 -0.567732 0.627134
-0.140534 0.165494 0.686461
-0.094813 0.044991 0.684334
0.327024 0.097338 0.671720
0.585167 -0.045492 0.658753
0.910878 0.088076 0.641803
0.997618 0.206164 0.607475
-0.241003 0.397110 0.690695
-0.217444 0.386062 0.690636
0.230143 0.325185 0.681049
0.581150 0.323345 0.651722
0.902254 0.335839 0.623258
0.997092 0.369522 0.599225
-0.339196 0.622252 0.645216
-0.329213 0.623385 0.645470
-0.224589 0.626970 0.644491
0.545001 0.612188 0.633386
0.880432 0.619613 0.628147
0.996059 0.633352 0.638150
-0.272793 0.891150 0.624823
-0.251385 0.890601 0.622419
0.202371 0.888229 0.617723
0.606421 0.880109 0.647926
0.910168 0.890935 0.644534
0.997009 0.843954 0.664546
0.352253 1.015839 0.666159
0.363630 1.015627 0.663493
0.449960 1.015173 0.661436
0.679815 1.017148 0.694121
0.886689 1.021808 0.693077
0.999554 1.031152 0.685714
0.290798 -0.601233 0.940924
0.365802 -0.602257 0.940830
0.476861 -0.600578 0.931140
0.681887 -0.602663 0.918994
0.954490 -0.608479 0.895337
0.999460 -0.584183 0.790834
-0.163959 0.155189 0.882876
-0.130681 -0.085498 0.881316
0.329926 0.036554 0.869342
0.614744 -0.096654 0.857189
0.935704 -0.160257 0.840340
0.999154 0.110551 0.763678
-0.250982 0.403741 0.890242
-0.226885 0.387724 0.889079
0.209703 0.311787 0.878931
0.584372 0.312276 0.853943
0.934189 0.283638 0.834861
0.998877 0.335369 0.755044
-0.369198 0.651567 0.873100
-0.357242 0.645668 0.874384
-0.252747 0.624138 0.877554
0.541492 0.601459 0.855172
0.923177 0.593256 0.815558
0.998014 0.612799 0.761580
-0.439306 0.911501 0.809039
-0.431294 0.911848 0.809023
-0.360890 0.913202 0.808257
0.465867 0.906239 0.800645
0.905094 0.889200 0.814785
0.997568 0.902045 0.829194
0.167294 1.023695 0.752999
0.196694 1.023457 0.751593
0.355708 1.022509 0.753485
0.658525 1.019639 0.789593
0.946552 1.024576 0.846354
0.999639 1.029581 0.844894
0.279499 -0.604008 0.995576
0.350903 -0.605079 0.995512
0.454712 -0.604019 0.994223
0.633385 -0.604965 0.992113
0.894193 -0.611300 0.989474
1.000032 -0.611644 0.980001
-0.183299 0.110059 0.986439
-0.156826 -0.114023 0.986224
0.296326 -0.090299 0.983987
0.569056 -0.117986 0.980186
0.883211 -0.178036 0.976800
1.000002 -0.196105 0.965607
-0.249581 0.373031 0.988161
-0.227719 0.357521 0.987823
0.193552 0.306277 0.985873
0.537834 0.302194 0.979997
0.872195 0.269593 0.975992
0.999984 0.252116 0.963341
-0.358702 0.609697 0.989494
-0.344956 0.602506 0.989426
-0.227924 0.580285 0.988779
0.542146 0.600429 0.981694
0.873046 0.578852 0.972400
0.999844 0.576744 0.956712
-0.471445 0.864761 0.981083
-0.463189 0.861696 0.981242
-0.399632 0.853185 0.981640
0.390647 0.853352 0.979567
0.919605 0.892960 0.960296
0.999018 0.890867 0.951311
-0.509540 0.998811 0.948824
-0.502372 0.998820 0.948693
-0.442013 0.998750 0.947691
0.369318 0.998261 0.945460
0.921014 0.996204 0.957521
0.999017 0.996277 0.962981
