OFX Video Plug-Ins/Vfx1.ofx.bundle/Contents/Resources/AutoLooks/15.cube
LUT_3D_SIZE 16
-0.087445 -0.077817 -0.057127
-0.049717 -0.082466 -0.065567
0.053689 -0.055317 -0.035950
0.102412 -0.026820 0.060993
0.154414 0.046831 0.094038
0.211850 0.068071 0.116733
0.276973 0.085101 0.136718
0.351735 0.101076 0.156142
0.437743 0.117336 0.176114
0.538725 0.134931 0.197771
0.649788 0.153101 0.219935
0.759002 0.171314 0.242015
0.859146 0.189113 0.263450
0.938314 0.205513 0.283072
0.976302 0.220068 0.300278
0.994516 0.235772 0.318526
-0.094945 -0.051482 -0.071286
-0.061255 -0.056393 -0.077022
0.051648 -0.058116 -0.044251
0.100957 -0.028241 0.054917
0.153920 0.049459 0.092482
0.211669 0.070541 0.116068
0.276884 0.087458 0.136501
0.351688 0.103336 0.156171
0.437754 0.119417 0.176227
0.538642 0.136861 0.197894
0.649777 0.155149 0.220447
0.758809 0.173125 0.242462
0.859053 0.190648 0.263731
0.938388 0.206901 0.283360
0.976304 0.221278 0.300490
0.994536 0.236645 0.318687
-0.053813 0.085453 0.053254
-0.049203 0.084202 0.048259
0.067252 0.088699 0.060977
0.100152 0.083042 0.073915
0.151216 0.099523 0.102174
0.209430 0.113457 0.123631
0.275116 0.126646 0.142988
0.350241 0.139887 0.161925
0.436704 0.153636 0.181452
0.537914 0.168820 0.202738
0.649122 0.184528 0.224814
0.758613 0.199931 0.246495
0.858473 0.214919 0.267482
0.938108 0.228696 0.286723
0.976248 0.240712 0.303456
0.994492 0.253247 0.321304
-0.045834 0.139508 0.096120
-0.043746 0.139397 0.095392
0.061272 0.138916 0.099290
0.108003 0.138840 0.109692
0.154443 0.151842 0.122506
0.209774 0.165400 0.139567
0.273540 0.178454 0.156286
0.348241 0.191546 0.173410
0.435020 0.204767 0.191842
0.536610 0.218745 0.212344
0.648381 0.232680 0.233643
0.757648 0.245712 0.254855
0.857770 0.257792 0.275155
0.937678 0.268308 0.293725
0.976033 0.277013 0.309835
0.994404 0.285098 0.326716
0.011363 0.200206 0.126141
0.024635 0.200344 0.125851
0.077866 0.199941 0.129644
0.122793 0.199291 0.137231
0.156407 0.197448 0.141040
0.213009 0.217596 0.153290
0.277641 0.232826 0.169325
0.349972 0.247414 0.188334
0.434659 0.262136 0.207381
0.535599 0.277054 0.227400
0.647202 0.290607 0.247832
0.756776 0.302047 0.267915
0.857415 0.311800 0.287105
0.937498 0.319497 0.304594
0.975947 0.324840 0.319573
0.994331 0.328559 0.335452
0.064175 0.267004 0.154814
0.066844 0.267192 0.154485
0.098286 0.266964 0.157910
0.139193 0.266718 0.164108
0.177654 0.267007 0.168781
0.212925 0.263822 0.170405
0.279940 0.288419 0.183774
0.355154 0.305786 0.200331
0.438876 0.321656 0.222995
0.537840 0.338113 0.245181
0.647843 0.352776 0.266372
0.756906 0.363952 0.285786
0.856973 0.372572 0.303973
0.937002 0.378166 0.320129
0.975760 0.380847 0.333871
0.994302 0.379631 0.347130
0.093632 0.339871 0.185140
0.095269 0.340018 0.184928
0.119640 0.339901 0.187797
0.156699 0.339758 0.192916
0.196686 0.340510 0.197686
0.238722 0.340951 0.201381
0.278492 0.336996 0.202366
0.357264 0.364738 0.217307
0.444936 0.383774 0.235576
0.543605 0.401138 0.262139
0.651815 0.416920 0.286176
0.758802 0.428630 0.306819
0.857542 0.436864 0.324499
0.937268 0.441154 0.339691
0.975804 0.441499 0.351401
0.994255 0.436406 0.362350
0.120854 0.418693 0.218292
0.122081 0.418710 0.218541
0.142406 0.418558 0.220916
0.176526 0.418579 0.225329
0.216390 0.419165 0.229970
0.260743 0.420302 0.234187
0.309001 0.421178 0.237877
0.355263 0.416740 0.238189
0.447785 0.446569 0.254522
0.550897 0.467152 0.276743
0.658810 0.483502 0.304979
0.764443 0.495673 0.328185
0.861251 0.503798 0.346953
0.938610 0.506995 0.361204
0.975983 0.505430 0.371524
0.994267 0.496727 0.380167
0.148663 0.502940 0.255228
0.149729 0.502977 0.255363
0.167315 0.502919 0.257417
0.198822 0.502978 0.261417
0.238314 0.503471 0.266147
0.282944 0.504631 0.270279
0.334085 0.506363 0.274970
0.390098 0.507332 0.278566
0.445380 0.502958 0.278349
0.555203 0.534697 0.296368
0.667747 0.553765 0.321787
0.772403 0.565779 0.348250
0.867716 0.573317 0.368135
0.941560 0.575263 0.382532
0.977043 0.572103 0.392542
0.994477 0.560033 0.399720
0.178919 0.594172 0.296389
0.179874 0.594145 0.296528
0.195381 0.594234 0.298356
0.224491 0.594280 0.301948
0.263133 0.594725 0.306757
0.307753 0.595869 0.310997
0.359743 0.597529 0.315797
0.419591 0.599777 0.320625
0.485907 0.601214 0.323929
0.553964 0.597873 0.323542
0.674000 0.626338 0.340375
0.781509 0.639614 0.364013
0.876349 0.646240 0.386249
0.946138 0.646716 0.402069
0.978898 0.641533 0.412440
0.994837 0.626124 0.419449
0.211303 0.688744 0.339907
0.212175 0.688770 0.340030
0.225879 0.688756 0.341605
0.252591 0.688881 0.344877
0.289662 0.689397 0.349309
0.333557 0.690304 0.353470
0.385597 0.691877 0.357876
0.446127 0.693910 0.362454
0.515991 0.696567 0.366177
0.593920 0.698593 0.367568
0.675398 0.697150 0.366374
0.789670 0.716285 0.379175
0.885819 0.722662 0.399929
0.951502 0.721421 0.418037
0.981249 0.713970 0.429953
0.995527 0.694838 0.437728
0.243341 0.780637 0.379921
0.244039 0.780611 0.380001
0.256115 0.780565 0.381312
0.280303 0.780943 0.384081
0.314912 0.781197 0.387905
0.357456 0.781987 0.391577
0.408417 0.783419 0.395423
0.468411 0.785262 0.399413
0.538151 0.787749 0.402906
0.617938 0.790762 0.404741
0.704625 0.793487 0.404398
0.794419 0.794602 0.403636
0.894548 0.802778 0.412731
0.957053 0.799750 0.429489
0.983918 0.789864 0.443653
0.996339 0.766440 0.453762
0.273624 0.867185 0.415085
0.274240 0.867352 0.415170
0.284945 0.867371 0.416315
0.306718 0.867461 0.418560
0.338782 0.867769 0.421872
0.379222 0.868729 0.425054
0.428494 0.869989 0.428319
0.487125 0.871533 0.431858
0.555748 0.873671 0.435098
0.634032 0.876729 0.437127
0.719637 0.879713 0.437117
0.809643 0.882702 0.435599
0.903081 0.887438 0.435984
0.961749 0.881886 0.440618
0.986396 0.868095 0.453148
0.997088 0.840564 0.466097
0.301242 0.937796 0.445280
0.301833 0.937810 0.445322
0.311227 0.937772 0.446223
0.330719 0.937968 0.448149
0.360058 0.938102 0.450822
0.397936 0.938573 0.453622
0.444688 0.939256 0.456405
0.501081 0.940396 0.459590
0.567458 0.941681 0.462616
0.643352 0.943182 0.464772
0.725688 0.945228 0.465265
0.812641 0.947066 0.463955
0.901853 0.949634 0.461986
0.968205 0.954513 0.463517
0.988766 0.941707 0.463259
0.997869 0.915595 0.474440
0.324868 0.973681 0.470005
0.325378 0.973667 0.470113
0.333817 0.973662 0.470893
0.351273 0.973786 0.472487
0.377962 0.973930 0.474792
0.413049 0.974095 0.477051
0.456973 0.974550 0.479565
0.510212 0.974917 0.482263
0.573356 0.975623 0.485128
0.645678 0.976396 0.487303
0.724673 0.977289 0.488356
0.807722 0.978335 0.487626
0.892480 0.979321 0.485555
0.959208 0.980837 0.483360
0.992184 0.984519 0.486062
0.998595 0.967872 0.482190
0.406459 1.011896 0.549068
0.406874 1.011885 0.549043
0.413913 1.011776 0.549425
0.428880 1.011822 0.550217
0.451467 1.012064 0.551281
0.481362 1.012424 0.552526
0.518812 1.012854 0.554023
0.563446 1.013521 0.555951
0.615528 1.014421 0.557881
0.673849 1.015480 0.559761
0.737718 1.016833 0.561137
0.807394 1.018486 0.561861
0.880866 1.020350 0.561400
0.947046 1.022413 0.559301
0.984723 1.026231 0.555891
0.999628 1.032026 0.550011
0.301550 -0.598477 0.311252
0.307870 -0.598750 0.310717
0.315799 -0.597513 0.310173
0.330826 -0.596889 0.312416
0.364558 -0.596707 0.313563
0.029440 -0.569031 -0.213560
0.186912 -0.567963 -0.208921
0.286198 -0.566703 -0.203406
0.387660 -0.565219 -0.196431
0.500942 -0.563235 -0.187043
0.623531 -0.560873 -0.174953
0.742128 -0.558041 -0.159505
0.847464 -0.554985 -0.140061
0.930456 -0.551835 -0.115867
0.970551 -0.548937 -0.085290
0.991359 -0.545517 0.075862
-0.096239 -0.051975 -0.020774
-0.065014 -0.059906 -0.041857
0.056542 0.026465 0.080938
0.105811 0.053562 0.111769
0.159285 0.067726 0.128482
0.215365 0.081302 0.141809
0.279448 0.094444 0.156407
0.353334 0.107809 0.172108
0.439069 0.122088 0.189196
0.539697 0.138240 0.208450
0.650391 0.155784 0.229214
0.759355 0.173750 0.250335
0.859557 0.191351 0.270877
0.938653 0.207703 0.289698
0.976409 0.222284 0.306277
0.994476 0.238021 0.324044
-0.066991 0.087240 0.063653
-0.043718 0.086821 0.108535
0.047071 0.086307 0.104655
0.103230 0.093755 0.115787
0.156325 0.106141 0.129484
0.212512 0.117940 0.143511
0.277174 0.129694 0.158876
0.351644 0.141862 0.175078
0.437834 0.154815 0.192579
0.538734 0.169241 0.212010
0.649758 0.184691 0.232775
0.759153 0.200082 0.253662
0.858943 0.215226 0.274039
0.938440 0.229100 0.292547
0.976302 0.241320 0.308820
0.994549 0.254115 0.326143
-0.059416 0.140440 0.102023
-0.065129 0.143150 0.130390
0.019869 0.142342 0.125942
0.092099 0.140041 0.129281
0.154614 0.155185 0.142891
0.210028 0.168708 0.156174
0.274305 0.180902 0.169969
0.349135 0.193104 0.185147
0.435863 0.205662 0.201894
0.537163 0.219337 0.221001
0.648686 0.233081 0.241369
0.758142 0.245936 0.261765
0.858211 0.258031 0.281359
0.937982 0.268630 0.299349
0.976206 0.277505 0.314922
0.994454 0.285885 0.331468
-0.043482 0.200915 0.130662
-0.049407 0.203029 0.145435
0.063412 0.202181 0.144837
0.118042 0.200864 0.150684
0.156168 0.196786 0.156605
0.213191 0.219037 0.168351
0.277722 0.234427 0.182473
0.350044 0.248737 0.199336
0.435005 0.263064 0.216581
0.536066 0.277570 0.235265
0.647621 0.290953 0.254905
0.757179 0.302390 0.274390
0.857559 0.312092 0.292952
0.937717 0.319749 0.309848
0.975995 0.325215 0.324433
0.994333 0.329334 0.340034
0.050426 0.267496 0.158985
0.052794 0.268813 0.167912
0.092032 0.268259 0.168882
0.137592 0.267684 0.175035
0.179027 0.267198 0.181348
0.212954 0.263623 0.182836
0.279999 0.289179 0.195367
0.355289 0.306587 0.210677
0.438931 0.322322 0.231618
0.537888 0.338655 0.252647
0.648039 0.353121 0.272996
0.756743 0.364219 0.291711
0.857178 0.372850 0.309200
0.937182 0.378368 0.324943
0.975800 0.381183 0.338280
0.994302 0.380228 0.351356
0.086681 0.340211 0.189272
0.090054 0.341052 0.195178
0.116418 0.340752 0.196541
0.155915 0.340443 0.201863
0.197910 0.340704 0.207705
0.239587 0.341235 0.211338
0.278586 0.336961 0.212181
0.357424 0.365217 0.226344
0.444971 0.384118 0.243912
0.543569 0.401554 0.269333
0.651862 0.417274 0.292285
0.759074 0.428949 0.312112
0.857845 0.437146 0.329329
0.937379 0.441379 0.343985
0.975826 0.441892 0.355528
0.994261 0.436875 0.366188
0.116453 0.418969 0.222315
0.119333 0.419275 0.226530
0.140486 0.419100 0.227943
0.175953 0.418948 0.232633
0.217378 0.419313 0.238088
0.261553 0.420543 0.242246
0.309392 0.421199 0.245840
0.355308 0.416787 0.246209
0.447704 0.446765 0.262005
0.550915 0.467445 0.283447
0.658881 0.483772 0.310693
0.764432 0.495906 0.333019
0.861239 0.504050 0.351244
0.938593 0.507208 0.365201
0.976057 0.505718 0.375232
0.994254 0.497176 0.383647
0.145573 0.503110 0.258964
0.147981 0.503344 0.262063
0.165968 0.503194 0.263402
0.198367 0.503170 0.267602
0.238916 0.503488 0.272828
0.283598 0.504597 0.277095
0.334617 0.506302 0.281586
0.390392 0.507275 0.285093
0.445355 0.502922 0.284781
0.555100 0.534769 0.302195
0.667569 0.553993 0.326889
0.772403 0.565947 0.352671
0.867700 0.573497 0.372009
0.941590 0.575519 0.386138
0.977082 0.572320 0.395929
0.994505 0.560419 0.402915
0.176749 0.594358 0.299735
0.178632 0.594361 0.301711
0.194337 0.594450 0.303170
0.224058 0.594416 0.306846
0.263408 0.594786 0.311878
0.308282 0.595946 0.316242
0.360316 0.597491 0.320950
0.419903 0.599768 0.325683
0.486100 0.601215 0.328861
0.553961 0.597813 0.328407
0.673978 0.626481 0.344769
0.781588 0.639695 0.368010
0.876313 0.646334 0.389821
0.946144 0.646912 0.405304
0.978915 0.641746 0.415425
0.994835 0.626413 0.422351
0.209757 0.688826 0.342756
0.211292 0.688991 0.344025
0.225113 0.688974 0.345431
0.252179 0.689038 0.348718
0.289698 0.689452 0.353300
0.334038 0.690316 0.357635
0.386024 0.691826 0.362009
0.446440 0.693920 0.366438
0.516139 0.696576 0.370129
0.594134 0.698596 0.371405
0.675254 0.697134 0.370231
0.789626 0.716258 0.382623
0.885824 0.722945 0.403147
0.951497 0.721482 0.420991
0.981259 0.714203 0.432764
0.995531 0.695030 0.440421
0.242224 0.780818 0.382378
0.243541 0.780642 0.383221
0.255638 0.780788 0.384372
0.280000 0.781007 0.387175
0.314997 0.781233 0.391171
0.357646 0.782069 0.394886
0.408682 0.783442 0.398724
0.468676 0.785279 0.402686
0.538452 0.787765 0.406076
0.618099 0.790776 0.407944
0.704552 0.793502 0.407477
0.794435 0.794589 0.406604
0.894562 0.802821 0.415629
0.957072 0.800165 0.432150
0.983926 0.789842 0.446296
0.996344 0.766680 0.456216
0.272840 0.867331 0.417146
0.274082 0.867502 0.417850
0.284719 0.867477 0.418870
0.306526 0.867431 0.421158
0.338904 0.867831 0.424524
0.379585 0.868793 0.427818
0.428695 0.869967 0.431048
0.487383 0.871484 0.434584
0.555955 0.873708 0.437747
0.634228 0.876562 0.439786
0.719775 0.879773 0.439726
0.809766 0.882755 0.438109
0.903027 0.887409 0.438478
0.961776 0.881875 0.443004
0.986473 0.868489 0.455436
0.997164 0.840703 0.468258
0.300670 0.937856 0.446953
0.301773 0.937901 0.447702
0.311106 0.937850 0.448504
0.330781 0.938001 0.450425
0.360257 0.938150 0.453208
0.398273 0.938599 0.455956
0.444995 0.939278 0.458755
0.501338 0.940338 0.461954
0.567741 0.941699 0.464845
0.643387 0.943196 0.467003
0.725948 0.945244 0.467489
0.812865 0.947081 0.466119
0.902006 0.949641 0.464077
0.968180 0.954493 0.465607
0.988777 0.941689 0.465335
0.997877 0.915720 0.476546
0.324451 0.973678 0.471506
0.325647 0.973715 0.472273
0.333912 0.973704 0.472868
0.351507 0.973792 0.474466
0.378237 0.973865 0.476807
0.413405 0.974114 0.479238
0.457337 0.974472 0.481649
0.510543 0.974933 0.484353
0.573661 0.975638 0.487172
0.645988 0.976409 0.489353
0.724687 0.977300 0.490312
0.807707 0.978344 0.489652
0.892454 0.979374 0.487505
0.959163 0.980844 0.485323
0.992172 0.984512 0.487995
0.998596 0.967905 0.484216
0.406163 1.011840 0.549385
0.407605 1.011860 0.550008
0.414567 1.011775 0.550338
0.429385 1.011837 0.551178
0.451982 1.012079 0.552200
0.481953 1.012439 0.553316
0.519312 1.012869 0.554690
0.564122 1.013535 0.556379
0.615944 1.014434 0.558269
0.674318 1.015493 0.559994
0.738204 1.016847 0.561342
0.807265 1.018494 0.562034
0.881226 1.020360 0.561466
0.947181 1.022420 0.559405
0.984761 1.026235 0.556066
0.999628 1.032022 0.550237
0.303737 -0.597799 0.321032
0.302556 -0.598019 0.320572
0.315773 -0.597566 0.322407
0.330290 -0.596909 0.322008
0.364048 -0.596734 0.324236
0.027779 -0.569000 -0.202546
0.186681 -0.567932 -0.195919
0.286035 -0.566673 -0.188142
0.387572 -0.565184 -0.178611
0.500939 -0.563201 -0.166000
0.623479 -0.560813 -0.149873
0.742198 -0.558009 -0.129002
0.847498 -0.554919 -0.100570
0.930493 -0.551765 -0.043687
0.970738 -0.549145 0.115782
0.991658 -0.546120 0.164149
-0.086262 -0.072586 0.120318
-0.046699 -0.039150 0.116268
0.055738 0.022425 0.132215
0.104912 0.054772 0.154482
0.162507 0.066652 0.175482
0.223736 0.076286 0.188956
0.286957 0.091586 0.199777
0.359289 0.107256 0.212746
0.443543 0.123112 0.227656
0.543187 0.140306 0.244670
0.653250 0.158409 0.262740
0.761468 0.176556 0.280708
0.861370 0.194073 0.298104
0.939656 0.210247 0.313733
0.976872 0.224496 0.327307
0.994650 0.240056 0.341691
-0.083989 0.089764 0.153694
-0.046185 0.085109 0.150587
0.046108 0.084718 0.150875
0.102850 0.088759 0.154135
0.161466 0.090398 0.161154
0.218881 0.095906 0.164891
0.281620 0.105245 0.173321
0.354890 0.115793 0.185114
0.440005 0.127942 0.199339
0.540329 0.142350 0.216326
0.651015 0.158698 0.235393
0.759935 0.175878 0.255234
0.859540 0.193140 0.275032
0.938782 0.209624 0.293710
0.976506 0.224357 0.310166
0.994508 0.240241 0.327756
-0.088615 0.143721 0.154713
-0.074469 0.143162 0.172107
-0.053731 0.143161 0.165456
0.084522 0.141466 0.169371
0.154817 0.152335 0.171538
0.213797 0.161918 0.175908
0.277529 0.171738 0.186461
0.351685 0.182238 0.199301
0.437744 0.193542 0.214053
0.538728 0.206241 0.231158
0.649926 0.219605 0.249886
0.759067 0.232662 0.268897
0.859251 0.245428 0.287639
0.938386 0.257047 0.305035
0.976319 0.267047 0.320200
0.994452 0.277117 0.336421
-0.095615 0.205666 0.165796
-0.096293 0.207369 0.181993
-0.067240 0.205778 0.166318
0.088551 0.204769 0.171571
0.149084 0.200179 0.175062
0.213382 0.217103 0.187825
0.277107 0.230524 0.199653
0.349885 0.243279 0.213123
0.435558 0.255984 0.227708
0.536904 0.269252 0.244465
0.648574 0.281880 0.262705
0.757989 0.292974 0.280956
0.858307 0.302861 0.298789
0.937993 0.311226 0.315465
0.976053 0.317640 0.329868
0.994413 0.322267 0.344752
-0.077510 0.271040 0.184174
-0.079412 0.272656 0.194994
0.036062 0.270615 0.180286
0.118905 0.269927 0.188432
0.175467 0.268182 0.196909
0.214356 0.264764 0.200527
0.280229 0.287619 0.211146
0.354962 0.303484 0.224979
0.438541 0.318151 0.243190
0.537604 0.333511 0.261795
0.648373 0.347126 0.280229
0.757354 0.357731 0.297824
0.857435 0.366115 0.314707
0.937460 0.371800 0.329882
0.975990 0.374916 0.342920
0.994389 0.374611 0.355783
-0.014475 0.342601 0.210362
0.015164 0.343805 0.218454
0.087430 0.342199 0.204053
0.141789 0.341760 0.212731
0.193693 0.341257 0.220700
0.238746 0.341550 0.225526
0.279712 0.337902 0.226801
0.357722 0.363890 0.238971
0.444818 0.381676 0.255366
0.543230 0.398243 0.278461
0.651554 0.413177 0.299594
0.758571 0.424390 0.318126
0.858065 0.432189 0.334419
0.937444 0.436364 0.348549
0.975866 0.436990 0.359744
0.994256 0.432431 0.370268
0.090472 0.420556 0.241102
0.094040 0.421106 0.247819
0.119118 0.420017 0.233150
0.163945 0.419851 0.241585
0.212158 0.419586 0.248545
0.259343 0.420574 0.253606
0.308666 0.421555 0.257425
0.356172 0.417531 0.257992
0.447936 0.445693 0.271886
0.550697 0.465282 0.292351
0.658430 0.481068 0.317953
0.764161 0.492681 0.338966
0.861222 0.500520 0.356302
0.938657 0.503485 0.369489
0.976032 0.501986 0.379196
0.994291 0.493540 0.387468
0.129835 0.504399 0.275742
0.133508 0.504654 0.281513
0.148388 0.503782 0.266887
0.187428 0.503783 0.274759
0.232895 0.503766 0.280989
0.280390 0.504704 0.286107
0.332624 0.506384 0.290663
0.389624 0.507575 0.294260
0.446063 0.503571 0.294228
0.555202 0.533819 0.310121
0.667488 0.552234 0.333933
0.772142 0.563686 0.358410
0.867229 0.570914 0.376878
0.941469 0.572721 0.390334
0.977051 0.569470 0.399732
0.994516 0.557695 0.406443
0.166321 0.595181 0.314447
0.169990 0.595514 0.319045
0.179223 0.594799 0.305536
0.214052 0.594795 0.312684
0.256957 0.594974 0.318287
0.304387 0.595898 0.323509
0.357572 0.597415 0.328206
0.418100 0.599836 0.332985
0.485254 0.601461 0.336152
0.554623 0.598336 0.335837
0.674019 0.625653 0.350959
0.781669 0.638198 0.373567
0.875954 0.644454 0.394505
0.945872 0.644806 0.409419
0.978776 0.639518 0.419159
0.994919 0.624198 0.425785
0.202710 0.689590 0.355252
0.206101 0.689738 0.358973
0.211901 0.689112 0.346873
0.243078 0.689243 0.353216
0.283155 0.689558 0.358262
0.329680 0.690299 0.363258
0.382623 0.691765 0.367625
0.444010 0.693878 0.372135
0.514329 0.696596 0.375768
0.593308 0.698719 0.377105
0.675933 0.697592 0.375897
0.789630 0.715597 0.387639
0.885719 0.721658 0.407580
0.951449 0.720081 0.424929
0.981256 0.712466 0.436283
0.995506 0.693290 0.443673
0.237486 0.781246 0.392850
0.240681 0.781278 0.395942
0.244106 0.780963 0.385435
0.271899 0.781161 0.390775
0.308680 0.781306 0.395089
0.353305 0.781968 0.399420
0.405073 0.783388 0.403219
0.465712 0.785223 0.407198
0.536050 0.787716 0.410633
0.616514 0.790793 0.412530
0.703833 0.793503 0.412021
0.794971 0.795038 0.411111
0.894432 0.802443 0.419641
0.957024 0.798869 0.435901
0.983932 0.788738 0.449641
0.996348 0.765289 0.459349
0.269694 0.867874 0.426072
0.272726 0.867766 0.428665
0.274721 0.867589 0.419658
0.299358 0.867493 0.424169
0.333040 0.868197 0.427759
0.375039 0.868705 0.431600
0.424883 0.869995 0.434777
0.484197 0.871465 0.438292
0.553258 0.873606 0.441538
0.632360 0.876590 0.443534
0.718430 0.879285 0.443493
0.808991 0.882937 0.441872
0.903390 0.887843 0.442187
0.961730 0.881347 0.446464
0.986448 0.867677 0.458776
0.997176 0.839508 0.471445
0.298506 0.938030 0.454612
0.301372 0.938053 0.456879
0.302502 0.937953 0.449223
0.324553 0.938056 0.453056
0.354926 0.938122 0.455959
0.394045 0.938632 0.459152
0.441215 0.939207 0.461996
0.498110 0.940344 0.465080
0.564951 0.941707 0.468109
0.641186 0.943232 0.470270
0.724416 0.945238 0.470780
0.811490 0.947089 0.469432
0.901353 0.949596 0.467364
0.968316 0.954599 0.468653
0.988774 0.941647 0.468395
0.997863 0.915256 0.479491
0.323013 0.973726 0.478035
0.325716 0.973801 0.480210
0.326501 0.973711 0.473659
0.346126 0.973845 0.476852
0.373491 0.973943 0.479297
0.409525 0.974127 0.481987
0.453787 0.974473 0.484454
0.507443 0.974895 0.487146
0.570893 0.975592 0.490013
0.643626 0.976369 0.492203
0.723063 0.977271 0.493187
0.806432 0.978329 0.492517
0.891677 0.979377 0.490369
0.959165 0.980857 0.488079
0.992223 0.984581 0.490689
0.998594 0.967716 0.486917
0.405513 1.011845 0.553481
0.408013 1.011881 0.554945
0.408521 1.011826 0.550150
0.424474 1.011778 0.551750
0.447544 1.012024 0.552697
0.477689 1.012380 0.553600
0.515359 1.012813 0.554749
0.560364 1.013481 0.556220
0.612573 1.014382 0.557856
0.671285 1.015443 0.559379
0.735659 1.016801 0.560558
0.805452 1.018467 0.561089
0.879658 1.020332 0.560612
0.946437 1.022406 0.558704
0.984579 1.026254 0.555412
0.999632 1.032056 0.549757
0.305310 -0.597386 0.337922
0.304854 -0.597589 0.338274
0.315515 -0.597515 0.339901
0.334172 -0.596939 0.341622
0.367022 -0.596817 0.345424
0.048430 -0.568877 -0.175866
0.189465 -0.567798 -0.163611
0.287800 -0.566578 -0.148843
0.388962 -0.565057 -0.129834
0.501993 -0.563101 -0.101725
0.626311 -0.561139 0.080250
0.746350 -0.558962 0.152690
0.852561 -0.556297 0.191275
0.934280 -0.553489 0.217492
0.972551 -0.550844 0.234842
0.992296 -0.547552 0.250711
-0.081581 -0.067839 0.202808
-0.036982 -0.018874 0.201685
0.059832 0.027085 0.205799
0.103478 0.052262 0.208804
0.161428 0.063701 0.231603
0.226622 0.067218 0.249220
0.297312 0.071034 0.261725
0.369956 0.088589 0.269552
0.452227 0.108777 0.279545
0.549793 0.129338 0.292677
0.658188 0.149972 0.307104
0.765627 0.169908 0.321357
0.864623 0.188735 0.335054
0.941466 0.205803 0.347003
0.977604 0.220843 0.357102
0.994873 0.237172 0.367241
-0.082870 0.071247 0.212233
-0.052592 0.090871 0.216597
0.039562 0.081247 0.214859
0.100677 0.087651 0.214068
0.160109 0.092147 0.229286
0.225919 0.093259 0.242137
0.295286 0.097517 0.250676
0.366954 0.111485 0.257364
0.449579 0.127378 0.267575
0.547655 0.144512 0.280829
0.656618 0.162358 0.295674
0.764358 0.180275 0.310484
0.863392 0.197703 0.324868
0.940773 0.213890 0.338054
0.977437 0.228201 0.349258
0.994786 0.243734 0.360882
-0.093145 0.142352 0.226042
-0.077511 0.141268 0.225566
-0.057162 0.140906 0.226675
0.083819 0.140157 0.227439
0.155637 0.139816 0.222208
0.223381 0.136397 0.220681
0.287628 0.139007 0.217766
0.358911 0.145691 0.221776
0.442791 0.154091 0.230553
0.542231 0.165089 0.242955
0.652477 0.178421 0.258270
0.760749 0.193221 0.275190
0.860502 0.208742 0.292592
0.939167 0.223827 0.309537
0.976695 0.237794 0.324729
0.994584 0.252895 0.341080
-0.122603 0.208141 0.234834
-0.113963 0.208057 0.242808
-0.104029 0.208238 0.238942
-0.061222 0.208288 0.224842
0.130963 0.205187 0.228833
0.213603 0.212270 0.228165
0.279698 0.221000 0.230464
0.353091 0.230073 0.239372
0.438812 0.239862 0.250626
0.539591 0.251010 0.264433
0.650643 0.262466 0.279934
0.759793 0.273392 0.296115
0.859795 0.283815 0.312273
0.938729 0.293106 0.327383
0.976493 0.300844 0.340731
0.994505 0.308034 0.354916
-0.138633 0.277678 0.238137
-0.136912 0.278644 0.247011
-0.123407 0.278179 0.238931
-0.057228 0.275482 0.216299
0.142994 0.273855 0.224842
0.213157 0.268099 0.230997
0.280579 0.284265 0.242194
0.354186 0.297232 0.253149
0.437878 0.309633 0.266244
0.538095 0.322648 0.280605
0.649282 0.334493 0.295970
0.758592 0.344203 0.311489
0.858553 0.352353 0.326702
0.938125 0.358384 0.340741
0.976281 0.362239 0.352983
0.994550 0.363506 0.365485
-0.123767 0.348436 0.250255
-0.123308 0.349358 0.257053
-0.101051 0.348515 0.249476
0.081118 0.345312 0.229559
0.170768 0.344324 0.242069
0.236059 0.342543 0.252435
0.281973 0.339791 0.255277
0.357982 0.361401 0.264725
0.444361 0.376548 0.278871
0.542373 0.391603 0.297578
0.650891 0.405076 0.315146
0.758988 0.415190 0.330969
0.858700 0.422323 0.345500
0.937923 0.426391 0.358509
0.976130 0.427370 0.369073
0.994415 0.423737 0.379244
-0.091232 0.424797 0.273868
-0.088967 0.425526 0.279278
-0.040145 0.424599 0.272709
