OFX Video Plug-Ins/Vfx1.ofx.bundle/Contents/Resources/AutoLooks/16.cube
LUT_3D_SIZE 6
-0.014555 0.009696 0.079076
0.122041 0.029504 0.208393
0.373071 0.111698 0.178541
0.645722 0.184332 0.251982
0.847940 0.242523 0.315643
0.950525 0.374912 0.442077
-0.052805 0.114258 0.155787
0.085443 0.105662 0.147021
0.346688 0.142499 0.162778
0.633589 0.205031 0.244412
0.841180 0.261356 0.313081
0.951348 0.395440 0.444789
0.053871 0.288463 0.126996
0.105959 0.286744 0.127649
0.311168 0.278808 0.150932
0.604321 0.326706 0.238087
0.822472 0.373672 0.311577
0.955592 0.485892 0.458241
0.111650 0.539276 0.184045
0.143414 0.538409 0.185299
0.349016 0.533831 0.211847
0.594958 0.528766 0.265003
0.812012 0.569470 0.336975
0.967961 0.636121 0.484775
0.166506 0.782470 0.249268
0.192204 0.781956 0.250484
0.380145 0.778660 0.270550
0.631714 0.774044 0.323557
0.813245 0.769207 0.367606
0.988495 0.810620 0.516739
0.475572 1.107893 0.476018
0.499194 1.107319 0.478389
0.593055 1.106298 0.492079
0.725507 1.104566 0.515365
0.859666 1.103445 0.543271
1.017841 1.097743 0.560282
0.331577 -0.594985 0.419907
0.381264 -0.597828 0.405445
0.264666 -0.547107 -0.160610
0.620441 -0.526934 0.156526
0.843518 -0.497360 0.267343
0.943899 -0.317637 0.426460
-0.084942 0.101338 0.301377
0.084154 0.105159 0.316133
0.354418 0.127791 0.250375
0.649620 0.197568 0.291181
0.859700 0.256189 0.343498
0.952272 0.414020 0.467171
-0.094306 0.291455 0.260387
0.003716 0.272385 0.184479
0.281282 0.256753 0.192926
0.605787 0.316183 0.271348
0.831690 0.368828 0.340108
0.956485 0.499454 0.478655
0.075385 0.540377 0.274278
0.106261 0.530360 0.209904
0.319683 0.525042 0.236986
0.580845 0.514852 0.280145
0.814200 0.566442 0.356680
0.967130 0.645015 0.505781
0.152060 0.782982 0.308746
0.166512 0.781720 0.269816
0.354383 0.778005 0.290743
0.623138 0.771612 0.339358
0.808766 0.764045 0.379569
0.988352 0.814532 0.536696
0.472485 1.107555 0.480284
0.530898 1.106880 0.502060
0.615520 1.105929 0.514473
0.737172 1.104460 0.535445
0.864220 1.103534 0.561030
1.017842 1.097714 0.574845
0.333452 -0.594177 0.612609
0.375626 -0.598037 0.606346
0.514845 -0.615702 0.591979
0.612615 -0.529842 0.360335
0.837826 -0.497556 0.394297
0.944023 -0.315885 0.476313
-0.125324 0.099648 0.498663
0.007842 0.073329 0.492111
0.410460 -0.155623 0.475844
0.645411 0.194613 0.413328
0.854474 0.257163 0.441152
0.952325 0.411955 0.511859
-0.171180 0.289080 0.427379
-0.161802 0.269448 0.420019
0.359852 0.284720 0.447215
0.594689 0.311997 0.398082
0.847062 0.372369 0.439588
0.960475 0.556762 0.564796
-0.120678 0.542039 0.396786
-0.107468 0.533371 0.386113
0.226815 0.507878 0.355398
0.546803 0.482116 0.370511
0.822849 0.558878 0.430164
0.969904 0.677987 0.584544
0.101056 0.783767 0.409202
0.120983 0.782673 0.400754
0.247561 0.777242 0.364878
0.592447 0.764765 0.402108
0.793716 0.746713 0.431110
0.988182 0.830635 0.618643
0.463147 1.107545 0.511392
0.521002 1.106841 0.531089
0.689157 1.104761 0.609102
0.779003 1.104182 0.623973
0.881485 1.104091 0.641992
1.017903 1.097636 0.642340
0.339858 -0.585970 0.855594
0.356873 -0.589243 0.849755
0.549284 -0.612487 0.823773
0.686704 -0.580026 0.621813
0.842250 -0.508369 0.562981
0.947881 -0.316768 0.578653
-0.168231 0.066732 0.751472
-0.066678 -0.054126 0.747586
0.474525 -0.207927 0.750838
0.687400 -0.131922 0.604345
0.859559 0.239456 0.592712
0.953514 0.414681 0.609425
-0.226403 0.322177 0.651211
-0.217506 0.312887 0.662957
0.363441 0.281883 0.650683
0.631193 0.249188 0.559621
0.851648 0.358501 0.583725
0.960697 0.553637 0.648419
-0.219372 0.542048 0.552325
-0.214122 0.531295 0.544715
0.082355 0.501381 0.525758
0.610063 0.545479 0.551428
0.813035 0.582861 0.582755
0.976239 0.737034 0.721733
-0.153784 0.785614 0.547916
-0.140030 0.783925 0.542094
0.198864 0.777189 0.520841
0.597474 0.755551 0.540794
0.780038 0.730285 0.538309
0.991514 0.858282 0.747214
0.439486 1.108021 0.583924
0.501138 1.107362 0.599306
0.674810 1.105184 0.661931
0.836843 1.104754 0.757541
0.909244 1.105645 0.770685
1.018143 1.097621 0.765407
0.300181 -0.567249 1.141714
0.338506 -0.571837 1.141526
0.563870 -0.601480 1.145014
0.852645 -0.650396 1.105782
0.956034 -0.606794 0.908620
0.992021 -0.372604 0.764994
-0.200195 -0.085743 1.056941
0.127088 -0.083952 1.050699
0.502950 -0.229091 1.059734
0.818414 -0.348789 1.048904
0.943029 -0.264267 0.885739
0.986892 0.383957 0.772254
-0.288610 0.341800 0.990386
-0.275986 0.334697 1.024436
0.445712 0.326637 0.998937
0.773124 0.125068 0.996874
0.942256 0.083067 0.885671
0.983710 0.542154 0.789637
-0.342175 0.583248 0.860492
-0.339686 0.583346 0.870571
-0.164530 0.578951 0.905050
0.687793 0.564464 0.874573
0.847526 0.539128 0.776818
0.981142 0.733952 0.826679
-0.297927 0.787625 0.767159
-0.293593 0.784653 0.764098
-0.224100 0.773601 0.752665
0.542630 0.749326 0.730255
0.815321 0.772303 0.756896
0.996885 0.893954 0.883881
0.366725 1.109442 0.733706
0.446267 1.108803 0.740547
0.648268 1.106477 0.770168
0.822677 1.105371 0.822507
0.935931 1.107924 0.883909
1.018392 1.097546 0.895385
0.408769 -0.491946 1.230105
0.442559 -0.495665 1.231025
0.584255 -0.513806 1.234952
0.787774 -0.547966 1.235914
0.984142 -0.576576 1.209299
1.125553 -0.545849 1.120284
0.265278 0.225442 1.180935
0.374504 0.252146 1.180966
0.552445 0.179763 1.187670
0.774899 -0.184051 1.190714
0.969335 -0.279357 1.167408
1.109775 -0.214309 1.092617
0.160383 0.397976 1.162104
0.305033 0.408685 1.162346
0.594981 0.463160 1.161616
0.778044 0.412298 1.168519
0.961332 0.366201 1.151126
1.097501 0.395404 1.081169
-0.242885 0.609849 1.118680
0.144559 0.615457 1.118804
0.527910 0.637870 1.120856
0.785787 0.685788 1.118610
0.941296 0.655051 1.116771
1.072825 0.661405 1.057925
-0.306087 0.815666 1.058008
-0.186851 0.817899 1.057718
0.480776 0.827249 1.057148
0.731603 0.843828 1.058401
0.915054 0.867456 1.059974
1.041119 0.859241 1.028287
-0.255263 1.026525 1.010232
0.073601 1.025867 1.009810
0.497445 1.022949 1.007810
0.731490 1.018194 1.004746
0.891414 1.012905 1.001695
1.008386 1.008383 1.001035
