OFX Video Plug-Ins/Vfx1.ofx.bundle/Contents/Resources/AutoLooks/16.cube
LUT_3D_SIZE 16
-0.014555 0.009696 0.079076
-0.013659 0.029470 0.134065
0.055024 0.043049 0.185559
0.122041 0.029504 0.208393
0.185995 0.055542 0.147476
0.268253 0.085239 0.153147
0.373071 0.111698 0.178541
0.474350 0.137859 0.203551
0.564890 0.162091 0.228256
0.645722 0.184332 0.251982
0.718578 0.204906 0.274514
0.785377 0.224244 0.295996
0.847940 0.242523 0.315643
0.913698 0.258317 0.327081
0.935314 0.296780 0.383651
0.950525 0.374912 0.442077
-0.020471 0.037492 0.149958
-0.016377 0.034770 0.141904
0.054336 0.046543 0.185562
0.122105 0.036376 0.205747
0.183920 0.059293 0.145539
0.266638 0.086631 0.152129
0.371824 0.112598 0.177744
0.473471 0.138570 0.202955
0.564272 0.162722 0.227826
0.645281 0.184912 0.251657
0.718229 0.205424 0.274257
0.785090 0.224781 0.295796
0.847621 0.243119 0.315759
0.913903 0.258665 0.326344
0.935359 0.297339 0.383569
0.950566 0.375589 0.442194
-0.037141 0.072825 0.178922
-0.033736 0.072197 0.176368
0.041771 0.067522 0.165325
0.111560 0.072151 0.183982
0.170172 0.083221 0.133409
0.255643 0.099370 0.144772
0.362356 0.121777 0.171818
0.466328 0.145927 0.198475
0.558916 0.169112 0.224401
0.641271 0.190763 0.249029
0.715004 0.211005 0.272262
0.782571 0.230177 0.294270
0.845286 0.248532 0.314960
0.914398 0.262627 0.321306
0.935731 0.302854 0.382817
0.950795 0.381920 0.443017
-0.052805 0.114258 0.155787
-0.050330 0.114006 0.155471
0.028362 0.111785 0.151898
0.085443 0.105662 0.147021
0.153180 0.114355 0.120122
0.239746 0.124808 0.134579
0.346688 0.142499 0.162778
0.453565 0.163373 0.191048
0.549118 0.184590 0.218516
0.633589 0.205031 0.244412
0.709103 0.224503 0.268670
0.777714 0.243213 0.291543
0.841180 0.261356 0.313081
0.909967 0.274873 0.320259
0.936713 0.314887 0.380991
0.951348 0.395440 0.444789
-0.019647 0.157028 0.110125
-0.008624 0.156926 0.110137
0.051680 0.155934 0.109337
0.094627 0.153450 0.108671
0.143452 0.148546 0.109052
0.226279 0.161351 0.126764
0.330603 0.176431 0.155080
0.438675 0.194016 0.183917
0.536731 0.212800 0.212429
0.623462 0.231513 0.239398
0.700830 0.249807 0.264700
0.771000 0.267709 0.288503
0.835427 0.285299 0.310926
0.903829 0.298235 0.319333
0.938332 0.335572 0.377783
0.952206 0.417141 0.447747
0.034557 0.216159 0.112085
0.037399 0.216056 0.112066
0.060100 0.215402 0.111813
0.099032 0.213930 0.112208
0.153455 0.211123 0.115659
0.217593 0.207039 0.119697
0.318786 0.223035 0.152143
0.425810 0.239034 0.180998
0.524850 0.255681 0.209295
0.613006 0.272607 0.236529
0.691885 0.289535 0.262361
0.763271 0.306283 0.286811
0.828878 0.322987 0.309927
0.896565 0.335899 0.320435
0.940552 0.366612 0.372935
0.953638 0.447390 0.452134
0.053871 0.288463 0.126996
0.055523 0.288429 0.127001
0.071736 0.287906 0.126963
0.105959 0.286744 0.127649
0.160272 0.284795 0.131652
0.232666 0.282048 0.141292
0.311168 0.278808 0.150932
0.417191 0.295722 0.183661
0.515905 0.311301 0.211603
0.604321 0.326706 0.238087
0.683798 0.342267 0.263627
0.756158 0.357951 0.288185
0.822472 0.373672 0.311577
0.889111 0.387100 0.325399
0.943455 0.408416 0.364643
0.955592 0.485892 0.458241
0.073097 0.368724 0.143471
0.074249 0.368709 0.143474
0.086469 0.368275 0.143581
0.115962 0.367330 0.144450
0.167498 0.365817 0.148152
0.241775 0.363617 0.158159
0.328208 0.361420 0.174929
0.411587 0.358903 0.187634
0.510794 0.375655 0.218998
0.598824 0.390374 0.245121
0.678034 0.404781 0.269750
0.750660 0.419519 0.293819
0.817456 0.434339 0.317050
0.882290 0.448173 0.334629
0.946979 0.459802 0.347118
0.958352 0.531515 0.466088
0.092459 0.453524 0.162688
0.093342 0.453511 0.162691
0.103160 0.453179 0.162898
0.128696 0.452459 0.163822
0.176874 0.451176 0.167208
0.250141 0.449244 0.176237
0.339252 0.447224 0.192911
0.428982 0.445704 0.213686
0.507647 0.443433 0.226429
0.596450 0.459550 0.256051
0.675370 0.473553 0.280590
0.747378 0.487138 0.303586
0.813793 0.500861 0.325787
0.877193 0.514443 0.346174
0.949371 0.520101 0.314376
0.962430 0.582207 0.475172
0.111650 0.539276 0.184045
0.112409 0.539241 0.184063
0.120797 0.538959 0.184311
0.143414 0.538409 0.185299
0.188405 0.537409 0.188466
0.259868 0.535818 0.196670
0.349016 0.533831 0.211847
0.441282 0.532212 0.232574
0.524489 0.531180 0.253324
0.594958 0.528766 0.265003
0.674704 0.543970 0.292820
0.746275 0.556983 0.315713
0.812012 0.569470 0.336975
0.874450 0.582223 0.357723
0.943968 0.589473 0.326284
0.967961 0.636121 0.484775
0.130314 0.622798 0.206459
0.130998 0.622773 0.206487
0.138577 0.622542 0.206740
0.159221 0.622135 0.207687
0.201536 0.621225 0.210539
0.270833 0.619868 0.217871
0.358884 0.618056 0.231454
0.451454 0.616222 0.250492
0.536483 0.614990 0.271368
0.610639 0.614048 0.290390
0.673998 0.611482 0.301222
0.746433 0.625766 0.327700
0.811877 0.637807 0.349284
0.873633 0.649518 0.369391
0.940647 0.657702 0.336442
0.974295 0.692391 0.494939
0.148587 0.703914 0.228173
0.149221 0.703878 0.228201
0.156297 0.703613 0.228474
0.175580 0.703299 0.229395
0.215683 0.702468 0.232035
0.282765 0.701276 0.238728
0.369187 0.699677 0.251075
0.461132 0.697798 0.268523
0.546366 0.696213 0.288153
0.622159 0.695269 0.307654
0.688721 0.694383 0.324980
0.746394 0.691710 0.335422
0.812952 0.705131 0.360807
0.874199 0.716421 0.381594
0.938717 0.725277 0.349826
0.981186 0.750895 0.505751
0.166506 0.782470 0.249268
0.167120 0.782542 0.249284
0.173886 0.782306 0.249560
0.192204 0.781956 0.250484
0.230653 0.781198 0.253015
0.295600 0.780240 0.259211
0.380145 0.778660 0.270550
0.470754 0.777043 0.286612
0.555734 0.775337 0.304929
0.631714 0.774044 0.323557
0.699713 0.773107 0.341491
0.760302 0.772173 0.357430
0.813245 0.769207 0.367606
0.875646 0.782139 0.392375
0.938211 0.791804 0.363749
0.988495 0.810620 0.516739
0.184434 0.859994 0.269929
0.185048 0.859969 0.269940
0.191652 0.859786 0.270254
0.209335 0.859511 0.271164
0.246491 0.858933 0.273642
0.309373 0.857984 0.279480
0.391710 0.856633 0.289954
0.480786 0.855004 0.304813
0.564786 0.853320 0.321838
0.640797 0.851916 0.339519
0.709084 0.850676 0.356867
0.770882 0.849806 0.373378
0.826548 0.848718 0.388075
0.876260 0.845622 0.398360
0.938627 0.857719 0.375743
0.996093 0.871790 0.527377
0.189657 0.940115 0.191200
0.192504 0.940074 0.191201
0.204395 0.939929 0.191330
0.212511 0.939646 0.191965
0.236065 0.939035 0.194451
0.287933 0.938232 0.201510
0.369165 0.936791 0.216085
0.463688 0.935118 0.237624
0.554791 0.933221 0.262061
0.636437 0.931381 0.286323
0.709040 0.929700 0.309275
0.774288 0.928167 0.330621
0.833181 0.926906 0.350232
0.887274 0.925299 0.367777
0.937399 0.921709 0.355841
1.003345 0.933483 0.533554
0.475572 1.107893 0.476018
0.476017 1.107805 0.475928
0.483571 1.107537 0.476561
0.499194 1.107319 0.478389
0.523319 1.107103 0.481713
0.555134 1.106792 0.486313
0.593055 1.106298 0.492079
0.635157 1.105714 0.498921
0.679819 1.105110 0.506752
0.725507 1.104566 0.515365
0.771002 1.104079 0.524422
0.815914 1.103712 0.533811
0.859666 1.103445 0.543271
0.905439 1.102615 0.552406
0.954868 1.100108 0.557098
1.017841 1.097743 0.560282
0.321029 -0.599519 0.326807
0.322478 -0.599305 0.327209
0.344318 -0.596429 0.334609
-0.231659 -0.549846 -0.273628
-0.213988 -0.552424 -0.279434
-0.108082 -0.551220 -0.276345
0.273111 -0.547177 -0.265508
0.416673 -0.541653 -0.249850
0.528927 -0.534929 -0.228907
0.622791 -0.527115 -0.201332
0.704229 -0.518310 -0.162972
0.777252 -0.508476 -0.087667
0.844613 -0.497668 0.150903
0.912272 -0.487911 0.201256
0.931903 -0.433918 0.331648
0.943882 -0.318049 0.413927
-0.027334 0.032508 0.164489
-0.024269 0.031867 0.162718
0.050641 0.044407 0.200780
0.116738 0.034587 0.222022
0.190414 0.042646 0.164294
0.269129 0.085052 0.160562
0.374251 0.111633 0.183696
0.475683 0.137831 0.207529
0.566239 0.162108 0.231555
0.647063 0.184385 0.254847
0.719853 0.205020 0.277120
0.786575 0.224434 0.298398
0.849382 0.242765 0.317834
0.913552 0.259284 0.331584
0.935316 0.298231 0.386082
0.950656 0.377062 0.443946
-0.041392 0.071304 0.194062
-0.037078 0.069854 0.194682
0.037830 0.065405 0.184975
0.109048 0.069873 0.201526
0.175720 0.076515 0.148771
0.257062 0.098181 0.153399
0.363883 0.120867 0.178460
0.467851 0.145212 0.203735
0.560330 0.168522 0.228767
0.642573 0.190280 0.252785
0.716298 0.210605 0.275561
0.783787 0.229865 0.297209
0.846704 0.248187 0.317275
0.914152 0.263148 0.326696
0.935616 0.303614 0.385185
0.950877 0.383074 0.444567
-0.060012 0.113988 0.177208
-0.057235 0.112917 0.170620
-0.018155 0.110703 0.167830
0.082937 0.104166 0.162403
0.153067 0.112737 0.128947
0.239717 0.123502 0.141527
0.347330 0.141376 0.168417
0.454575 0.162447 0.195746
0.550230 0.183824 0.222533
0.634719 0.204411 0.247927
0.710201 0.223994 0.271828
0.778759 0.242793 0.294370
0.842290 0.260976 0.315544
0.911535 0.274412 0.322384
0.936438 0.315815 0.383596
0.951348 0.396606 0.446356
-0.043167 0.157956 0.136263
-0.030786 0.155610 0.116115
0.043001 0.154878 0.118270
0.090517 0.152205 0.116672
0.141087 0.146749 0.115626
0.224681 0.159855 0.131903
0.330111 0.175139 0.159506
0.438868 0.192929 0.187813
0.537330 0.211871 0.215869
0.624338 0.230741 0.242560
0.701668 0.249148 0.267586
0.771863 0.267175 0.291171
0.836453 0.284890 0.313393
0.905195 0.297793 0.321508
0.938082 0.336522 0.380664
0.952294 0.418249 0.449292
-0.015847 0.216912 0.136202
0.028330 0.214364 0.114136
0.054108 0.214023 0.117728
0.095042 0.212467 0.117631
0.150535 0.209409 0.120203
0.214592 0.204844 0.123133
0.317140 0.221518 0.155312
0.425179 0.237826 0.183943
0.524888 0.254652 0.212089
0.613508 0.271774 0.239211
0.692446 0.288814 0.264918
0.764111 0.305763 0.289255
0.829710 0.322556 0.312227
0.897793 0.335364 0.322347
0.940349 0.367495 0.376144
0.953725 0.448456 0.453661
0.044855 0.289078 0.147271
0.050783 0.286801 0.127934
0.067124 0.286613 0.131367
0.102192 0.285380 0.131785
0.157140 0.283359 0.135226
0.229932 0.280342 0.144084
0.308430 0.276782 0.152862
0.415783 0.294306 0.185738
0.515423 0.310218 0.213744
0.604362 0.325865 0.240274
0.684116 0.341597 0.265797
0.756776 0.357442 0.290308
0.823163 0.373231 0.313689
0.890164 0.386677 0.326997
0.943209 0.409234 0.368433
0.955685 0.486926 0.459748
0.068017 0.369188 0.160524
0.071024 0.367288 0.144012
0.082893 0.367195 0.147077
0.112550 0.366244 0.147755
0.164347 0.364636 0.151058
0.239005 0.362341 0.160530
0.325878 0.359883 0.176718
0.409409 0.357135 0.188862
0.509821 0.374451 0.220555
0.598459 0.389520 0.246826
0.678144 0.404117 0.271541
0.751022 0.418999 0.295648
0.817898 0.433993 0.318892
0.883110 0.447876 0.336107
0.946751 0.460585 0.352826
0.958350 0.532397 0.467629
0.089092 0.453840 0.176846
0.090870 0.452437 0.163189
0.100297 0.452311 0.165797
0.125675 0.451600 0.166597
0.173826 0.450252 0.169688
0.247375 0.448319 0.178324
0.337056 0.446103 0.194584
0.427228 0.444478 0.214994
0.506014 0.441977 0.227384
0.595767 0.458639 0.257354
0.675177 0.472925 0.282052
0.747483 0.486715 0.305161
0.814147 0.500564 0.327383
0.877802 0.514348 0.347689
0.950382 0.519914 0.315939
0.962319 0.582975 0.476735
0.109244 0.539493 0.195715
0.110364 0.538508 0.184660
0.118434 0.538414 0.186849
0.140765 0.537829 0.187743
0.185588 0.536738 0.190688
0.257221 0.535134 0.198588
0.346866 0.533101 0.213432
0.439697 0.531437 0.233905
0.523277 0.530239 0.254455
0.593837 0.527678 0.265898
0.674191 0.543350 0.293978
0.746108 0.556555 0.317019
0.812172 0.569227 0.338383
0.874799 0.582127 0.359199
0.944684 0.589438 0.327928
0.967823 0.636697 0.486324
0.128530 0.622985 0.216071
0.129228 0.622351 0.207186
0.136561 0.622251 0.209011
0.156884 0.621808 0.209876
0.198944 0.620878 0.212565
0.268314 0.619489 0.219629
0.356846 0.617618 0.232963
0.449919 0.615697 0.251797
0.535433 0.614395 0.272535
0.609821 0.613424 0.291421
0.673273 0.610702 0.302092
0.746254 0.625311 0.328786
0.811871 0.637524 0.350480
0.873771 0.649340 0.370703
0.941236 0.657770 0.337802
0.974292 0.692870 0.496496
0.147208 0.704013 0.236189
0.147609 0.703572 0.229023
0.154505 0.703483 0.230536
0.173460 0.703111 0.231398
0.213302 0.702361 0.233922
0.280425 0.701201 0.240411
0.367266 0.699506 0.252546
0.459664 0.697584 0.269829
0.545390 0.696007 0.289355
0.621462 0.694927 0.308744
0.688145 0.693874 0.325967
0.745883 0.691193 0.336281
0.812737 0.704796 0.361776
0.874330 0.716320 0.382717
0.939090 0.725298 0.350331
0.981242 0.751314 0.507283
0.165419 0.782520 0.255981
0.165651 0.782500 0.250210
0.172293 0.782276 0.251474
0.190301 0.781937 0.252331
0.228456 0.781198 0.254770
0.293340 0.780168 0.260804
0.378258 0.778591 0.271972
0.469422 0.776888 0.287893
0.554754 0.775163 0.306096
0.631109 0.773790 0.324671
0.699314 0.772894 0.342526
0.760005 0.771829 0.358376
0.812915 0.768797 0.368449
0.875607 0.781962 0.393316
0.938484 0.791818 0.364188
0.988575 0.810874 0.518204
0.183580 0.859996 0.275604
0.183700 0.860191 0.270965
0.190224 0.859965 0.272046
0.207634 0.859623 0.272906
0.244502 0.859055 0.275288
0.307313 0.858125 0.280982
0.389979 0.856686 0.291330
0.479547 0.855069 0.306061
0.563977 0.853334 0.323036
0.640239 0.851928 0.340623
0.708676 0.850629 0.357886
0.770606 0.849649 0.374382
0.826290 0.848556 0.388989
0.876091 0.845358 0.399153
0.938620 0.857721 0.375939
0.996105 0.871986 0.528768
0.190129 0.940029 0.197927
0.186457 0.940432 0.191649
0.203913 0.940301 0.192211
0.211519 0.939871 0.192778
0.234394 0.939386 0.195132
0.285603 0.938531 0.201949
0.366951 0.937090 0.216321
0.461958 0.935264 0.237755
0.553599 0.933476 0.262212
0.635617 0.931606 0.286474
0.708616 0.929817 0.309442
0.773999 0.928286 0.330808
0.833000 0.926903 0.350413
0.887204 0.925314 0.367917
0.937374 0.921638 0.355472
1.003353 0.933560 0.534879
0.474279 1.107666 0.475411
0.477918 1.107561 0.476932
0.485882 1.107424 0.477770
0.501758 1.107271 0.479610
0.525659 1.107057 0.482803
0.557211 1.106748 0.487341
0.594834 1.106260 0.493071
0.636705 1.105682 0.499872
0.681072 1.105086 0.507706
0.726381 1.104594 0.516235
0.771706 1.104071 0.525276
0.816399 1.103712 0.534590
0.860049 1.103455 0.544008
0.905599 1.102636 0.553128
0.954942 1.100125 0.557817
1.017839 1.097740 0.560947
0.327708 -0.596629 0.354404
0.329457 -0.596495 0.354365
0.342323 -0.596990 0.352290
-0.231517 -0.549964 -0.255139
-0.214514 -0.552474 -0.258369
-0.112837 -0.551240 -0.255204
0.270835 -0.547164 -0.243212
0.415287 -0.541690 -0.225454
0.528014 -0.534913 -0.200903
0.622180 -0.527111 -0.161775
0.703840 -0.518243 -0.058329
0.776829 -0.508338 0.153218
0.844276 -0.497521 0.209158
0.912261 -0.487978 0.241788
0.931887 -0.433992 0.341773
0.943877 -0.317913 0.418381
-0.043950 0.032307 0.247709
-0.039521 0.033498 0.245735
0.038336 0.024652 0.240636
0.113013 -0.025592 0.268693
0.212895 -0.080860 0.256306
0.279022 0.064782 0.217870
0.372556 0.112549 0.227299
0.473414 0.139262 0.244433
0.564196 0.163262 0.262662
0.645221 0.185339 0.281066
0.718311 0.205788 0.299193
0.785075 0.225051 0.316959
0.848192 0.243119 0.333253
0.913435 0.259129 0.344689
0.935398 0.297469 0.391666
0.950628 0.375974 0.446690
-0.053550 0.062342 0.237876
-0.050242 0.061404 0.236319
0.027470 0.063566 0.243202
0.095014 0.065890 0.259591
0.190408 -0.043222 0.242520
0.266064 0.086837 0.193124
0.371255 0.117185 0.205409
0.475593 0.142116 0.224209
0.567638 0.165889 0.245233
0.649317 0.188028 0.266711
0.722678 0.208700 0.287786
0.789873 0.228308 0.308259
0.853711 0.246667 0.326387
0.912382 0.265967 0.347127
0.935518 0.307650 0.395288
0.951188 0.389348 0.451850
-0.073707 0.110625 0.237418
-0.072268 0.109800 0.234563
-0.045998 0.104144 0.235731
0.074917 0.098175 0.227745
0.170429 0.091214 0.202474
0.242856 0.117915 0.174501
0.350907 0.137445 0.194185
0.459071 0.159091 0.216707
0.554909 0.180967 0.240099
0.639372 0.201980 0.263109
0.714746 0.221964 0.285199
0.783305 0.241159 0.306361
0.847575 0.259351 0.325409
0.913111 0.275344 0.338960
0.935853 0.319381 0.393565
0.951603 0.401664 0.452897
-0.082595 0.159317 0.206210
-0.080413 0.158278 0.200342
-0.054328 0.151573 0.158414
0.065036 0.149114 0.160915
0.130576 0.141762 0.153435
0.219755 0.154700 0.157062
0.329046 0.170450 0.180321
0.440446 0.188760 0.205475
0.540212 0.208283 0.231308
0.627803 0.227650 0.256286
0.705481 0.246548 0.279991
0.775848 0.265078 0.302499
0.840738 0.283159 0.323500
0.911103 0.295640 0.330396
0.937220 0.340473 0.391686
0.952559 0.423139 0.455806
-0.069179 0.218335 0.194814
-0.066583 0.217213 0.190328
-0.020615 0.208353 0.134647
0.075677 0.207632 0.144020
0.138200 0.203579 0.142467
0.203933 0.197069 0.141658
0.311061 0.215753 0.170806
0.423195 0.233047 0.197839
0.525479 0.250607 0.224846
0.615454 0.268325 0.251063
0.695193 0.285941 0.276002
0.767270 0.303466 0.299648
0.833270 0.320817 0.322000
0.902741 0.333345 0.330792
0.939358 0.371407 0.388453
0.954021 0.453066 0.460104
-0.049337 0.290018 0.197676
-0.046208 0.289129 0.194180
0.044310 0.280671 0.139948
0.084873 0.280457 0.151055
0.143685 0.277921 0.152027
0.219048 0.273896 0.157882
0.297711 0.268792 0.163156
0.410356 0.288824 0.195834
0.513564 0.305921 0.223674
0.604618 0.322384 0.250023
0.685717 0.338815 0.275348
0.759015 0.355226 0.299595
0.826097 0.371696 0.322627
0.894474 0.384893 0.334109
0.942368 0.412773 0.382908
0.955877 0.491115 0.466096
0.038381 0.369842 0.204808
0.041826 0.369153 0.201847
0.067480 0.361822 0.152073
0.097411 0.361882 0.162812
0.150859 0.360009 0.164510
0.227549 0.357171 0.171769
0.316414 0.353976 0.185446
0.400469 0.350017 0.195252
0.505650 0.369699 0.227850
0.597077 0.386021 0.254537
0.678447 0.401461 0.279473
0.752380 0.417045 0.303662
0.820017 0.432692 0.326856
0.886701 0.446489 0.341966
0.946031 0.463652 0.372255
0.958578 0.536095 0.473870
0.073722 0.454310 0.215473
0.075080 0.453825 0.212935
0.088511 0.448091 0.169559
0.112624 0.448187 0.179028
0.160987 0.446759 0.181000
0.235755 0.444476 0.187968
0.327761 0.441845 0.202388
0.419967 0.439522 0.221262
0.499590 0.436123 0.232209
0.592863 0.454895 0.263268
0.674271 0.470288 0.288507
0.747968 0.484941 0.311963
0.815533 0.499491 0.334372
0.880427 0.513510 0.353158
0.950722 0.521587 0.343080
0.962314 0.586247 0.483080
0.098928 0.539852 0.229037
0.099794 0.539516 0.226891
0.108743 0.535487 0.190410
0.129489 0.535483 0.198450
0.173647 0.534289 0.200563
0.245895 0.532523 0.207182
0.337744 0.530220 0.220627
0.432925 0.528131 0.239962
0.518224 0.526535 0.259657
0.589278 0.523143 0.270028
0.672342 0.540605 0.299145
0.745813 0.554885 0.322705
0.812888 0.568246 0.344387
0.876376 0.581713 0.364947
0.947809 0.589094 0.333732
0.967552 0.639515 0.492878
0.120902 0.623250 0.244609
0.121578 0.623072 0.242825
0.128158 0.620494 0.212772
0.146990 0.620293 0.219383
0.187957 0.619400 0.221457
0.257588 0.617854 0.227485
0.348029 0.615845 0.239729
0.443444 0.613675 0.257645
0.530955 0.612073 0.277774
0.606394 0.610688 0.296050
0.670066 0.607402 0.305916
0.745030 0.623413 0.333494
0.811897 0.636584 0.355690
0.874645 0.649050 0.376198
0.943311 0.657793 0.343882
0.974006 0.695082 0.503006
0.141289 0.704180 0.260726
0.141845 0.704158 0.259241
0.147015 0.702653 0.234517
0.164658 0.702361 0.240018
0.203223 0.701627 0.242048
0.270288 0.700312 0.247703
0.358898 0.698576 0.258980
0.453522 0.696432 0.275522
0.541244 0.694652 0.294555
0.618485 0.693397 0.313521
0.685924 0.692044 0.330300
0.743821 0.688669 0.339927
0.812101 0.703666 0.366239
0.874645 0.715966 0.387559
0.940570 0.725306 0.353736
0.981019 0.753038 0.513615
0.160694 0.782708 0.277122
0.161192 0.782643 0.275891
0.165482 0.782287 0.255713
0.182458 0.781839 0.260306
0.219214 0.781216 0.262303
0.284002 0.780055 0.267658
0.370371 0.778408 0.278108
0.463651 0.776542 0.293454
0.550828 0.774625 0.311251
0.628451 0.773033 0.329456
0.697295 0.772013 0.346985
0.758553 0.770718 0.362492
0.811458 0.767257 0.372024
0.875331 0.781411 0.397572
0.939501 0.791874 0.366020
0.988506 0.812148 0.524361
0.179752 0.860154 0.293832
0.180198 0.860183 0.292804
0.183927 0.860494 0.276482
0.200532 0.860104 0.280327
0.236055 0.859484 0.282348
0.298750 0.858443 0.287476
0.382728 0.856934 0.297262
0.474212 0.855246 0.311513
0.560372 0.853409 0.328144
0.637793 0.851766 0.345440
0.707007 0.850394 0.362403
0.769485 0.849388 0.378676
0.825447 0.847903 0.392996
0.875244 0.844308 0.402667
0.939002 0.857572 0.377158
0.996153 0.872822 0.534805
0.185936 0.940252 0.234203
0.185090 0.940400 0.228689
0.187546 0.941600 0.194503
0.207947 0.941181 0.196752
0.227645 0.940535 0.198506
0.275972 0.939602 0.204370
0.357324 0.938208 0.217836
0.454434 0.936325 0.238767
0.548488 0.934353 0.263119
0.632258 0.932304 0.287351
0.706399 0.930373 0.310314
0.772545 0.928713 0.331648
0.832246 0.927128 0.351245
0.886652 0.925367 0.368628
0.937055 0.921276 0.353828
1.003406 0.933945 0.540491
0.473006 1.107434 0.476618
0.476096 1.107360 0.477912
0.495973 1.107180 0.484917
0.511586 1.107054 0.486856
0.535091 1.106938 0.490025
0.565543 1.106641 0.494346
0.601965 1.106127 0.499860
0.642557 1.105621 0.506485
0.685767 1.105009 0.514004
0.730111 1.104545 0.522301
0.774516 1.104051 0.531070
0.818451 1.103720 0.540151
0.861435 1.103496 0.549337
0.906479 1.102710 0.558306
0.955332 1.100182 0.562731
1.017840 1.097732 0.565385
0.331577 -0.594985 0.419907
0.332969 -0.594982 0.418688
0.350085 -0.595805 0.414523
0.381264 -0.597828 0.405445
0.424490 -0.607490 0.441834
0.173456 -0.559217 0.082778
0.264666 -0.547107 -0.160610
0.411601 -0.541548 -0.114618
0.525553 -0.534817 0.084136
0.620441 -0.526934 0.156526
0.702467 -0.518111 0.201434
0.775898 -0.508212 0.237202
0.843518 -0.497360 0.267343
0.912115 -0.488281 0.288619
0.931856 -0.434175 0.357912
0.943899 -0.317637 0.426460
-0.062949 -0.031587 0.331909
-0.059290 -0.030450 0.328425
0.034291 -0.039867 0.329035
0.102923 -0.055071 0.325149
0.208245 -0.096307 0.336626
0.307638 -0.099159 0.308079
0.380196 0.095564 0.279896
0.472816 0.139006 0.287434
0.563161 0.164026 0.300573
0.644449 0.185989 0.314397
0.717579 0.206325 0.328497
0.784552 0.225495 0.342713
0.847703 0.243530 0.356327
0.913424 0.259294 0.366470
0.935424 0.297514 0.403407
0.950636 0.376182 0.453651
-0.073985 0.061876 0.326111
-0.070857 0.060646 0.323877
-0.028364 0.059897 0.314238
0.084748 0.046674 0.309425
0.186444 -0.069592 0.321233
0.298658 -0.079635 0.292919
0.376512 0.107375 0.269212
0.472969 0.143753 0.279221
0.564598 0.167634 0.293458
0.646362 0.189502 0.308391
0.719857 0.209946 0.323559
0.787201 0.229321 0.338836
0.851615 0.247212 0.352580
0.912060 0.265417 0.367372
0.935480 0.305980 0.405366
0.951130 0.387333 0.457294
-0.084942 0.101338 0.301377
-0.084313 0.100376 0.301095
-0.065757 0.094536 0.295775
0.084154 0.105159 0.316133
0.150112 0.087993 0.307752
0.268568 0.041775 0.288162
0.354418 0.127791 0.250375
0.466278 0.154184 0.258940
0.564512 0.176168 0.273885
0.649620 0.197568 0.291181
0.724963 0.218075 0.309380
0.793549 0.237946 0.327800
0.859700 0.256189 0.343498
0.910134 0.281504 0.370966
0.935858 0.327755 0.411594
0.952272 0.414020 0.467171
-0.104578 0.156888 0.288589
-0.103909 0.155853 0.286262
-0.095911 0.149915 0.270331
-0.042240 0.141795 0.274958
0.119788 0.132724 0.266998
0.239521 0.131891 0.240019
0.331085 0.163880 0.227845
0.444952 0.182691 0.244393
0.546258 0.202643 0.264033
0.634567 0.222627 0.284459
0.712582 0.242212 0.304708
0.783217 0.261508 0.324506
0.850083 0.279469 0.341693
0.910904 0.299548 0.362337
0.936384 0.347502 0.409545
0.953142 0.432897 0.468644
-0.110354 0.219859 0.269976
-0.109336 0.218810 0.267515
-0.098612 0.212133 0.246445
-0.060947 0.202150 0.205017
0.107209 0.198142 0.205338
0.192741 0.187164 0.192741
0.303596 0.207665 0.209224
0.421616 0.225562 0.230264
0.527629 0.243850 0.253058
0.619694 0.262393 0.276154
0.700776 0.280911 0.298635
0.773521 0.299322 0.320221
0.840609 0.317431 0.340255
0.913083 0.329090 0.347009
0.937929 0.378897 0.408252
0.954474 0.462214 0.472839
-0.094306 0.291455 0.260387
-0.093190 0.290604 0.258403
-0.080744 0.284258 0.239925
0.003716 0.272385 0.184479
0.114727 0.270785 0.193577
0.200064 0.264786 0.192749
0.281282 0.256753 0.192926
0.401928 0.279803 0.221144
0.511182 0.298616 0.246675
0.605787 0.316183 0.271348
0.688894 0.333745 0.295283
0.763667 0.351252 0.318275
0.831690 0.368828 0.340108
0.902957 0.381579 0.349351
0.940770 0.419789 0.405431
0.956485 0.499454 0.478655
-0.072708 0.370819 0.260655
-0.071383 0.370164 0.258930
-0.055004 0.364857 0.242309
