OFX Video Plug-Ins/Vfx1.ofx.bundle/Contents/Resources/AutoLooks/17.cube
TITLE "Generated by Resolve"
LUT_3D_SIZE 33
0.065507 0.065507 0.065507
0.0698863 0.0698863 0.0698863
0.0746471 0.0746471 0.0746471
0.0796063 0.0796063 0.0796063
0.0843366 0.0843366 0.0843366
0.0889754 0.0889754 0.0889754
0.093492 0.093492 0.093492
0.0979171 0.0979171 0.0979171
0.102327 0.102327 0.102327
0.106844 0.106844 0.106844
0.111147 0.111147 0.111147
0.115404 0.115404 0.115404
0.119631 0.119631 0.119631
0.123842 0.123842 0.123842
0.128099 0.128099 0.128099
0.132464 0.132464 0.132464
0.136721 0.136721 0.136721
0.140993 0.140993 0.140993
0.145281 0.145281 0.145281
0.14963 0.14963 0.14963
0.154238 0.154238 0.154238
0.15877 0.15877 0.15877
0.163348 0.163348 0.163348
0.167971 0.167971 0.167971
0.172702 0.172702 0.172702
0.177691 0.177691 0.177691
0.182879 0.182879 0.182879
0.188022 0.188022 0.188022
0.19321 0.19321 0.19321
0.198611 0.198611 0.198611
0.204303 0.204303 0.204303
0.210361 0.210361 0.210361
0.216464 0.216464 0.216464
0.0810559 0.0810559 0.0810559
0.0857557 0.0857557 0.0857557
0.0905318 0.0905318 0.0905318
0.0950332 0.0950332 0.0950332
0.0994583 0.0994583 0.0994583
0.103883 0.103883 0.103883
0.108263 0.108263 0.108263
0.112779 0.112779 0.112779
0.117052 0.117052 0.117052
0.121309 0.121309 0.121309
0.125536 0.125536 0.125536
0.129778 0.129778 0.129778
0.134035 0.134035 0.134035
0.13846 0.13846 0.13846
0.142718 0.142718 0.142718
0.147005 0.147005 0.147005
0.151354 0.151354 0.151354
0.155795 0.155795 0.155795
0.160327 0.160327 0.160327
0.165042 0.165042 0.165042
0.169635 0.169635 0.169635
0.17438 0.17438 0.17438
0.179309 0.179309 0.179309
0.184375 0.184375 0.184375
0.189563 0.189563 0.189563
0.194919 0.194919 0.194919
0.200412 0.200412 0.200412
0.206195 0.206195 0.206195
0.212177 0.212177 0.212177
0.218219 0.218219 0.218219
0.224582 0.224582 0.224582
0.231388 0.231388 0.231388
0.238575 0.238575 0.238575
0.0965286 0.0965286 0.0965286
0.100999 0.100999 0.100999
0.105409 0.105409 0.105409
0.109789 0.109789 0.109789
0.114137 0.114137 0.114137
0.118441 0.118441 0.118441
0.122881 0.122881 0.122881
0.127169 0.127169 0.127169
0.131456 0.131456 0.131456
0.135744 0.135744 0.135744
0.140032 0.140032 0.140032
0.14432 0.14432 0.14432
0.148791 0.148791 0.148791
0.15317 0.15317 0.15317
0.157626 0.157626 0.157626
0.162127 0.162127 0.162127
0.166659 0.166659 0.166659
0.171283 0.171283 0.171283
0.176226 0.176226 0.176226
0.181186 0.181186 0.181186
0.186221 0.186221 0.186221
0.191318 0.191318 0.191318
0.196582 0.196582 0.196582
0.202335 0.202335 0.202335
0.208179 0.208179 0.208179
0.214176 0.214176 0.214176
0.220249 0.220249 0.220249
0.226627 0.226627 0.226627
0.233555 0.233555 0.233555
0.241077 0.241077 0.241077
0.248585 0.248585 0.248585
0.256184 0.256184 0.256184
0.264027 0.264027 0.264027
0.111315 0.111315 0.111315
0.115633 0.115633 0.115633
0.119936 0.119936 0.119936
0.124224 0.124224 0.124224
0.128527 0.128527 0.128527
0.133028 0.133028 0.133028
0.137362 0.137362 0.137362
0.141695 0.141695 0.141695
0.146014 0.146014 0.146014
0.150378 0.150378 0.150378
0.154955 0.154955 0.154955
0.159472 0.159472 0.159472
0.164004 0.164004 0.164004
0.168551 0.168551 0.168551
0.17319 0.17319 0.17319
0.178012 0.178012 0.178012
0.183169 0.183169 0.183169
0.18819 0.18819 0.18819
0.193301 0.193301 0.193301
0.198611 0.198611 0.198611
0.204227 0.204227 0.204227
0.210086 0.210086 0.210086
0.216281 0.216281 0.216281
0.222385 0.222385 0.222385
0.228916 0.228916 0.228916
0.23595 0.23595 0.23595
0.243351 0.243351 0.243351
0.250919 0.250919 0.250919
0.258824 0.258824 0.258824
0.266819 0.266819 0.266819
0.275212 0.275212 0.275212
0.283848 0.283848 0.283848
0.292561 0.292561 0.292561
0.125719 0.125719 0.125719
0.130037 0.130037 0.130037
0.134356 0.134356 0.134356
0.138796 0.138796 0.138796
0.143236 0.143236 0.143236
0.147601 0.147601 0.147601
0.152026 0.152026 0.152026
0.156527 0.156527 0.156527
0.161089 0.161089 0.161089
0.165774 0.165774 0.165774
0.170428 0.170428 0.170428
0.175143 0.175143 0.175143
0.180026 0.180026 0.180026
0.185016 0.185016 0.185016
0.190051 0.190051 0.190051
0.195377 0.195377 0.195377
0.200793 0.200793 0.200793
0.20647 0.20647 0.20647
0.212345 0.212345 0.212345
0.218296 0.218296 0.218296
0.224475 0.224475 0.224475
0.231388 0.231388 0.231388
0.238544 0.238544 0.238544
0.24596 0.24596 0.24596
0.253483 0.253483 0.253483
0.261219 0.261219 0.261219
0.269673 0.269673 0.269673
0.278172 0.278172 0.278172
0.286839 0.286839 0.286839
0.295583 0.295583 0.295583
0.304509 0.304509 0.304509
0.313726 0.313726 0.313726
0.323522 0.323522 0.323522
0.140215 0.140215 0.140215
0.144564 0.144564 0.144564
0.149035 0.149035 0.149035
0.153582 0.153582 0.153582
0.158145 0.158145 0.158145
0.162737 0.162737 0.162737
0.167346 0.167346 0.167346
0.17203 0.17203 0.17203
0.177035 0.177035 0.177035
0.181994 0.181994 0.181994
0.187045 0.187045 0.187045
0.192111 0.192111 0.192111
0.19733 0.19733 0.19733
0.20296 0.20296 0.20296
0.208804 0.208804 0.208804
0.214694 0.214694 0.214694
0.220661 0.220661 0.220661
0.226963 0.226963 0.226963
0.233768 0.233768 0.233768
0.241245 0.241245 0.241245
0.248707 0.248707 0.248707
0.256229 0.256229 0.256229
0.264057 0.264057 0.264057
0.272282 0.272282 0.272282
0.280842 0.280842 0.280842
0.289845 0.289845 0.289845
0.298634 0.298634 0.298634
0.307652 0.307652 0.307652
0.316945 0.316945 0.316945
0.326467 0.326467 0.326467
0.336049 0.336049 0.336049
0.34609 0.34609 0.34609
0.356008 0.356008 0.356008
0.154986 0.154986 0.154986
0.159686 0.159686 0.159686
0.164294 0.164294 0.164294
0.168933 0.168933 0.168933
0.173693 0.173693 0.173693
0.178607 0.178607 0.178607
0.183719 0.183719 0.183719
0.188937 0.188937 0.188937
0.19408 0.19408 0.19408
0.199435 0.199435 0.199435
0.205066 0.205066 0.205066
0.210895 0.210895 0.210895
0.216938 0.216938 0.216938
0.223102 0.223102 0.223102
0.229572 0.229572 0.229572
0.23653 0.23653 0.23653
0.243839 0.243839 0.243839
0.25124 0.25124 0.25124
0.259037 0.259037 0.259037
0.267048 0.267048 0.267048
0.27538 0.27538 0.27538
0.283955 0.283955 0.283955
0.292592 0.292592 0.292592
0.301396 0.301396 0.301396
0.310826 0.310826 0.310826
0.320211 0.320211 0.320211
0.329763 0.329763 0.329763
0.339361 0.339361 0.339361
0.349096 0.349096 0.349096
0.359457 0.359457 0.359457
0.369772 0.369772 0.369772
0.380163 0.380163 0.380163
0.3906 0.3906 0.3906
0.170474 0.170474 0.170474
0.17528 0.17528 0.17528
0.18027 0.18027 0.18027
0.185351 0.185351 0.185351
0.190463 0.190463 0.190463
0.195758 0.195758 0.195758
0.201404 0.201404 0.201404
0.207187 0.207187 0.207187
0.213107 0.213107 0.213107
0.219059 0.219059 0.219059
0.225269 0.225269 0.225269
0.232197 0.232197 0.232197
0.239322 0.239322 0.239322
0.246677 0.246677 0.246677
0.254108 0.254108 0.254108
0.261769 0.261769 0.261769
0.269963 0.269963 0.269963
0.278538 0.278538 0.278538
0.287114 0.287114 0.287114
0.295766 0.295766 0.295766
0.304616 0.304616 0.304616
0.313771 0.313771 0.313771
0.3234 0.3234 0.3234
0.333043 0.333043 0.333043
0.342657 0.342657 0.342657
0.352483 0.352483 0.352483
0.362585 0.362585 0.362585
0.372915 0.372915 0.372915
0.383627 0.383627 0.383627
0.394186 0.394186 0.394186
0.404837 0.404837 0.404837
0.415717 0.415717 0.415717
0.426764 0.426764 0.426764
0.186954 0.186954 0.186954
0.192096 0.192096 0.192096
0.197421 0.197421 0.197421
0.203021 0.203021 0.203021
0.209125 0.209125 0.209125
0.215091 0.215091 0.215091
0.221164 0.221164 0.221164
0.227558 0.227558 0.227558
0.23444 0.23444 0.23444
0.241764 0.241764 0.241764
0.249409 0.249409 0.249409
0.256916 0.256916 0.256916
0.264729 0.264729 0.264729
0.272923 0.272923 0.272923
0.281392 0.281392 0.281392
0.290089 0.290089 0.290089
0.29897 0.29897 0.29897
0.307881 0.307881 0.307881
0.317113 0.317113 0.317113
0.326543 0.326543 0.326543
0.336034 0.336034 0.336034
0.345846 0.345846 0.345846
0.355901 0.355901 0.355901
0.366049 0.366049 0.366049
0.376394 0.376394 0.376394
0.386786 0.386786 0.386786
0.397299 0.397299 0.397299
0.408438 0.408438 0.408438
0.419394 0.419394 0.419394
0.430472 0.430472 0.430472
0.441566 0.441566 0.441566
0.45275 0.45275 0.45275
0.464393 0.464393 0.464393
0.204807 0.204807 0.204807
0.210727 0.210727 0.210727
0.216709 0.216709 0.216709
0.223117 0.223117 0.223117
0.229725 0.229725 0.229725
0.23682 0.23682 0.23682
0.244221 0.244221 0.244221
0.251698 0.251698 0.251698
0.259358 0.259358 0.259358
0.267597 0.267597 0.267597
0.275944 0.275944 0.275944
0.284489 0.284489 0.284489
0.293095 0.293095 0.293095
0.301823 0.301823 0.301823
0.311192 0.311192 0.311192
0.320485 0.320485 0.320485
0.329915 0.329915 0.329915
0.339406 0.339406 0.339406
0.349065 0.349065 0.349065
0.359121 0.359121 0.359121
0.369589 0.369589 0.369589
0.379904 0.379904 0.379904
0.39028 0.39028 0.39028
0.400824 0.400824 0.400824
0.411612 0.411612 0.411612
0.422797 0.422797 0.422797
0.434089 0.434089 0.434089
0.445212 0.445212 0.445212
0.456443 0.456443 0.456443
0.467826 0.467826 0.467826
0.479332 0.479332 0.479332
0.491142 0.491142 0.491142
0.502846 0.502846 0.502846
0.224826 0.224826 0.224826
0.23183 0.23183 0.23183
0.239109 0.239109 0.239109
0.246571 0.246571 0.246571
0.254093 0.254093 0.254093
0.261875 0.261875 0.261875
0.270024 0.270024 0.270024
0.278843 0.278843 0.278843
0.287465 0.287465 0.287465
0.296117 0.296117 0.296117
0.304982 0.304982 0.304982
0.314122 0.314122 0.314122
0.323491 0.323491 0.323491
0.333303 0.333303 0.333303
0.342824 0.342824 0.342824
0.35256 0.35256 0.35256
0.36257 0.36257 0.36257
0.372778 0.372778 0.372778
0.383154 0.383154 0.383154
0.393866 0.393866 0.393866
0.40444 0.40444 0.40444
0.415274 0.415274 0.415274
0.426261 0.426261 0.426261
0.437293 0.437293 0.437293
0.448569 0.448569 0.448569
0.460121 0.460121 0.460121
0.471534 0.471534 0.471534
0.483055 0.483055 0.483055
0.494575 0.494575 0.494575
0.506142 0.506142 0.506142
0.518196 0.518196 0.518196
0.529839 0.529839 0.529839
0.541512 0.541512 0.541512
0.248783 0.248783 0.248783
0.256458 0.256458 0.256458
0.264378 0.264378 0.264378
0.272679 0.272679 0.272679
0.281254 0.281254 0.281254
0.289921 0.289921 0.289921
0.299001 0.299001 0.299001
0.308034 0.308034 0.308034
0.317311 0.317311 0.317311
0.326757 0.326757 0.326757
0.336233 0.336233 0.336233
0.34583 0.34583 0.34583
0.356054 0.356054 0.356054
0.366155 0.366155 0.366155
0.376394 0.376394 0.376394
0.386694 0.386694 0.386694
0.397101 0.397101 0.397101
0.408148 0.408148 0.408148
0.419013 0.419013 0.419013
0.429984 0.429984 0.429984
0.441001 0.441001 0.441001
0.45211 0.45211 0.45211
0.463432 0.463432 0.463432
0.475242 0.475242 0.475242
0.486748 0.486748 0.486748
0.498268 0.498268 0.498268
0.509834 0.509834 0.509834
0.521447 0.521447 0.521447
0.533227 0.533227 0.533227
0.54522 0.54522 0.54522
0.556878 0.556878 0.556878
0.568475 0.568475 0.568475
0.580011 0.580011 0.580011
0.275303 0.275303 0.275303
0.283925 0.283925 0.283925
0.292622 0.292622 0.292622
0.301457 0.301457 0.301457
0.310826 0.310826 0.310826
0.320348 0.320348 0.320348
0.329854 0.329854 0.329854
0.339406 0.339406 0.339406
0.349126 0.349126 0.349126
0.359106 0.359106 0.359106
0.369635 0.369635 0.369635
0.379965 0.379965 0.379965
0.390295 0.390295 0.390295
0.400778 0.400778 0.400778
0.41149 0.41149 0.41149
0.422385 0.422385 0.422385
0.433768 0.433768 0.433768
0.44477 0.44477 0.44477
0.455909 0.455909 0.455909
0.467201 0.467201 0.467201
0.478614 0.478614 0.478614
0.490074 0.490074 0.490074
0.501991 0.501991 0.501991
0.513527 0.513527 0.513527
0.525139 0.525139 0.525139
0.536782 0.536782 0.536782
0.54844 0.54844 0.54844
0.560159 0.560159 0.560159
0.572091 0.572091 0.572091
0.583612 0.583612 0.583612
0.595087 0.595087 0.595087
0.606531 0.606531 0.606531
0.617899 0.617899 0.617899
0.30425 0.30425 0.30425
0.313481 0.313481 0.313481
0.322942 0.322942 0.322942
0.332677 0.332677 0.332677
0.342458 0.342458 0.342458
0.3523 0.3523 0.3523
0.362417 0.362417 0.362417
0.372702 0.372702 0.372702
0.383032 0.383032 0.383032
0.393744 0.393744 0.393744
0.40444 0.40444 0.40444
0.415244 0.415244 0.415244
0.426169 0.426169 0.426169
0.43714 0.43714 0.43714
0.448173 0.448173 0.448173
0.45977 0.45977 0.45977
0.471092 0.471092 0.471092
0.48249 0.48249 0.48249
0.493919 0.493919 0.493919
0.505379 0.505379 0.505379
0.517311 0.517311 0.517311
0.528908 0.528908 0.528908
0.54052 0.54052 0.54052
0.552117 0.552117 0.552117
0.563714 0.563714 0.563714
0.57525 0.57525 0.57525
0.587167 0.587167 0.587167
0.598627 0.598627 0.598627
0.610056 0.610056 0.610056
0.621378 0.621378 0.621378
0.632502 0.632502 0.632502
0.643534 0.643534 0.643534
0.654856 0.654856 0.654856
0.335439 0.335439 0.335439
0.345129 0.345129 0.345129
0.355459 0.355459 0.355459
0.365652 0.365652 0.365652
0.375998 0.375998 0.375998
0.386374 0.386374 0.386374
0.396872 0.396872 0.396872
0.407797 0.407797 0.407797
0.418921 0.418921 0.418921
0.429908 0.429908 0.429908
0.440909 0.440909 0.440909
0.452003 0.452003 0.452003
0.463233 0.463233 0.463233
0.474876 0.474876 0.474876
0.486427 0.486427 0.486427
0.497841 0.497841 0.497841
0.5093 0.5093 0.5093
0.52079 0.52079 0.52079
0.532341 0.532341 0.532341
0.544289 0.544289 0.544289
0.555917 0.555917 0.555917
0.567437 0.567437 0.567437
0.578897 0.578897 0.578897
0.590326 0.590326 0.590326
0.601755 0.601755 0.601755
0.613565 0.613565 0.613565
0.624796 0.624796 0.624796
0.635874 0.635874 0.635874
0.64683 0.64683 0.64683
0.657771 0.657771 0.657771
0.668589 0.668589 0.668589
0.679591 0.679591 0.679591
0.689952 0.689952 0.689952
0.368612 0.368612 0.368612
0.379263 0.379263 0.379263
0.389685 0.389685 0.389685
0.400275 0.400275 0.400275
0.411093 0.411093 0.411093
0.42208 0.42208 0.42208
0.43328 0.43328 0.43328
0.444617 0.444617 0.444617
0.455802 0.455802 0.455802
0.467109 0.467109 0.467109
0.478523 0.478523 0.478523
0.489937 0.489937 0.489937
0.501625 0.501625 0.501625
0.513283 0.513283 0.513283
0.524773 0.524773 0.524773
0.536309 0.536309 0.536309
0.54786 0.54786 0.54786
0.559365 0.559365 0.559365
0.571267 0.571267 0.571267
0.582681 0.582681 0.582681
0.594064 0.594064 0.594064
0.605432 0.605432 0.605432
0.616724 0.616724 0.616724
0.628153 0.628153 0.628153
0.639261 0.639261 0.639261
0.650187 0.650187 0.650187
0.661082 0.661082 0.661082
0.671824 0.671824 0.671824
0.682338 0.682338 0.682338
0.693004 0.693004 0.693004
0.703258 0.703258 0.703258
0.71342 0.71342 0.71342
0.723369 0.723369 0.723369
0.403723 0.403723 0.403723
0.414603 0.414603 0.414603
0.425635 0.425635 0.425635
0.436683 0.436683 0.436683
0.447807 0.447807 0.447807
0.45951 0.45951 0.45951
0.470909 0.470909 0.470909
0.482383 0.482383 0.482383
0.493843 0.493843 0.493843
0.505318 0.505318 0.505318
0.51696 0.51696 0.51696
0.528801 0.528801 0.528801
0.540352 0.540352 0.540352
0.551888 0.551888 0.551888
0.563363 0.563363 0.563363
0.574777 0.574777 0.574777
0.586343 0.586343 0.586343
0.597925 0.597925 0.597925
0.609232 0.609232 0.609232
0.620432 0.620432 0.620432
0.631449 0.631449 0.631449
0.642359 0.642359 0.642359
0.653513 0.653513 0.653513
0.664454 0.664454 0.664454
0.67509 0.67509 0.67509
0.685496 0.685496 0.685496
0.69575 0.69575 0.69575
0.705959 0.705959 0.705959
0.716381 0.716381 0.716381
0.726284 0.726284 0.726284
0.735866 0.735866 0.735866
0.745266 0.745266 0.745266
0.754604 0.754604 0.754604
0.440299 0.440299 0.440299
0.451469 0.451469 0.451469
0.462806 0.462806 0.462806
0.47425 0.47425 0.47425
0.486168 0.486168 0.486168
0.497673 0.497673 0.497673
0.509209 0.509209 0.509209
0.520775 0.520775 0.520775
0.532357 0.532357 0.532357
0.54403 0.54403 0.54403
0.555917 0.555917 0.555917
0.567391 0.567391 0.567391
0.57879 0.57879 0.57879
0.590143 0.590143 0.590143
0.601465 0.601465 0.601465
0.612894 0.612894 0.612894
0.624262 0.624262 0.624262
0.635187 0.635187 0.635187
0.646036 0.646036 0.646036
0.65687 0.65687 0.65687
0.667582 0.667582 0.667582
0.678477 0.678477 0.678477
0.688762 0.688762 0.688762
0.69894 0.69894 0.69894
0.709102 0.709102 0.709102
0.719112 0.719112 0.719112
0.729046 0.729046 0.729046
0.738705 0.738705 0.738705
0.748074 0.748074 0.748074
0.757382 0.757382 0.757382
0.766522 0.766522 0.766522
0.775341 0.775341 0.775341
0.784161 0.784161 0.784161
0.478065 0.478065 0.478065
0.489555 0.489555 0.489555
0.501076 0.501076 0.501076
0.513069 0.513069 0.513069
0.524666 0.524666 0.524666
0.536294 0.536294 0.536294
0.54789 0.54789 0.54789
0.559472 0.559472 0.559472
0.571389 0.571389 0.571389
0.582803 0.582803 0.582803
0.594171 0.594171 0.594171
0.605509 0.605509 0.605509
0.616709 0.616709 0.616709
0.627802 0.627802 0.627802
0.639048 0.639048 0.639048
0.649866 0.649866 0.649866
0.660624 0.660624 0.660624
0.671244 0.671244 0.671244
0.68162 0.68162 0.68162
0.691936 0.691936 0.691936
0.702327 0.702327 0.702327
0.712398 0.712398 0.712398
0.722255 0.722255 0.722255
0.731838 0.731838 0.731838
0.741253 0.741253 0.741253
0.750759 0.750759 0.750759
0.760204 0.760204 0.760204
0.769207 0.769207 0.769207
0.777935 0.777935 0.777935
0.786465 0.786465 0.786465
0.794934 0.794934 0.794934
0.803494 0.803494 0.803494
0.811688 0.811688 0.811688
0.516548 0.516548 0.516548
0.528527 0.528527 0.528527
0.540215 0.540215 0.540215
0.551827 0.551827 0.551827
0.563394 0.563394 0.563394
0.574884 0.574884 0.574884
0.586313 0.586313 0.586313
0.598169 0.598169 0.598169
0.609506 0.609506 0.609506
0.620676 0.620676 0.620676
0.631678 0.631678 0.631678
0.642542 0.642542 0.642542
0.653361 0.653361 0.653361
0.664485 0.664485 0.664485
0.674998 0.674998 0.674998
0.685267 0.685267 0.685267
0.695399 0.695399 0.695399
0.705486 0.705486 0.705486
0.715541 0.715541 0.715541
0.725567 0.725567 0.725567
0.735012 0.735012 0.735012
0.744335 0.744335 0.744335
0.753597 0.753597 0.753597
0.762737 0.762737 0.762737
0.771969 0.771969 0.771969
0.780575 0.780575 0.780575
0.789059 0.789059 0.789059
0.797498 0.797498 0.797498
0.805768 0.805768 0.805768
0.81387 0.81387 0.81387
0.82179 0.82179 0.82179
0.829389 0.829389 0.829389
0.836957 0.836957 0.836957
0.555718 0.555718 0.555718
0.567346 0.567346 0.567346
0.57882 0.57882 0.57882
0.590249 0.590249 0.590249
0.601663 0.601663 0.601663
0.612985 0.612985 0.612985
0.624582 0.624582 0.624582
0.635569 0.635569 0.635569
0.646448 0.646448 0.646448
0.657267 0.657267 0.657267
0.667948 0.667948 0.667948
0.678767 0.678767 0.678767
0.689006 0.689006 0.689006
0.699092 0.699092 0.699092
0.709148 0.709148 0.709148
0.719005 0.719005 0.719005
0.728603 0.728603 0.728603
0.738323 0.738323 0.738323
0.747585 0.747585 0.747585
0.756786 0.756786 0.756786
0.765789 0.765789 0.765789
0.774517 0.774517 0.774517
0.783047 0.783047 0.783047
0.79176 0.79176 0.79176
0.800122 0.800122 0.800122
0.808286 0.808286 0.808286
0.816159 0.816159 0.816159
0.823819 0.823819 0.823819
0.83151 0.83151 0.83151
0.839216 0.839216 0.839216
0.846494 0.846494 0.846494
0.853498 0.853498 0.853498
0.860319 0.860319 0.860319
0.594232 0.594232 0.594232
0.605615 0.605615 0.605615
0.616892 0.616892 0.616892
0.628 0.628 0.628
0.639246 0.639246 0.639246
0.650278 0.650278 0.650278
0.661097 0.661097 0.661097
0.671748 0.671748 0.671748
0.682139 0.682139 0.682139
0.692332 0.692332 0.692332
0.70277 0.70277 0.70277
0.71284 0.71284 0.71284
0.722622 0.722622 0.722622
0.732113 0.732113 0.732113
0.741405 0.741405 0.741405
0.750622 0.750622 0.750622
0.760098 0.760098 0.760098
0.768963 0.768963 0.768963
0.777554 0.777554 0.777554
0.785977 0.785977 0.785977
0.794339 0.794339 0.794339
0.802609 0.802609 0.802609
0.81091 0.81091 0.81091
0.818631 0.818631 0.818631
0.82623 0.82623 0.82623
0.833799 0.833799 0.833799
0.84123 0.84123 0.84123
0.848676 0.848676 0.848676
0.855604 0.855604 0.855604
0.862394 0.862394 0.862394
0.869139 0.869139 0.869139
0.875639 0.875639 0.875639
0.881819 0.881819 0.881819
0.631876 0.631876 0.631876
0.642802 0.642802 0.642802
0.653696 0.653696 0.653696
0.664729 0.664729 0.664729
0.675471 0.675471 0.675471
0.685802 0.685802 0.685802
0.695994 0.695994 0.695994
0.706142 0.706142 0.706142
0.716121 0.716121 0.716121
0.726207 0.726207 0.726207
0.735622 0.735622 0.735622
0.7449 0.7449 0.7449
0.754116 0.754116 0.754116
0.763149 0.763149 0.763149
0.772168 0.772168 0.772168
0.780713 0.780713 0.780713
0.789075 0.789075 0.789075
0.797391 0.797391 0.797391
0.805524 0.805524 0.805524
0.813382 0.813382 0.813382
0.821286 0.821286 0.821286
0.82884 0.82884 0.82884
0.836316 0.836316 0.836316
0.84361 0.84361 0.84361
0.85066 0.85066 0.85066
0.857496 0.857496 0.857496
0.86453 0.86453 0.86453
0.871199 0.871199 0.871199
0.877577 0.877577 0.877577
0.883574 0.883574 0.883574
0.889311 0.889311 0.889311
0.894957 0.894957 0.894957
0.900557 0.900557 0.900557
0.668345 0.668345 0.668345
0.67895 0.67895 0.67895
0.689494 0.689494 0.689494
0.699672 0.699672 0.699672
0.709789 0.709789 0.709789
0.719722 0.719722 0.719722
0.729366 0.729366 0.729366
0.738949 0.738949 0.738949
0.748425 0.748425 0.748425
0.75761 0.75761 0.75761
0.766583 0.766583 0.766583
0.77525 0.77525 0.77525
0.783673 0.783673 0.783673
0.792233 0.792233 0.792233
0.800595 0.800595 0.800595
0.808591 0.808591 0.808591
0.816327 0.816327 0.816327
0.823865 0.823865 0.823865
0.831342 0.831342 0.831342
0.838987 0.838987 0.838987
0.846189 0.846189 0.846189
0.853086 0.853086 0.853086
0.859846 0.859846 0.859846
0.866545 0.866545 0.866545
0.873106 0.873106 0.873106
0.879576 0.879576 0.879576
0.885435 0.885435 0.885435
0.891112 0.891112 0.891112
0.896696 0.896696 0.896696
0.901961 0.901961 0.901961
0.906783 0.906783 0.906783
0.910842 0.910842 0.910842
0.914626 0.914626 0.914626
0.703151 0.703151 0.703151
0.713512 0.713512 0.713512
0.723354 0.723354 0.723354
0.732891 0.732891 0.732891
0.74226 0.74226 0.74226
0.751568 0.751568 0.751568
0.760891 0.760891 0.760891
0.770001 0.770001 0.770001
0.778592 0.778592 0.778592
0.786999 0.786999 0.786999
0.795361 0.795361 0.795361
0.803555 0.803555 0.803555
0.81178 0.81178 0.81178
0.819409 0.819409 0.819409
0.826902 0.826902 0.826902
0.834348 0.834348 0.834348
0.841642 0.841642 0.841642
0.848829 0.848829 0.848829
0.855741 0.855741 0.855741
0.862425 0.862425 0.862425
0.869062 0.869062 0.869062
0.875456 0.875456 0.875456
0.881498 0.881498 0.881498
0.887388 0.887388 0.887388
0.893065 0.893065 0.893065
0.898543 0.898543 0.898543
0.903578 0.903578 0.903578
0.908003 0.908003 0.908003
0.911925 0.911925 0.911925
0.915816 0.915816 0.915816
0.919448 0.919448 0.919448
0.922744 0.922744 0.922744
0.925643 0.925643 0.925643
0.736477 0.736477 0.736477
0.7458 0.7458 0.7458
0.755077 0.755077 0.755077
0.764187 0.764187 0.764187
0.773037 0.773037 0.773037
0.781872 0.781872 0.781872
0.790311 0.790311 0.790311
0.798672 0.798672 0.798672
0.806821 0.806821 0.806821
0.814649 0.814649 0.814649
0.822339 0.822339 0.822339
0.83003 0.83003 0.83003
0.837446 0.837446 0.837446
0.844633 0.844633 0.844633
0.85156 0.85156 0.85156
0.858274 0.858274 0.858274
0.865049 0.865049 0.865049
0.871717 0.871717 0.871717
0.877943 0.877943 0.877943
0.883818 0.883818 0.883818
0.889433 0.889433 0.889433
0.894987 0.894987 0.894987
0.900435 0.900435 0.900435
0.905257 0.905257 0.905257
0.909422 0.909422 0.909422
0.913222 0.913222 0.913222
0.916945 0.916945 0.916945
0.920485 0.920485 0.920485
0.923751 0.923751 0.923751
0.926513 0.926513 0.926513
0.929061 0.929061 0.929061
0.931563 0.931563 0.931563
0.933913 0.933913 0.933913
0.76762 0.76762 0.76762
0.776318 0.776318 0.776318
0.784817 0.784817 0.784817
0.793256 0.793256 0.793256
0.801877 0.801877 0.801877
0.809949 0.809949 0.809949
0.817731 0.817731 0.817731
0.825315 0.825315 0.825315
0.832837 0.832837 0.832837
0.840284 0.840284 0.840284
0.847623 0.847623 0.847623
0.854459 0.854459 0.854459
0.861143 0.861143 0.861143
0.867781 0.867781 0.867781
0.87422 0.87422 0.87422
0.880522 0.880522 0.880522
0.886244 0.886244 0.886244
0.891783 0.891783 0.891783
0.897246 0.897246 0.897246
0.902358 0.902358 0.902358
0.90692 0.90692 0.90692
0.910964 0.910964 0.910964
0.914672 0.914672 0.914672
0.918288 0.918288 0.918288
0.921675 0.921675 0.921675
0.924651 0.924651 0.924651
0.927367 0.927367 0.927367
0.929931 0.929931 0.929931
0.932387 0.932387 0.932387
0.934646 0.934646 0.934646
0.93666 0.93666 0.93666
0.93846 0.93846 0.93846
0.94023 0.94023 0.94023
0.796521 0.796521 0.796521
0.804761 0.804761 0.804761
0.813016 0.813016 0.813016
0.820722 0.820722 0.820722
0.828305 0.828305 0.828305
0.835828 0.835828 0.835828
