OFX Video Plug-Ins/Vfx1.ofx.bundle/Contents/Resources/AutoLooks/17.cube
TITLE "Generated by Resolve"
LUT_3D_SIZE 5
0.065507 0.065507 0.065507
0.102327 0.102327 0.102327
0.136721 0.136721 0.136721
0.172702 0.172702 0.172702
0.216464 0.216464 0.216464
0.186954 0.186954 0.186954
0.23444 0.23444 0.23444
0.29897 0.29897 0.29897
0.376394 0.376394 0.376394
0.464393 0.464393 0.464393
0.403723 0.403723 0.403723
0.493843 0.493843 0.493843
0.586343 0.586343 0.586343
0.67509 0.67509 0.67509
0.754604 0.754604 0.754604
0.703151 0.703151 0.703151
0.778592 0.778592 0.778592
0.841642 0.841642 0.841642
0.893065 0.893065 0.893065
0.925643 0.925643 0.925643
0.909285 0.909285 0.909285
0.93431 0.93431 0.93431
0.946792 0.946792 0.946792
0.95404 0.95404 0.95404
0.959777 0.959777 0.959777
0.0817884 0.0817884 0.0817884
0.117906 0.117906 0.117906
0.152285 0.152285 0.152285
0.18999 0.18999 0.18999
0.237568 0.237568 0.237568
0.205158 0.205158 0.205158
0.258427 0.258427 0.258427
0.32755 0.32755 0.32755
0.408743 0.408743 0.408743
0.499123 0.499123 0.499123
0.437018 0.437018 0.437018
0.529152 0.529152 0.529152
0.62092 0.62092 0.62092
0.706844 0.706844 0.706844
0.782696 0.782696 0.782696
0.7337 0.7337 0.7337
0.805219 0.805219 0.805219
0.864225 0.864225 0.864225
0.910338 0.910338 0.910338
0.936034 0.936034 0.936034
0.923217 0.923217 0.923217
0.943221 0.943221 0.943221
0.953399 0.953399 0.953399
0.959518 0.959518 0.959518
0.965301 0.965301 0.965301
0.101884 0.101884 0.101884
0.13698 0.13698 0.13698
0.171786 0.171786 0.171786
0.21178 0.21178 0.21178
0.265049 0.265049 0.265049
0.228428 0.228428 0.228428
0.287938 0.287938 0.287938
0.361196 0.361196 0.361196
0.446097 0.446097 0.446097
0.538079 0.538079 0.538079
0.475059 0.475059 0.475059
0.568261 0.568261 0.568261
0.658396 0.658396 0.658396
0.740932 0.740932 0.740932
0.813077 0.813077 0.813077
0.766598 0.766598 0.766598
0.833738 0.833738 0.833738
0.889357 0.889357 0.889357
0.927977 0.927977 0.927977
0.948806 0.948806 0.948806
0.938872 0.938872 0.938872
0.95494 0.95494 0.95494
0.963119 0.963119 0.963119
0.968612 0.968612 0.968612
0.974624 0.974624 0.974624
0.119112 0.119112 0.119112
0.15404 0.15404 0.15404
0.189792 0.189792 0.189792
0.233082 0.233082 0.233082
0.292302 0.292302 0.292302
0.251682 0.251682 0.251682
0.316838 0.316838 0.316838
0.394354 0.394354 0.394354
0.481575 0.481575 0.481575
0.575158 0.575158 0.575158
0.511757 0.511757 0.511757
0.604578 0.604578 0.604578
0.693065 0.693065 0.693065
0.771771 0.771771 0.771771
0.839933 0.839933 0.839933
0.796033 0.796033 0.796033
0.859419 0.859419 0.859419
0.910262 0.910262 0.910262
0.941772 0.941772 0.941772
0.95845 0.95845 0.95845
0.950744 0.950744 0.950744
0.963623 0.963623 0.963623
0.970474 0.970474 0.970474
0.975601 0.975601 0.975601
0.982345 0.982345 0.982345
0.132036 0.132036 0.132036
0.166827 0.166827 0.166827
0.204486 0.204486 0.204486
0.251652 0.251652 0.251652
0.317021 0.317021 0.317021
0.273091 0.273091 0.273091
0.343008 0.343008 0.343008
0.424125 0.424125 0.424125
0.513985 0.513985 0.513985
0.607553 0.607553 0.607553
0.544427 0.544427 0.544427
0.636667 0.636667 0.636667
0.72195 0.72195 0.72195
0.797101 0.797101 0.797101
0.861128 0.861128 0.861128
0.819745 0.819745 0.819745
0.879271 0.879271 0.879271
0.924605 0.924605 0.924605
0.949477 0.949477 0.949477
0.962936 0.962936 0.962936
0.956924 0.956924 0.956924
0.967559 0.967559 0.967559
0.973312 0.973312 0.973312
0.978485 0.978485 0.978485
0.985901 0.985901 0.985901
