OFX Video Plug-Ins/Vfx1.ofx.bundle/Contents/Resources/AutoLooks/17.cube
TITLE "Generated by Resolve"
LUT_3D_SIZE 9
0.065507 0.065507 0.065507
0.0843366 0.0843366 0.0843366
0.102327 0.102327 0.102327
0.119631 0.119631 0.119631
0.136721 0.136721 0.136721
0.154238 0.154238 0.154238
0.172702 0.172702 0.172702
0.19321 0.19321 0.19321
0.216464 0.216464 0.216464
0.125719 0.125719 0.125719
0.143236 0.143236 0.143236
0.161089 0.161089 0.161089
0.180026 0.180026 0.180026
0.200793 0.200793 0.200793
0.224475 0.224475 0.224475
0.253483 0.253483 0.253483
0.286839 0.286839 0.286839
0.323522 0.323522 0.323522
0.186954 0.186954 0.186954
0.209125 0.209125 0.209125
0.23444 0.23444 0.23444
0.264729 0.264729 0.264729
0.29897 0.29897 0.29897
0.336034 0.336034 0.336034
0.376394 0.376394 0.376394
0.419394 0.419394 0.419394
0.464393 0.464393 0.464393
0.275303 0.275303 0.275303
0.310826 0.310826 0.310826
0.349126 0.349126 0.349126
0.390295 0.390295 0.390295
0.433768 0.433768 0.433768
0.478614 0.478614 0.478614
0.525139 0.525139 0.525139
0.572091 0.572091 0.572091
0.617899 0.617899 0.617899
0.403723 0.403723 0.403723
0.447807 0.447807 0.447807
0.493843 0.493843 0.493843
0.540352 0.540352 0.540352
0.586343 0.586343 0.586343
0.631449 0.631449 0.631449
0.67509 0.67509 0.67509
0.716381 0.716381 0.716381
0.754604 0.754604 0.754604
0.555718 0.555718 0.555718
0.601663 0.601663 0.601663
0.646448 0.646448 0.646448
0.689006 0.689006 0.689006
0.728603 0.728603 0.728603
0.765789 0.765789 0.765789
0.800122 0.800122 0.800122
0.83151 0.83151 0.83151
0.860319 0.860319 0.860319
0.703151 0.703151 0.703151
0.74226 0.74226 0.74226
0.778592 0.778592 0.778592
0.81178 0.81178 0.81178
0.841642 0.841642 0.841642
0.869062 0.869062 0.869062
0.893065 0.893065 0.893065
0.911925 0.911925 0.911925
0.925643 0.925643 0.925643
0.823438 0.823438 0.823438
0.852995 0.852995 0.852995
0.879561 0.879561 0.879561
0.901732 0.901732 0.901732
0.917815 0.917815 0.917815
0.929412 0.929412 0.929412
0.937972 0.937972 0.937972
0.944366 0.944366 0.944366
0.949172 0.949172 0.949172
0.909285 0.909285 0.909285
0.923949 0.923949 0.923949
0.93431 0.93431 0.93431
0.941543 0.941543 0.941543
0.946792 0.946792 0.946792
0.950774 0.950774 0.950774
0.95404 0.95404 0.95404
0.956954 0.956954 0.956954
0.959777 0.959777 0.959777
0.0732586 0.0732586 0.0732586
0.092256 0.092256 0.092256
0.109941 0.109941 0.109941
0.127123 0.127123 0.127123
0.144274 0.144274 0.144274
0.161959 0.161959 0.161959
0.181033 0.181033 0.181033
0.202228 0.202228 0.202228
0.226398 0.226398 0.226398
0.133242 0.133242 0.133242
0.150759 0.150759 0.150759
0.169009 0.169009 0.169009
0.188602 0.188602 0.188602
0.210346 0.210346 0.210346
0.23537 0.23537 0.23537
0.265751 0.265751 0.265751
0.300404 0.300404 0.300404
0.337835 0.337835 0.337835
0.195636 0.195636 0.195636
0.218692 0.218692 0.218692
0.246128 0.246128 0.246128
0.27776 0.27776 0.27776
0.312978 0.312978 0.312978
0.350927 0.350927 0.350927
0.392233 0.392233 0.392233
0.436118 0.436118 0.436118
0.481361 0.481361 0.481361
0.288746 0.288746 0.288746
0.325109 0.325109 0.325109
0.364538 0.364538 0.364538
0.406455 0.406455 0.406455
0.450156 0.450156 0.450156
0.495979 0.495979 0.495979
0.542672 0.542672 0.542672
0.58941 0.58941 0.58941
0.63476 0.63476 0.63476
0.42031 0.42031 0.42031
0.464912 0.464912 0.464912
0.511254 0.511254 0.511254
0.55787 0.55787 0.55787
0.603403 0.603403 0.603403
0.648051 0.648051 0.648051
0.690883 0.690883 0.690883
0.731258 0.731258 0.731258
0.768719 0.768719 0.768719
0.573007 0.573007 0.573007
0.618769 0.618769 0.618769
0.662928 0.662928 0.662928
0.704524 0.704524 0.704524
0.743099 0.743099 0.743099
0.779339 0.779339 0.779339
0.812802 0.812802 0.812802
0.843198 0.843198 0.843198
0.871122 0.871122 0.871122
0.718425 0.718425 0.718425
0.756603 0.756603 0.756603
0.791775 0.791775 0.791775
0.823728 0.823728 0.823728
0.852918 0.852918 0.852918
0.879393 0.879393 0.879393
0.901991 0.901991 0.901991
0.918578 0.918578 0.918578
0.930709 0.930709 0.930709
0.835386 0.835386 0.835386
0.86389 0.86389 0.86389
0.889158 0.889158 0.889158
0.909636 0.909636 0.909636
0.924071 0.924071 0.924071
0.934325 0.934325 0.934325
0.941833 0.941833 0.941833
0.947616 0.947616 0.947616
0.952056 0.952056 0.952056
0.916182 0.916182 0.916182
0.929412 0.929412 0.929412
0.938811 0.938811 0.938811
0.945312 0.945312 0.945312
0.949966 0.949966 0.949966
0.953552 0.953552 0.953552
0.956588 0.956588 0.956588
0.959457 0.959457 0.959457
0.96231 0.96231 0.96231
0.0817884 0.0817884 0.0817884
0.100374 0.100374 0.100374
0.117906 0.117906 0.117906
0.135027 0.135027 0.135027
0.152285 0.152285 0.152285
0.170245 0.170245 0.170245
0.18999 0.18999 0.18999
0.212146 0.212146 0.212146
0.237568 0.237568 0.237568
0.141192 0.141192 0.141192
0.158846 0.158846 0.158846
0.177478 0.177478 0.177478
0.197681 0.197681 0.197681
0.220447 0.220447 0.220447
0.247425 0.247425 0.247425
0.279133 0.279133 0.279133
0.314778 0.314778 0.314778
0.353079 0.353079 0.353079
0.205158 0.205158 0.205158
0.229236 0.229236 0.229236
0.258427 0.258427 0.258427
0.291585 0.291585 0.291585
0.32755 0.32755 0.32755
0.36669 0.36669 0.36669
0.408743 0.408743 0.408743
0.453101 0.453101 0.453101
0.499123 0.499123 0.499123
0.302556 0.302556 0.302556
0.340185 0.340185 0.340185
0.380682 0.380682 0.380682
0.423407 0.423407 0.423407
0.467628 0.467628 0.467628
0.513787 0.513787 0.513787
0.560601 0.560601 0.560601
0.606638 0.606638 0.606638
0.651759 0.651759 0.651759
0.437018 0.437018 0.437018
0.482612 0.482612 0.482612
0.529152 0.529152 0.529152
0.575692 0.575692 0.575692
0.62092 0.62092 0.62092
0.664942 0.664942 0.664942
0.706844 0.706844 0.706844
0.745968 0.745968 0.745968
0.782696 0.782696 0.782696
0.590478 0.590478 0.590478
0.63595 0.63595 0.63595
0.679484 0.679484 0.679484
0.719951 0.719951 0.719951
0.757855 0.757855 0.757855
0.792935 0.792935 0.792935
0.82536 0.82536 0.82536
0.854917 0.854917 0.854917
0.881895 0.881895 0.881895
0.7337 0.7337 0.7337
0.771023 0.771023 0.771023
0.805219 0.805219 0.805219
0.835981 0.835981 0.835981
0.864225 0.864225 0.864225
0.889433 0.889433 0.889433
0.910338 0.910338 0.910338
0.925277 0.925277 0.925277
0.936034 0.936034 0.936034
0.847486 0.847486 0.847486
0.875029 0.875029 0.875029
0.898802 0.898802 0.898802
0.916976 0.916976 0.916976
0.929976 0.929976 0.929976
0.939254 0.939254 0.939254
0.946014 0.946014 0.946014
0.951186 0.951186 0.951186
0.95523 0.95523 0.95523
0.923217 0.923217 0.923217
0.934844 0.934844 0.934844
0.943221 0.943221 0.943221
0.949172 0.949172 0.949172
0.953399 0.953399 0.953399
0.95668 0.95668 0.95668
0.959518 0.959518 0.959518
0.962341 0.962341 0.962341
0.965301 0.965301 0.965301
0.0916152 0.0916152 0.0916152
0.109636 0.109636 0.109636
0.127153 0.127153 0.127153
0.14432 0.14432 0.14432
0.161746 0.161746 0.161746
0.180056 0.180056 0.180056
0.200397 0.200397 0.200397
0.223682 0.223682 0.223682
0.250828 0.250828 0.250828
0.1505 0.1505 0.1505
0.168429 0.168429 0.168429
0.187594 0.187594 0.187594
0.208484 0.208484 0.208484
0.232151 0.232151 0.232151
0.261051 0.261051 0.261051
0.294301 0.294301 0.294301
0.330907 0.330907 0.330907
0.370153 0.370153 0.370153
0.216434 0.216434 0.216434
0.241978 0.241978 0.241978
0.272541 0.272541 0.272541
0.30692 0.30692 0.30692
0.343938 0.343938 0.343938
0.384176 0.384176 0.384176
0.427024 0.427024 0.427024
0.471794 0.471794 0.471794
0.518257 0.518257 0.518257
0.318303 0.318303 0.318303
0.356878 0.356878 0.356878
0.398291 0.398291 0.398291
0.441672 0.441672 0.441672
0.486671 0.486671 0.486671
0.533013 0.533013 0.533013
0.579767 0.579767 0.579767
0.625513 0.625513 0.625513
0.670008 0.670008 0.670008
0.455619 0.455619 0.455619
0.501717 0.501717 0.501717
0.54844 0.54844 0.54844
0.594293 0.594293 0.594293
0.639475 0.639475 0.639475
0.682887 0.682887 0.682887
0.723735 0.723735 0.723735
0.762066 0.762066 0.762066
0.79765 0.79765 0.79765
0.609476 0.609476 0.609476
0.654261 0.654261 0.654261
0.696971 0.696971 0.696971
0.736614 0.736614 0.736614
0.773648 0.773648 0.773648
0.807752 0.807752 0.807752
0.838773 0.838773 0.838773
0.867597 0.867597 0.867597
0.893324 0.893324 0.893324
0.74992 0.74992 0.74992
0.786236 0.786236 0.786236
0.819562 0.819562 0.819562
0.84947 0.84947 0.84947
0.876738 0.876738 0.876738
0.900465 0.900465 0.900465
0.91899 0.91899 0.91899
0.932586 0.932586 0.932586
0.942351 0.942351 0.942351
0.860456 0.860456 0.860456
0.887007 0.887007 0.887007
0.909285 0.909285 0.909285
0.925368 0.925368 0.925368
0.936767 0.936767 0.936767
0.945083 0.945083 0.945083
0.951247 0.951247 0.951247
0.955978 0.955978 0.955978
0.959716 0.959716 0.959716
0.931121 0.931121 0.931121
0.941466 0.941466 0.941466
0.948852 0.948852 0.948852
0.954147 0.954147 0.954147
0.958007 0.958007 0.958007
0.961059 0.961059 0.961059
0.963775 0.963775 0.963775
0.966567 0.966567 0.966567
0.96965 0.96965 0.96965
0.101884 0.101884 0.101884
0.1196 0.1196 0.1196
0.13698 0.13698 0.13698
0.154223 0.154223 0.154223
0.171786 0.171786 0.171786
0.190738 0.190738 0.190738
0.21178 0.21178 0.21178
0.235843 0.235843 0.235843
0.265049 0.265049 0.265049
0.160281 0.160281 0.160281
0.178683 0.178683 0.178683
0.19852 0.19852 0.19852
0.220401 0.220401 0.220401
0.245426 0.245426 0.245426
0.2757 0.2757 0.2757
0.310216 0.310216 0.310216
0.347646 0.347646 0.347646
0.38822 0.38822 0.38822
0.228428 0.228428 0.228428
0.256031 0.256031 0.256031
0.287938 0.287938 0.287938
0.323247 0.323247 0.323247
0.361196 0.361196 0.361196
0.402365 0.402365 0.402365
0.446097 0.446097 0.446097
0.491341 0.491341 0.491341
0.538079 0.538079 0.538079
0.335119 0.335119 0.335119
0.374655 0.374655 0.374655
0.416815 0.416815 0.416815
0.460639 0.460639 0.460639
0.506371 0.506371 0.506371
0.552895 0.552895 0.552895
0.599252 0.599252 0.599252
0.644694 0.644694 0.644694
0.688579 0.688579 0.688579
0.475059 0.475059 0.475059
0.521477 0.521477 0.521477
0.568261 0.568261 0.568261
0.613886 0.613886 0.613886
0.658396 0.658396 0.658396
0.700999 0.700999 0.700999
0.740932 0.740932 0.740932
0.7785 0.7785 0.7785
0.813077 0.813077 0.813077
0.628901 0.628901 0.628901
0.673075 0.673075 0.673075
0.714626 0.714626 0.714626
0.753445 0.753445 0.753445
0.789502 0.789502 0.789502
0.822721 0.822721 0.822721
0.852888 0.852888 0.852888
0.88072 0.88072 0.88072
0.904967 0.904967 0.904967
0.766598 0.766598 0.766598
0.801755 0.801755 0.801755
0.833738 0.833738 0.833738
0.863066 0.863066 0.863066
0.889357 0.889357 0.889357
0.911604 0.911604 0.911604
0.927977 0.927977 0.927977
0.939986 0.939986 0.939986
0.948806 0.948806 0.948806
0.873686 0.873686 0.873686
0.898924 0.898924 0.898924
0.919478 0.919478 0.919478
0.933913 0.933913 0.933913
0.943999 0.943999 0.943999
0.951263 0.951263 0.951263
0.956817 0.956817 0.956817
0.961196 0.961196 0.961196
0.964706 0.964706 0.964706
0.938872 0.938872 0.938872
0.948272 0.948272 0.948272
0.95494 0.95494 0.95494
0.959655 0.959655 0.959655
0.963119 0.963119 0.963119
0.965957 0.965957 0.965957
0.968612 0.968612 0.968612
0.97145 0.97145 0.97145
0.974624 0.974624 0.974624
0.111147 0.111147 0.111147
0.128817 0.128817 0.128817
0.146136 0.146136 0.146136
0.163424 0.163424 0.163424
0.181369 0.181369 0.181369
0.200961 0.200961 0.200961
0.22298 0.22298 0.22298
0.248356 0.248356 0.248356
0.278965 0.278965 0.278965
0.16968 0.16968 0.16968
0.188434 0.188434 0.188434
0.20885 0.20885 0.20885
0.231662 0.231662 0.231662
0.258762 0.258762 0.258762
0.290364 0.290364 0.290364
0.325872 0.325872 0.325872
0.364187 0.364187 0.364187
0.405707 0.405707 0.405707
0.240253 0.240253 0.240253
0.269596 0.269596 0.269596
0.303029 0.303029 0.303029
0.339117 0.339117 0.339117
0.378241 0.378241 0.378241
0.420157 0.420157 0.420157
0.464149 0.464149 0.464149
0.510353 0.510353 0.510353
0.557275 0.557275 0.557275
0.351461 0.351461 0.351461
0.392065 0.392065 0.392065
0.435035 0.435035 0.435035
0.479377 0.479377 0.479377
0.525444 0.525444 0.525444
0.572061 0.572061 0.572061
0.617884 0.617884 0.617884
0.662943 0.662943 0.662943
0.70602 0.70602 0.70602
0.494026 0.494026 0.494026
0.540627 0.540627 0.540627
0.587213 0.587213 0.587213
0.632654 0.632654 0.632654
0.676539 0.676539 0.676539
0.718196 0.718196 0.718196
0.757061 0.757061 0.757061
0.793698 0.793698 0.793698
0.827405 0.827405 0.827405
0.647318 0.647318 0.647318
0.690867 0.690867 0.690867
0.731502 0.731502 0.731502
0.769436 0.769436 0.769436
0.804349 0.804349 0.804349
0.836378 0.836378 0.836378
0.865827 0.865827 0.865827
0.892699 0.892699 0.892699
0.915587 0.915587 0.915587
0.782223 0.782223 0.782223
0.816373 0.816373 0.816373
0.847349 0.847349 0.847349
0.875608 0.875608 0.875608
0.900633 0.900633 0.900633
0.921157 0.921157 0.921157
0.935897 0.935897 0.935897
0.946548 0.946548 0.946548
0.95433 0.95433 0.95433
0.886061 0.886061 0.886061
0.909697 0.909697 0.909697
0.928038 0.928038 0.928038
0.941039 0.941039 0.941039
0.950164 0.950164 0.950164
0.956695 0.956695 0.956695
0.961639 0.961639 0.961639
0.965621 0.965621 0.965621
0.968887 0.968887 0.968887
0.945556 0.945556 0.945556
0.953902 0.953902 0.953902
0.960037 0.960037 0.960037
0.96434 0.96434 0.96434
0.967483 0.967483 0.967483
0.970138 0.970138 0.970138
0.972747 0.972747 0.972747
0.975677 0.975677 0.975677
0.979065 0.979065 0.979065
0.119112 0.119112 0.119112
0.136675 0.136675 0.136675
0.15404 0.15404 0.15404
0.171481 0.171481 0.171481
0.189792 0.189792 0.189792
0.209995 0.209995 0.209995
0.233082 0.233082 0.233082
0.260365 0.260365 0.260365
0.292302 0.292302 0.292302
0.177905 0.177905 0.177905
0.197177 0.197177 0.197177
0.218311 0.218311 0.218311
0.242115 0.242115 0.242115
0.271015 0.271015 0.271015
0.304158 0.304158 0.304158
0.340444 0.340444 0.340444
0.379904 0.379904 0.379904
0.422187 0.422187 0.422187
0.251682 0.251682 0.251682
0.282353 0.282353 0.282353
0.316838 0.316838 0.316838
0.354162 0.354162 0.354162
0.394354 0.394354 0.394354
0.437064 0.437064 0.437064
0.481575 0.481575 0.481575
0.528115 0.528115 0.528115
0.575158 0.575158 0.575158
0.366781 0.366781 0.366781
0.408301 0.408301 0.408301
0.451713 0.451713 0.451713
0.497047 0.497047 0.497047
0.543297 0.543297 0.543297
0.589837 0.589837 0.589837
0.63537 0.63537 0.63537
0.679789 0.679789 0.679789
0.72195 0.72195 0.72195
0.511757 0.511757 0.511757
0.558526 0.558526 0.558526
0.604578 0.604578 0.604578
0.649805 0.649805 0.649805
0.693065 0.693065 0.693065
0.733562 0.733562 0.733562
0.771771 0.771771 0.771771
0.807263 0.807263 0.807263
0.839933 0.839933 0.839933
0.664256 0.664256 0.664256
0.70695 0.70695 0.70695
0.746746 0.746746 0.746746
0.78381 0.78381 0.78381
0.817761 0.817761 0.817761
0.848554 0.848554 0.848554
0.877104 0.877104 0.877104
0.902708 0.902708 0.902708
0.923903 0.923903 0.923903
0.796033 0.796033 0.796033
0.829236 0.829236 0.829236
0.859419 0.859419 0.859419
0.886717 0.886717 0.886717
0.910262 0.910262 0.910262
0.928466 0.928466 0.928466
0.941772 0.941772 0.941772
0.951461 0.951461 0.951461
0.95845 0.95845 0.95845
0.89662 0.89662 0.89662
0.918868 0.918868 0.918868
0.935027 0.935027 0.935027
0.946426 0.946426 0.946426
0.954543 0.954543 0.954543
0.960525 0.960525 0.960525
0.965042 0.965042 0.965042
0.968719 0.968719 0.968719
0.971786 0.971786 0.971786
0.950744 0.950744 0.950744
0.95816 0.95816 0.95816
0.963623 0.963623 0.963623
0.967544 0.967544 0.967544
0.970474 0.970474 0.970474
0.973007 0.973007 0.973007
0.975601 0.975601 0.975601
0.978637 0.978637 0.978637
0.982345 0.982345 0.982345
0.125734 0.125734 0.125734
0.143145 0.143145 0.143145
0.160601 0.160601 0.160601
0.178271 0.178271 0.178271
0.197162 0.197162 0.197162
0.218051 0.218051 0.218051
0.241978 0.241978 0.241978
0.271244 0.271244 0.271244
0.304707 0.304707 0.304707
0.184833 0.184833 0.184833
0.204746 0.204746 0.204746
0.226871 0.226871 0.226871
0.25211 0.25211 0.25211
0.282353 0.282353 0.282353
0.316732 0.316732 0.316732
0.354025 0.354025 0.354025
0.394629 0.394629 0.394629
0.437705 0.437705 0.437705
0.262394 0.262394 0.262394
0.294453 0.294453 0.294453
0.329824 0.329824 0.329824
0.368078 0.368078 0.368078
0.409201 0.409201 0.409201
0.452644 0.452644 0.452644
0.497871 0.497871 0.497871
0.544594 0.544594 0.544594
0.591577 0.591577 0.591577
0.381247 0.381247 0.381247
0.423484 0.423484 0.423484
0.467536 0.467536 0.467536
0.51339 0.51339 0.51339
0.559823 0.559823 0.559823
0.605753 0.605753 0.605753
0.651194 0.651194 0.651194
0.694987 0.694987 0.694987
0.736141 0.736141 0.736141
0.528161 0.528161 0.528161
0.574777 0.574777 0.574777
0.620813 0.620813 0.620813
0.66537 0.66537 0.66537
0.707805 0.707805 0.707805
0.747478 0.747478 0.747478
0.784817 0.784817 0.784817
0.819318 0.819318 0.819318
0.850599 0.850599 0.850599
0.679713 0.679713 0.679713
0.721111 0.721111 0.721111
0.760204 0.760204 0.760204
0.796292 0.796292 0.796292
0.829358 0.829358 0.829358
0.859281 0.859281 0.859281
0.886854 0.886854 0.886854
0.911009 0.911009 0.911009
0.929793 0.929793 0.929793
0.808194 0.808194 0.808194
0.840162 0.840162 0.840162
0.869627 0.869627 0.869627
0.895964 0.895964 0.895964
0.917967 0.917967 0.917967
0.934096 0.934096 0.934096
0.945815 0.945815 0.945815
0.954543 0.954543 0.954543
0.960937 0.960937 0.960937
0.90515 0.90515 0.90515
0.925643 0.925643 0.925643
0.940185 0.940185 0.940185
0.950301 0.950301 0.950301
0.957412 0.957412 0.957412
0.962737 0.962737 0.962737
0.966903 0.966903 0.966903
0.970352 0.970352 0.970352
0.973297 0.973297 0.973297
0.954162 0.954162 0.954162
0.960891 0.960891 0.960891
0.965774 0.965774 0.965774
0.969299 0.969299 0.969299
0.97203 0.97203 0.97203
0.974502 0.974502 0.974502
0.977127 0.977127 0.977127
0.980285 0.980285 0.980285
0.984268 0.984268 0.984268
0.132036 0.132036 0.132036
0.149416 0.149416 0.149416
0.166827 0.166827 0.166827
0.184955 0.184955 0.184955
0.204486 0.204486 0.204486
0.226383 0.226383 0.226383
0.251652 0.251652 0.251652
0.282292 0.282292 0.282292
0.317021 0.317021 0.317021
0.191699 0.191699 0.191699
0.212207 0.212207 0.212207
0.235248 0.235248 0.235248
0.262562 0.262562 0.262562
0.294163 0.294163 0.294163
0.329519 0.329519 0.329519
0.367697 0.367697 0.367697
0.409232 0.409232 0.409232
0.453193 0.453193 0.453193
0.273091 0.273091 0.273091
0.306661 0.306661 0.306661
0.343008 0.343008 0.343008
0.382269 0.382269 0.382269
0.424125 0.424125 0.424125
0.467964 0.467964 0.467964
0.513985 0.513985 0.513985
0.560891 0.560891 0.560891
0.607553 0.607553 0.607553
0.395773 0.395773 0.395773
0.438727 0.438727 0.438727
0.483406 0.483406 0.483406
0.52958 0.52958 0.52958
0.576104 0.576104 0.576104
0.621714 0.621714 0.621714
0.666529 0.666529 0.666529
0.709529 0.709529 0.709529
0.749767 0.749767 0.749767
0.544427 0.544427 0.544427
0.590829 0.590829 0.590829
0.636667 0.636667 0.636667
0.680613 0.680613 0.680613
0.72195 0.72195 0.72195
0.760723 0.760723 0.760723
0.797101 0.797101 0.797101
0.830732 0.830732 0.830732
0.861128 0.861128 0.861128
0.694575 0.694575 0.694575
0.73521 0.73521 0.73521
0.773297 0.773297 0.773297
0.80824 0.80824 0.80824
0.839948 0.839948 0.839948
0.869307 0.869307 0.869307
0.895918 0.895918 0.895918
0.918593 0.918593 0.918593
0.93521 0.93521 0.93521
0.819745 0.819745 0.819745
0.850874 0.850874 0.850874
0.879271 0.879271 0.879271
0.904295 0.904295 0.904295
0.924605 0.924605 0.924605
0.939071 0.939071 0.939071
0.949477 0.949477 0.949477
0.957137 0.957137 0.957137
0.962936 0.962936 0.962936
0.912963 0.912963 0.912963
0.931273 0.931273 0.931273
0.944381 0.944381 0.944381
0.953536 0.953536 0.953536
0.95993 0.95993 0.95993
0.96466 0.96466 0.96466
0.968429 0.968429 0.968429
0.971649 0.971649 0.971649
0.974548 0.974548 0.974548
0.956924 0.956924 0.956924
0.963088 0.963088 0.963088
0.967559 0.967559 0.967559
0.970764 0.970764 0.970764
0.973312 0.973312 0.973312
0.975738 0.975738 0.975738
0.978485 0.978485 0.978485
0.981842 0.981842 0.981842
0.985901 0.985901 0.985901
