OFX Video Plug-Ins/Vfx1.ofx.bundle/Contents/Resources/AutoLooks/18.cube
TITLE "Generated by Resolve"
LUT_3D_SIZE 9
0.199496 0.221973 0.157794
0.203632 0.212589 0.146609
0.24097 0.206561 0.139208
0.33225 0.199802 0.130694
0.444572 0.172961 0.0976577
0.582788 0.140536 0.05626
0.721828 0.109972 0.0124514
0.834241 0.0899672 0
0.883177 0.0919509 0
0.196078 0.23212 0.153033
0.202518 0.225605 0.145495
0.24065 0.220096 0.138933
0.334295 0.216373 0.1337
0.45243 0.195682 0.108248
0.601022 0.173404 0.0804303
0.753262 0.155322 0.0575265
0.878431 0.146944 0.0471046
0.937514 0.157763 0.0618143
0.178149 0.260227 0.127352
0.195163 0.267353 0.135729
0.239216 0.269001 0.137057
0.344442 0.277623 0.147356
0.474418 0.26862 0.136294
0.631754 0.254063 0.118868
0.790585 0.241138 0.103441
0.921981 0.237507 0.0996109
0.987442 0.253407 0.119463
0.160189 0.347326 0.100984
0.18706 0.36614 0.124025
0.240818 0.379553 0.140047
0.341573 0.383093 0.143877
0.476616 0.379461 0.139422
0.63917 0.370077 0.127962
0.804196 0.362692 0.119371
0.94197 0.364401 0.12221
1 0.385367 0.148135
0.138308 0.463981 0.0666819
0.169207 0.488182 0.0974746
0.227543 0.507774 0.121706
0.332799 0.516945 0.132525
0.472694 0.518761 0.134493
0.64097 0.514946 0.130053
0.811414 0.512474 0.127581
0.954131 0.518471 0.135607
1 0.543038 0.165591
0.118593 0.60621 0.0323796
0.153887 0.636027 0.0729229
0.216083 0.661128 0.104814
0.325567 0.675364 0.122316
0.468986 0.681224 0.129473
0.640696 0.681132 0.129519
0.813535 0.68101 0.129885
0.957732 0.687846 0.1393
1 0.712276 0.169421
0.118654 0.763851 0.0305638
0.157397 0.797681 0.0769818
0.222629 0.82562 0.112856
0.334264 0.841871 0.132906
0.478706 0.848493 0.141009
0.650172 0.847639 0.140139
0.821393 0.84567 0.138277
0.962371 0.849821 0.144259
1 0.87068 0.170382
0.149691 0.920134 0.0810407
0.190265 0.954192 0.125368
0.256321 0.980758 0.158526
0.367208 0.994079 0.173953
0.510353 0.997452 0.178241
0.678508 0.992325 0.172061
0.845396 0.985473 0.164584
0.981323 0.98468 0.163912
1 0.999893 0.183322
0.227787 1 0.194217
0.267735 1 0.230976
0.33286 1 0.256764
0.442176 1 0.265599
0.582757 1 0.262196
0.746426 1 0.247456
0.903426 1 0.226764
1 1 0.207828
1 1 0.207034
0.199863 0.222477 0.175006
0.206592 0.21622 0.167712
0.240665 0.206271 0.155261
0.331731 0.199268 0.14696
0.444297 0.172686 0.114778
0.582742 0.140581 0.0748913
0.722515 0.110613 0.035584
0.835798 0.0916152 0.00616464
0.886336 0.0949264 0.0134585
0.199832 0.236469 0.174838
0.21088 0.235706 0.173892
0.241032 0.220523 0.155825
0.335454 0.217639 0.152041
0.455543 0.198856 0.129335
0.605264 0.177615 0.103487
0.75848 0.160388 0.0824292
0.884276 0.152422 0.0729381
0.943908 0.163638 0.0874495
0.180545 0.26331 0.147768
0.198993 0.272206 0.157534
0.243732 0.274296 0.159731
0.349691 0.283253 0.170306
0.480247 0.274632 0.16022
0.638102 0.260365 0.14345
0.798062 0.24799 0.129213
0.930297 0.244984 0.126085
0.996078 0.261204 0.145632
0.164889 0.353216 0.125368
0.192294 0.372457 0.148516
0.246937 0.386542 0.164614
0.348287 0.390311 0.168765
0.483909 0.386862 0.16466
0.64802 0.378378 0.155047
0.813672 0.37142 0.147082
0.952316 0.373632 0.150393
1 0.395087 0.175906
0.144503 0.471794 0.0944686
0.176226 0.496498 0.125261
0.235203 0.516381 0.149157
0.341512 0.525994 0.160433
0.48217 0.528222 0.162524
0.651499 0.524971 0.159182
0.822797 0.522759 0.157122
0.966033 0.528893 0.164782
1 0.553719 0.195148
0.126207 0.615732 0.0643931
0.162234 0.64622 0.103639
0.225437 0.671473 0.135058
0.335714 0.68603 0.152605
0.480003 0.692088 0.159869
0.652323 0.691966 0.159899
0.825711 0.691752 0.159838
0.969909 0.69836 0.168643
1 0.722759 0.19884
0.127291 0.774609 0.0646067
0.166857 0.808881 0.109255
0.232837 0.836912 0.144244
0.344717 0.852705 0.163333
0.489921 0.859236 0.170718
0.661585 0.858137 0.16968
0.832578 0.855528 0.167041
0.973541 0.85919 0.172244
1 0.879438 0.19791
0.159152 0.931365 0.113375
0.199771 0.965225 0.155962
0.266331 0.991531 0.1879
0.377081 1 0.203235
0.520119 1 0.206439
0.688411 1 0.19971
0.854612 0.993637 0.191058
0.990143 0.992172 0.189731
1 1 0.207492
0.236881 1 0.222843
0.276509 1 0.258412
0.341619 1 0.283513
0.450721 1 0.291279
0.591119 1 0.287465
0.752926 1 0.270466
0.907225 1 0.246891
1 1 0.226993
1 1 0.225238
0.197436 0.219669 0.229603
0.208835 0.219547 0.229297
0.240757 0.206256 0.214206
0.328435 0.195773 0.201511
0.441123 0.169451 0.170565
0.579904 0.137545 0.133669
0.720211 0.108339 0.0989548
0.835004 0.0907759 0.0778363
0.886854 0.0953536 0.0837415
0.197223 0.233219 0.229419
0.208881 0.233448 0.229618
0.241703 0.221363 0.215625
0.334142 0.216281 0.208911
0.455894 0.199222 0.188937
0.607004 0.179477 0.165805
0.7608 0.162692 0.146822
0.887114 0.155123 0.138308
0.947402 0.166873 0.152377
0.182696 0.266087 0.209384
0.203708 0.277821 0.222782
0.253452 0.285618 0.23151
0.343679 0.276799 0.221149
0.483253 0.27776 0.222095
0.642039 0.264012 0.206348
0.802182 0.252033 0.192813
0.935012 0.249378 0.190158
1 0.266529 0.210285
0.167056 0.355962 0.187732
0.195178 0.375967 0.211093
0.246082 0.385733 0.222187
0.345876 0.387778 0.224125
0.489021 0.39202 0.229114
0.65362 0.383841 0.219577
0.820356 0.377508 0.212711
0.959533 0.380011 0.216144
1 0.402075 0.242039
0.147936 0.476173 0.159792
0.180621 0.501869 0.190738
0.240604 0.522515 0.214923
0.347723 0.53257 0.226352
0.489158 0.535164 0.229252
0.65922 0.532128 0.225834
0.831037 0.530327 0.224186
0.974746 0.536431 0.231952
1 0.561578 0.261723
0.131167 0.622141 0.134615
0.168154 0.653407 0.172198
0.23212 0.67921 0.203067
0.34287 0.693553 0.219883
0.487999 0.70013 0.227695
0.661067 0.700069 0.22768
0.834485 0.699611 0.227756
0.978866 0.706004 0.235904
1 0.73022 0.264912
0.133516 0.782528 0.136904
0.173693 0.817121 0.178958
0.240146 0.845212 0.212787
0.352499 0.860685 0.231113
0.497765 0.867002 0.238483
0.669596 0.865461 0.236988
0.84033 0.862287 0.233783
0.981109 0.865583 0.238315
1 0.885359 0.262364
0.166049 0.939513 0.183108
0.206561 0.973205 0.224186
0.273167 0.998962 0.254871
0.384024 1 0.269139
0.527092 1 0.271824
0.695048 1 0.2645
0.860609 0.998795 0.25507
0.995804 0.996872 0.253391
1 1 0.26836
0.243473 1 0.28838
0.282704 1 0.322484
0.347036 1 0.345678
0.45623 1 0.353307
0.595728 1 0.348058
0.755825 1 0.329534
0.907423 1 0.303593
1 1 0.282475
1 1 0.28043
0.191455 0.212619 0.343786
0.203296 0.213184 0.344366
0.240452 0.206348 0.336721
0.321065 0.187701 0.31606
0.433707 0.161624 0.287434
0.572747 0.13022 0.252537
0.713771 0.101854 0.221424
0.830274 0.0859846 0.203983
0.883513 0.0920729 0.21088
0.19057 0.225284 0.342687
0.20293 0.22652 0.343984
0.242741 0.22298 0.33994
0.329046 0.210712 0.325902
0.451865 0.195148 0.308492
0.60444 0.176806 0.288304
0.758785 0.160525 0.270542
0.885451 0.153475 0.262898
0.946197 0.165637 0.27657
0.178988 0.261875 0.32752
0.200977 0.274876 0.341726
0.251972 0.284062 0.351843
0.343008 0.276188 0.342947
0.482033 0.276539 0.343236
0.641443 0.263401 0.328801
0.802182 0.251972 0.316442
0.935592 0.249729 0.314397
1 0.267384 0.334035
0.165484 0.354269 0.309636
0.193942 0.374716 0.332357
0.24979 0.390005 0.349172
0.351324 0.393683 0.353048
0.489677 0.392691 0.351873
0.655039 0.385245 0.343679
0.822263 0.379171 0.337209
0.961944 0.382162 0.340871
1 0.404944 0.366369
0.147799 0.476341 0.285313
0.18117 0.5028 0.315373
0.241733 0.523995 0.339132
0.349172 0.534356 0.350484
0.491661 0.537636 0.354284
0.662318 0.53518 0.351415
0.834394 0.533196 0.349599
0.97879 0.539834 0.357397
1 0.565194 0.386053
0.132418 0.624125 0.263157
0.170169 0.656001 0.300099
0.234974 0.682307 0.330053
0.346029 0.69688 0.346426
0.491753 0.703578 0.353948
0.664927 0.703578 0.35407
0.838163 0.702647 0.353384
0.982696 0.709178 0.361273
1 0.73312 0.388663
0.136049 0.785855 0.267216
0.176577 0.820645 0.307713
0.24361 0.84892 0.340169
0.355825 0.864179 0.357443
0.501274 0.870176 0.364202
0.672709 0.868223 0.362127
0.843076 0.864576 0.358343
0.983581 0.867536 0.362188
1 0.886931 0.384665
0.168597 0.94284 0.311467
0.209125 0.976394 0.350317
0.275578 1 0.379095
0.386465 1 0.392645
0.529 1 0.394446
0.696162 1 0.386603
0.861585 0.999512 0.37702
0.995789 0.996719 0.374258
1 1 0.386481
0.245411 1 0.410971
0.284443 1 0.443183
0.348394 1 0.465278
0.456855 1 0.471748
0.594766 1 0.465126
0.752712 1 0.444785
0.902373 1 0.417685
1 1 0.396338
1 1 0.393332
0.182681 0.20209 0.489586
0.194522 0.20235 0.48983
0.230884 0.195422 0.482444
0.311559 0.177066 0.46305
0.42414 0.151339 0.436179
0.563592 0.120851 0.404135
0.705364 0.0934157 0.375601
0.823072 0.078996 0.360723
0.877882 0.0867018 0.368841
0.18143 0.214771 0.488045
0.194446 0.216464 0.48986
0.234699 0.213977 0.487129
0.322652 0.203738 0.476158
0.446281 0.189273 0.461006
0.599435 0.171847 0.442557
0.754086 0.156039 0.426154
0.881239 0.149401 0.419135
0.942931 0.162387 0.432929
0.173144 0.254917 0.477653
0.19678 0.269581 0.493126
0.248478 0.280201 0.504219
0.346685 0.280171 0.504097
0.478294 0.272801 0.496208
0.638392 0.260395 0.483284
0.799741 0.249607 0.472038
0.933501 0.247807 0.470085
1 0.2663 0.489845
0.161959 0.350317 0.463416
0.191012 0.371389 0.486061
0.247288 0.387304 0.503014
0.350286 0.392645 0.508354
0.488167 0.39118 0.50695
0.653956 0.384161 0.499535
0.821668 0.378576 0.493507
0.96199 0.382132 0.497551
1 0.405371 0.522438
0.145922 0.474281 0.442359
0.179644 0.501183 0.47155
0.240742 0.523003 0.495094
0.348791 0.534005 0.506844
0.490501 0.536492 0.509453
0.663157 0.535714 0.508705
0.835447 0.533913 0.506981
0.980301 0.541039 0.514961
1 0.566339 0.542428
0.131945 0.62385 0.423163
0.170123 0.656184 0.458824
0.235157 0.682811 0.487953
0.34696 0.697887 0.504295
0.492744 0.704738 0.511727
0.666178 0.704662 0.511742
0.839307 0.703639 0.511009
0.983856 0.710048 0.518212
1 0.733562 0.544076
0.136492 0.786694 0.428504
0.17731 0.821744 0.467262
0.244038 0.849683 0.498085
0.356664 0.865095 0.514931
0.501839 0.870863 0.521233
0.672801 0.868238 0.518639
0.842954 0.864347 0.514626
0.982803 0.866728 0.517586
1 0.885618 0.538613
0.169162 0.943542 0.470741
0.209689 0.976944 0.507881
0.275639 1 0.535042
0.386145 1 0.547829
0.528176 1 0.549004
0.694682 1 0.540581
0.859297 0.997391 0.530632
0.991775 0.993164 0.526253
1 1 0.536065
0.244862 1 0.565011
0.283574 1 0.596048
0.346944 1 0.616815
0.454917 1 0.622461
0.590845 1 0.614069
0.745861 1 0.59173
0.894041 1 0.563973
1 1 0.542428
1 1 0.539345
0.172549 0.189715 0.655528
0.184192 0.189837 0.655634
0.220203 0.182879 0.648722
0.300603 0.164874 0.630472
0.413169 0.139666 0.60502
0.55314 0.11014 0.575311
0.69662 0.0846265 0.550011
0.815396 0.0712749 0.536889
0.871077 0.0800336 0.545388
0.171542 0.202731 0.654337
0.18497 0.205051 0.656764
0.225742 0.203677 0.655436
0.3149 0.195224 0.646693
0.439811 0.182467 0.633692
0.593256 0.165621 0.616693
0.748211 0.150286 0.60119
0.875532 0.14406 0.594995
0.937896 0.157809 0.608774
0.1664 0.246723 0.648188
0.19118 0.262852 0.66479
0.243168 0.274174 0.676066
0.34136 0.274647 0.676722
0.473655 0.267948 0.669886
0.633738 0.255909 0.657557
0.795438 0.24535 0.646967
0.930159 0.244678 0.646265
0.999222 0.263676 0.665461
0.157336 0.344671 0.637217
0.186923 0.366674 0.659724
0.243656 0.383291 0.67686
0.347021 0.389197 0.682902
0.485008 0.388113 0.681834
0.65156 0.381628 0.675273
0.819532 0.376516 0.669871
0.96054 0.380804 0.674403
1 0.404486 0.698924
0.142794 0.47071 0.618585
0.177157 0.498314 0.647715
0.238712 0.520821 0.67126
0.347265 0.532448 0.683146
0.490608 0.536583 0.687648
0.662303 0.534859 0.685908
0.834897 0.533349 0.684443
0.979965 0.540627 0.692073
1 0.566003 0.718898
0.130419 0.622156 0.602228
0.168963 0.654948 0.637156
0.234211 0.681849 0.665675
0.346426 0.697368 0.682048
0.492485 0.704463 0.689525
0.665476 0.70396 0.689067
0.838712 0.703014 0.688212
0.983063 0.709285 0.695079
1 0.732372 0.719661
0.135805 0.786053 0.608377
0.176715 0.821195 0.646143
0.243519 0.84918 0.676081
0.355932 0.864363 0.69221
0.500969 0.869993 0.698192
0.671229 0.866743 0.694774
0.840925 0.862486 0.690623
0.980026 0.864424 0.692699
1 0.882689 0.712551
0.168307 0.942672 0.649241
0.208347 0.975555 0.684642
0.274037 1 0.710689
0.384176 1 0.722683
0.525658 1 0.723552
0.691325 1 0.714565
0.855329 0.993851 0.704189
0.985473 0.987701 0.698009
1 0.994049 0.704738
0.242847 1 0.739361
0.280598 1 0.768505
0.343862 1 0.788525
0.450446 1 0.793133
0.584527 1 0.782956
0.736797 1 0.758694
0.883192 1 0.730419
0.997681 1 0.709087
1 1 0.705959
0.163195 0.178088 0.810819
0.174655 0.178103 0.810834
0.210559 0.171359 0.80415
0.290822 0.153765 0.786862
0.403586 0.129152 0.762783
0.544198 0.100633 0.735225
0.689097 0.0769818 0.712367
0.809186 0.0651865 0.701183
0.865538 0.0745556 0.709941
0.162539 0.191562 0.810086
0.17673 0.194995 0.813382
0.218112 0.194797 0.813352
0.308354 0.187961 0.806516
0.434302 0.176715 0.795407
0.58819 0.160449 0.779324
0.743267 0.145556 0.76463
0.871229 0.139879 0.759075
0.934005 0.154055 0.773068
0.161074 0.240116 0.808545
0.18645 0.257221 0.825467
0.238621 0.268986 0.837278
0.337285 0.270207 0.838392
0.470008 0.264195 0.832425
0.630594 0.25275 0.821225
0.792584 0.242786 0.81117
0.927718 0.242405 0.810895
0.997635 0.262211 0.830396
0.153567 0.3402 0.799588
0.18352 0.362768 0.822354
0.240574 0.379843 0.839582
0.344656 0.386694 0.846342
0.483238 0.386419 0.846189
0.650141 0.380453 0.840055
0.818708 0.375738 0.835431
0.960159 0.380423 0.840192
1 0.404532 0.8645
0.140795 0.468345 0.783627
0.175601 0.496696 0.812711
0.237491 0.519432 0.836179
0.346624 0.531792 0.848585
0.490532 0.536507 0.853605
0.662028 0.534585 0.851667
0.835218 0.53373 0.850721
0.980697 0.54107 0.858457
1 0.566461 0.884352
0.129854 0.621561 0.769512
0.168856 0.654902 0.804211
0.234348 0.682033 0.83238
0.346746 0.69778 0.848463
0.492943 0.704906 0.856001
0.665797 0.704234 0.855253
0.838941 0.70312 0.854307
0.982879 0.709087 0.860624
1 0.731777 0.884215
0.135988 0.786404 0.776623
0.177005 0.821591 0.81355
0.243839 0.849485 0.842741
0.355978 0.864469 0.858351
0.500633 0.869657 0.863752
0.670527 0.866056 0.860044
0.839719 0.861387 0.855268
0.978393 0.862821 0.856916
1 0.880415 0.875425
0.168139 0.94255 0.816052
0.207828 0.975052 0.850278
0.273381 0.999313 0.875624
0.382803 1 0.886656
0.523278 1 0.886458
0.688609 1 0.877516
0.851514 0.990478 0.866392
0.979706 0.982742 0.858396
1 0.986587 0.862516
0.241398 1 0.902586
0.278645 1 0.930785
0.341161 1 0.949737
0.446204 1 0.952636
0.577966 1 0.940764
0.728115 1 0.915084
0.873381 1 0.88661
0.986587 1 0.864713
1 1 0.862119
0.156481 0.169604 0.926833
0.167697 0.169421 0.926635
0.203601 0.163058 0.92047
0.28394 0.145892 0.903944
0.39733 0.122301 0.881376
0.53875 0.0948501 0.855207
0.684962 0.0726635 0.834318
0.806561 0.0624247 0.824735
0.86331 0.0724193 0.833906
0.156359 0.18381 0.926802
0.171267 0.188235 0.931029
0.214267 0.190188 0.932982
0.305303 0.184588 0.927535
0.431968 0.174228 0.91754
0.586175 0.15848 0.902251
0.741878 0.144091 0.88835
0.870436 0.139132 0.883467
0.933867 0.153933 0.897627
0.158816 0.237293 0.930037
0.184665 0.255009 0.947402
0.23711 0.267247 0.959365
0.336004 0.268833 0.960952
0.469429 0.2636 0.955871
0.630564 0.252705 0.945281
0.79324 0.243259 0.93608
0.929122 0.243687 0.936278
0.999405 0.263798 0.955886
0.152834 0.3393 0.923095
0.183185 0.362371 0.945891
0.240711 0.380011 0.963607
0.345449 0.387533 0.971115
0.484627 0.387732 0.971191
0.651911 0.382055 0.965637
0.821164 0.378103 0.961578
0.963531 0.383215 0.966781
1 0.407385 0.990814
0.141436 0.4692 0.909133
0.176745 0.497917 0.938369
0.239292 0.521523 0.96199
0.349218 0.534356 0.975113
0.493568 0.539513 0.980148
0.665309 0.537865 0.978485
0.838941 0.537102 0.977798
0.984466 0.544549 0.985306
1 0.569543 1
0.132082 0.624216 0.897169
0.171374 0.657786 0.931579
0.237583 0.685435 0.959854
0.350179 0.701274 0.976013
0.496757 0.708431 0.983322
0.669398 0.707561 0.982467
0.84242 0.706203 0.981094
0.985824 0.711803 0.98674
1 0.734005 1
0.138994 0.78996 0.905119
0.17995 0.824933 0.941299
0.246952 0.852766 0.970016
0.358984 0.867475 0.985153
0.503197 0.871946 0.989761
0.672892 0.868223 0.985946
0.841428 0.862882 0.980514
0.979385 0.863737 0.981414
1 0.881041 0.999222
0.17052 0.945418 0.94316
0.210086 0.977508 0.976501
0.275273 1 1
0.384283 1 1
0.524269 1 1
0.688792 1 1
0.85005 0.98912 0.988571
0.976028 0.979599 0.978775
1 0.981796 0.981109
0.24242 1 1
0.279438 1 1
0.341436 1 1
0.444465 1 1
0.573602 1 1
0.722377 1 1
0.86656 1 1
0.979461 1 0.981949
1 1 0.97937
0.15462 0.167239 0.9673
0.165759 0.166979 0.967193
0.20177 0.160906 0.96141
0.282536 0.144259 0.945495
0.396719 0.12166 0.923842
0.539925 0.0962692 0.89984
0.687297 0.0751965 0.880018
0.809888 0.0658579 0.871305
0.867384 0.0762951 0.880964
0.155367 0.182559 0.968383
0.171115 0.188037 0.973663
0.21561 0.19173 0.97734
0.308202 0.187808 0.973617
0.435447 0.178012 0.964233
0.590265 0.162692 0.949355
0.74641 0.148547 0.935699
0.875914 0.144335 0.931517
0.940154 0.159762 0.94641
0.161624 0.240711 0.976379
0.1879 0.259068 0.994064
0.241062 0.271809 1
0.340703 0.27396 1
0.474617 0.268971 1
0.636271 0.258427 0.993591
0.800183 0.249897 0.985229
0.936812 0.250721 0.985901
1 0.271397 1
0.157259 0.344717 0.971298
0.188174 0.368338 0.99469
0.246525 0.386587 1
0.351843 0.394354 1
0.491966 0.39501 1
0.659968 0.389868 1
0.830304 0.386358 1
0.973251 0.391852 1
1 0.416175 1
0.147387 0.476493 0.959381
0.183413 0.505837 0.989105
0.246845 0.529931 1
0.357321 0.542992 1
0.502449 0.548272 1
0.675196 0.546929 1
0.849088 0.546258 1
0.99501 0.553582 1
1 0.578439 1
0.139406 0.633204 0.94931
0.179232 0.667063 0.983841
0.246052 0.694942 1
0.359197 0.710781 1
0.50576 0.717403 1
0.679118 0.716548 1
0.852064 0.714961 1
0.9953 0.719783 1
1 0.741711 1
0.146792 0.79939 0.957778
0.18822 0.834531 0.993957
0.255299 0.861997 1
0.367712 0.876371 1
0.511727 0.880171 1
0.681315 0.875944 1
0.8495 0.869993 1
0.986755 0.87013 1
1 0.886824 1
0.177981 0.954101 0.994934
0.217395 0.985779 1
0.28246 1 1
0.391638 1 1
0.531289 1 1
0.695338 1 1
0.854597 0.993164 1
0.977859 0.981155 1
1 0.982284 1
0.248768 1 1
0.285359 1 1
0.346487 1 1
0.448142 1 1
0.574777 1 1
0.722271 1 1
0.866194 1 1
0.978927 1 1
1 1 1
