OFX Video Plug-Ins/Vfx1.ofx.bundle/Contents/Resources/AutoLooks/18.cube
TITLE "Generated by Resolve"
LUT_3D_SIZE 33
0.199496 0.221973 0.157794
0.194202 0.211124 0.14493
0.197604 0.211597 0.14548
0.200504 0.212238 0.146227
0.203632 0.212589 0.146609
0.20798 0.212528 0.146532
0.214496 0.211856 0.145678
0.225635 0.209857 0.143221
0.24097 0.206561 0.139208
0.258579 0.202777 0.134569
0.278035 0.19852 0.129351
0.309087 0.205219 0.137285
0.33225 0.199802 0.130694
0.357351 0.193805 0.123384
0.384207 0.187259 0.115343
0.413474 0.180331 0.106798
0.444572 0.172961 0.0976577
0.477409 0.165179 0.0879072
0.511498 0.157092 0.0776684
0.546807 0.148791 0.0670176
0.582788 0.140536 0.05626
0.618814 0.132433 0.0454261
0.654063 0.124376 0.0343633
0.688518 0.116869 0.0235447
0.721828 0.109972 0.0124514
0.753857 0.103838 0.00161746
0.784192 0.0980545 0
0.812131 0.0932021 0
0.834241 0.0899672 0
0.849073 0.0890364 0
0.860914 0.0893263 0
0.872084 0.0906386 0
0.883177 0.0919509 0
0.196414 0.222629 0.153429
0.1944 0.215763 0.145251
0.197482 0.216159 0.145449
0.200015 0.21648 0.145632
0.203021 0.216526 0.145708
0.206973 0.216159 0.145663
0.213519 0.215274 0.144488
0.224887 0.213123 0.142107
0.239887 0.21004 0.137621
0.257465 0.206165 0.133135
0.276722 0.201785 0.12752
0.307668 0.208301 0.135378
0.330816 0.202991 0.128893
0.356085 0.197192 0.121798
0.383185 0.190921 0.114076
0.412528 0.1841 0.105638
0.443763 0.176898 0.0966812
0.47686 0.16939 0.0872511
0.511223 0.161593 0.0773632
0.546792 0.153567 0.0670634
0.58294 0.145586 0.0566415
0.619394 0.137804 0.0462806
0.65539 0.13051 0.0363012
0.690211 0.123568 0.0264286
0.724147 0.117266 0.0168917
0.756924 0.11165 0.00669871
0.787839 0.10663 0
0.816968 0.102907 0
0.84033 0.100832 0
0.856291 0.101061 0
0.868955 0.10219 0
0.881025 0.104082 0
0.893004 0.106249 0
0.196399 0.226398 0.153445
0.19675 0.222004 0.14847
0.197345 0.219333 0.145357
0.199771 0.219532 0.14551
0.202747 0.219532 0.145647
0.206744 0.219242 0.145388
0.213245 0.218296 0.144213
0.224323 0.215991 0.141375
0.239628 0.212772 0.137087
0.257084 0.209094 0.132586
0.276646 0.204929 0.127443
0.307622 0.211582 0.135348
0.330907 0.206424 0.129046
0.356344 0.200809 0.122164
0.383749 0.194858 0.114839
0.413275 0.188205 0.106615
0.444816 0.181323 0.0980392
0.47805 0.174136 0.0890364
0.513115 0.166873 0.0798352
0.54931 0.159503 0.0704204
0.586114 0.152087 0.0608072
0.62298 0.144915 0.0513619
0.659556 0.138155 0.042298
0.695506 0.132113 0.0339971
0.730571 0.127031 0.0268406
0.764279 0.122362 0.0200351
0.796506 0.118456 0.014023
0.826185 0.115312 0.00846876
0.850385 0.114061 0.00633249
0.867475 0.115312 0.00943008
0.881132 0.117266 0.0131228
0.893675 0.119585 0.0170443
0.906081 0.122087 0.0210269
0.196567 0.229313 0.153719
0.197772 0.225986 0.149828
0.198444 0.223423 0.146914
0.199786 0.222309 0.145602
0.202625 0.222141 0.145541
0.206653 0.221973 0.145281
0.213306 0.221118 0.14432
0.224643 0.219089 0.141833
0.24007 0.216037 0.137987
0.257618 0.212543 0.13341
0.277287 0.208484 0.128328
0.308675 0.215503 0.136751
0.332143 0.210513 0.130648
0.357763 0.205203 0.124147
0.38558 0.199542 0.117189
0.415625 0.193637 0.109895
0.447761 0.187335 0.102068
0.481834 0.180789 0.093904
0.517266 0.174044 0.0854047
0.554162 0.167269 0.0768292
0.591989 0.160891 0.0686656
0.630182 0.154955 0.0610056
0.668009 0.149462 0.0538643
0.704723 0.144121 0.0468299
0.740658 0.139651 0.0408789
0.775174 0.135775 0.0357061
0.808225 0.132662 0.0315251
0.838972 0.130541 0.0287175
0.863981 0.129885 0.027985
0.881239 0.131212 0.030045
0.895308 0.133547 0.0334783
0.908431 0.136492 0.037705
0.921248 0.139315 0.0416876
0.196078 0.23212 0.153033
0.197925 0.229725 0.150515
0.199115 0.227787 0.14818
0.200336 0.226551 0.146654
0.202518 0.225605 0.145495
0.206683 0.225498 0.145357
0.213519 0.224765 0.144579
0.225025 0.222873 0.142443
0.24065 0.220096 0.138933
0.258747 0.216815 0.134936
0.278492 0.213352 0.13019
0.310109 0.220615 0.138872
0.334295 0.216373 0.1337
0.36054 0.211582 0.12784
0.388891 0.206577 0.121675
0.41973 0.201251 0.115114
0.45243 0.195682 0.108248
0.487709 0.190311 0.101579
0.524392 0.184726 0.0946365
0.562371 0.179171 0.0876783
0.601022 0.173404 0.0804303
0.640162 0.168246 0.0739147
0.678904 0.163592 0.0680247
0.71667 0.159274 0.062562
0.753262 0.155322 0.0575265
0.788525 0.152071 0.0534066
0.822171 0.149416 0.0500496
0.853132 0.147402 0.0475471
0.878431 0.146944 0.0471046
0.896162 0.148623 0.049485
0.910658 0.151293 0.0531472
0.92398 0.154345 0.0572671
0.937514 0.157763 0.0618143
0.195026 0.235615 0.151583
0.197421 0.234058 0.149737
0.199252 0.232975 0.148409
0.20087 0.232105 0.14728
0.202884 0.231174 0.14612
0.206241 0.230091 0.144793
0.213397 0.22974 0.144472
0.225193 0.228367 0.142748
0.241428 0.226261 0.140047
0.260075 0.223514 0.136553
0.280552 0.220523 0.133028
0.312688 0.228244 0.14226
0.33724 0.224704 0.13753
0.364294 0.220935 0.132906
0.394141 0.217243 0.128374
0.425849 0.213031 0.123201
0.459739 0.208499 0.117632
0.495659 0.203677 0.111711
0.533181 0.198856 0.10576
0.572412 0.19443 0.100313
0.612116 0.18967 0.0944228
0.651743 0.184924 0.0885786
0.690776 0.180484 0.0830701
0.729107 0.176623 0.078294
0.766217 0.173053 0.0738689
0.801862 0.170138 0.0702831
0.835706 0.167498 0.0670634
0.866987 0.165682 0.0648966
0.892592 0.165621 0.0649882
0.911055 0.167727 0.0678111
0.925902 0.170626 0.0716411
0.939757 0.174136 0.0762188
0.953475 0.1776 0.080705
0.192065 0.240742 0.147402
0.195193 0.240024 0.146563
0.197543 0.239658 0.146105
0.199756 0.239643 0.146044
0.202411 0.239521 0.145861
0.206119 0.238819 0.144991
0.212451 0.237522 0.143404
0.225055 0.236881 0.142626
0.241596 0.235386 0.140352
0.261082 0.233371 0.137972
0.282506 0.231449 0.135866
0.31548 0.240253 0.146136
0.341558 0.237858 0.143328
0.369543 0.234913 0.139635
0.400046 0.231846 0.136049
0.432563 0.228534 0.131945
0.467262 0.22501 0.127184
0.504097 0.22121 0.12256
0.542382 0.217029 0.117449
0.581735 0.212634 0.112078
0.62182 0.208148 0.106615
0.66212 0.203937 0.101488
0.701564 0.199802 0.096437
0.740093 0.195972 0.0917678
0.777691 0.192813 0.087953
0.813642 0.190036 0.084596
0.847929 0.187793 0.0819409
0.879667 0.186328 0.0802625
0.905699 0.186587 0.0807355
0.92462 0.189014 0.0839094
0.939818 0.19237 0.0882429
0.953994 0.196078 0.092958
0.968078 0.199847 0.097734
0.185992 0.248737 0.13872
0.189883 0.248798 0.138781
0.19324 0.2495 0.139498
0.19588 0.250401 0.14049
0.19939 0.251316 0.141482
0.20415 0.251698 0.142092
0.211078 0.251118 0.141299
0.223163 0.250217 0.140139
0.241001 0.249912 0.139666
0.261341 0.249104 0.138445
0.283513 0.24802 0.137133
0.317113 0.257267 0.148318
0.343923 0.255879 0.14641
0.372854 0.253895 0.14406
0.403891 0.251392 0.141131
0.437156 0.248661 0.137713
0.472541 0.245426 0.133928
0.509667 0.241901 0.129595
0.548318 0.237919 0.12488
0.587976 0.233707 0.119814
0.628534 0.229648 0.114855
0.668772 0.22565 0.109621
0.708812 0.222004 0.105226
0.747829 0.218631 0.101152
0.785611 0.215534 0.0974289
0.821714 0.213016 0.0944533
0.856397 0.211093 0.0922103
0.888777 0.209934 0.0909133
0.915343 0.21062 0.0919203
0.934279 0.213199 0.0952621
0.949966 0.216754 0.0997787
0.964767 0.220951 0.105058
0.979568 0.224979 0.110521
0.178149 0.260227 0.127352
0.182635 0.261112 0.128328
0.186542 0.262699 0.130022
0.190417 0.264622 0.132311
0.195163 0.267353 0.135729
0.201053 0.269322 0.137865
0.209018 0.270191 0.138674
0.2215 0.269459 0.137819
0.239216 0.269001 0.137057
0.260471 0.269459 0.137438
0.283619 0.26952 0.137423
0.308431 0.268864 0.136721
0.344442 0.277623 0.147356
0.373846 0.275975 0.145403
0.405264 0.274083 0.142931
0.438773 0.27155 0.139971
0.474418 0.26862 0.136294
0.511849 0.265187 0.132296
0.550759 0.261585 0.127855
0.59115 0.257954 0.123629
0.631754 0.254063 0.118868
0.672694 0.250309 0.114504
0.712947 0.246906 0.110323
0.752407 0.243778 0.106722
0.790585 0.241138 0.103441
0.827283 0.238911 0.100893
0.862181 0.237247 0.0990463
0.895171 0.236622 0.0984207
0.921981 0.237507 0.0996109
0.941436 0.240452 0.103456
0.957473 0.244358 0.108278
0.972366 0.248676 0.113588
0.987442 0.253407 0.119463
0.170718 0.275242 0.116457
0.176272 0.277516 0.119081
0.181277 0.280308 0.122454
0.186053 0.283436 0.126192
0.191577 0.286687 0.130098
0.198123 0.289906 0.133913
0.20737 0.292103 0.136629
0.220874 0.292866 0.137209
0.23827 0.29189 0.135851
0.259846 0.29276 0.136782
0.283101 0.292927 0.136904
0.308339 0.292744 0.136767
0.344381 0.301534 0.147433
0.373861 0.30013 0.14551
0.405585 0.298558 0.143633
0.439551 0.296315 0.140993
0.475319 0.29369 0.137697
0.513069 0.290562 0.134035
0.5523 0.287266 0.129946
0.59292 0.283894 0.126024
0.634302 0.280613 0.121981
0.675608 0.277134 0.117937
0.716106 0.273945 0.114
0.755825 0.271077 0.110689
0.794369 0.268742 0.108034
0.831708 0.267048 0.106126
0.867262 0.265934 0.104784
0.900206 0.26537 0.104295
0.927413 0.266499 0.105882
0.947127 0.269856 0.109957
0.963592 0.273976 0.11516
0.979217 0.278828 0.121187
0.994553 0.283742 0.127275
0.165057 0.294408 0.10808
0.171359 0.297581 0.111803
0.17734 0.30161 0.116793
0.182925 0.305577 0.121675
0.18883 0.309621 0.126375
0.195926 0.313298 0.13077
0.205676 0.316213 0.134218
0.219898 0.317723 0.13611
0.23772 0.317372 0.13547
0.258564 0.317403 0.135348
0.282277 0.318105 0.136126
0.316167 0.327398 0.147433
0.343832 0.326879 0.146761
0.3738 0.326101 0.145541
0.4056 0.32459 0.14374
0.439811 0.322606 0.14139
0.475929 0.320348 0.138491
0.514092 0.317662 0.135348
0.553704 0.314717 0.131716
0.594675 0.311666 0.128115
0.636225 0.3084 0.124254
0.677668 0.305394 0.120592
0.718791 0.302586 0.117357
0.758907 0.300084 0.114473
0.797894 0.298116 0.112032
0.835462 0.296803 0.110582
0.871412 0.295903 0.109667
0.90486 0.295811 0.109682
0.932555 0.297246 0.111772
0.952605 0.300862 0.116136
0.96994 0.30573 0.122225
0.985672 0.310628 0.128283
1 0.315877 0.134752
0.164935 0.322438 0.108095
0.171878 0.326421 0.112825
0.178119 0.330694 0.118105
0.183993 0.335241 0.123461
0.190692 0.33994 0.129229
0.19852 0.344137 0.13434
0.208698 0.348043 0.138872
0.224002 0.350515 0.141924
0.236271 0.344045 0.133715
0.257206 0.344198 0.133761
0.289128 0.353979 0.145693
0.314839 0.354131 0.1458
0.343053 0.354101 0.145693
0.373236 0.353475 0.1449
0.405295 0.352468 0.143435
0.439826 0.35082 0.141466
0.476326 0.34876 0.13904
0.514916 0.346685 0.136385
0.555016 0.344091 0.133318
0.596277 0.341283 0.130037
0.637888 0.338415 0.126482
0.679896 0.335576 0.123186
0.72134 0.333135 0.120302
0.762127 0.33135 0.118135
0.801465 0.329717 0.116304
0.839384 0.328496 0.114992
0.875273 0.327703 0.114183
0.909117 0.327932 0.114595
0.937407 0.32987 0.117281
0.958175 0.334096 0.122377
0.975586 0.338979 0.128466
0.991623 0.344106 0.134798
1 0.349752 0.141711
0.160189 0.347326 0.100984
0.167483 0.351629 0.10634
0.174121 0.356405 0.112276
0.180194 0.361196 0.117968
0.18706 0.36614 0.124025
0.195285 0.370809 0.129763
0.205768 0.374884 0.134691
0.221057 0.377737 0.138033
0.240818 0.379553 0.140047
0.262928 0.380957 0.141604
0.287343 0.382391 0.143206
0.313298 0.383047 0.143893
0.341573 0.383093 0.143877
0.371984 0.382742 0.143389
0.404547 0.382025 0.142489
0.43946 0.38085 0.141085
0.476616 0.379461 0.139422
0.51519 0.377401 0.136751
0.555627 0.375113 0.134081
0.597009 0.372549 0.131044
0.63917 0.370077 0.127962
0.681575 0.367636 0.125139
0.723491 0.365743 0.123003
0.764309 0.363989 0.120821
0.804196 0.362692 0.119371
0.842466 0.361975 0.118654
0.878996 0.361532 0.118273
0.913314 0.361959 0.119173
0.94197 0.364401 0.12221
0.963119 0.368719 0.127657
0.980713 0.373938 0.134127
0.997299 0.379492 0.140978
1 0.385367 0.148135
0.155077 0.373754 0.0932326
0.162676 0.378622 0.0991226
0.169482 0.383642 0.105409
0.176089 0.388891 0.11194
0.183139 0.394064 0.118334
0.191379 0.398993 0.124163
0.20206 0.403464 0.129656
0.217838 0.406744 0.133455
0.237873 0.408927 0.136172
0.260349 0.410788 0.138262
0.284703 0.412192 0.139818
0.311116 0.413184 0.140902
0.339651 0.413748 0.141482
0.370382 0.413764 0.141436
0.403296 0.413291 0.140826
0.438636 0.412726 0.140124
0.475898 0.411521 0.138598
0.515023 0.409949 0.136584
0.555764 0.407965 0.134249
0.597498 0.405829 0.131777
0.640375 0.403861 0.129381
0.682918 0.401801 0.126864
0.725139 0.400046 0.12488
0.76643 0.398566 0.123247
0.806485 0.397543 0.122164
0.845258 0.39707 0.121721
0.882368 0.397345 0.122194
0.916991 0.398215 0.123384
0.945891 0.400626 0.126635
0.967178 0.405097 0.132204
0.985183 0.410574 0.138949
1 0.416587 0.146426
1 0.423041 0.153826
0.149798 0.402258 0.0850538
0.157549 0.407172 0.0912947
0.164736 0.412711 0.0982528
0.17145 0.418296 0.105028
0.178775 0.423819 0.11191
0.187396 0.429023 0.118364
0.198581 0.433692 0.124132
0.214282 0.437537 0.128634
0.234897 0.440284 0.13196
0.257618 0.442405 0.134432
0.282185 0.444083 0.136324
0.308675 0.445396 0.137789
0.337499 0.446296 0.138781
0.368811 0.446952 0.139483
0.402075 0.446891 0.139345
0.43743 0.446342 0.138659
0.474937 0.445365 0.137469
0.514488 0.444099 0.135973
0.555535 0.442634 0.134005
0.59794 0.441154 0.132296
0.640986 0.439261 0.130098
0.683803 0.437385 0.127947
0.726436 0.435966 0.12636
0.768154 0.434913 0.12517
0.808591 0.434256 0.124498
0.847684 0.434165 0.12462
0.88513 0.434516 0.125185
0.920119 0.435706 0.126757
0.949248 0.438285 0.130205
0.970901 0.443137 0.136309
0.98938 0.448905 0.143435
1 0.455344 0.151308
1 0.461707 0.158587
0.144121 0.432242 0.0760967
0.152285 0.437766 0.0831006
0.159457 0.443442 0.0901503
0.166491 0.449256 0.0975204
0.174136 0.455192 0.104967
0.183124 0.460883 0.112062
0.194644 0.46598 0.118395
0.210498 0.470039 0.123171
0.231144 0.47303 0.126879
0.254093 0.475502 0.129732
0.279042 0.477668 0.132204
0.30602 0.479347 0.134112
0.335348 0.480644 0.135805
0.366857 0.481544 0.136797
0.400366 0.481971 0.137255
0.436179 0.48191 0.137148
0.473838 0.481163 0.136095
0.513542 0.480201 0.134829
0.555306 0.479271 0.13373
0.597848 0.477943 0.132189
0.641123 0.476265 0.130251
0.684443 0.474845 0.128664
0.727321 0.473671 0.127352
0.769543 0.47303 0.126711
0.810361 0.472663 0.126421
0.849668 0.472847 0.126787
0.887251 0.473472 0.127687
0.922332 0.474647 0.129259
0.951873 0.477653 0.133211
0.974136 0.482872 0.139742
0.992844 0.488945 0.14725
1 0.49543 0.154772
1 0.501701 0.162539
0.138308 0.463981 0.0666819
0.146654 0.469718 0.0741436
0.154192 0.475792 0.0819104
0.161395 0.482017 0.089662
0.169207 0.488182 0.0974746
0.178668 0.494453 0.105364
0.190494 0.499977 0.112261
0.206821 0.504433 0.1178
0.227543 0.507774 0.121706
0.250751 0.510597 0.124987
0.275975 0.512917 0.127901
0.303365 0.515297 0.130648
0.332799 0.516945 0.132525
0.364462 0.518044 0.133776
0.398306 0.5187 0.134493
0.434348 0.518868 0.134646
0.472694 0.518761 0.134493
0.512871 0.51838 0.134035
0.55462 0.517418 0.132906
0.597192 0.516121 0.131411
0.64097 0.514946 0.130053
0.684672 0.513909 0.128923
0.727932 0.513069 0.128008
0.770306 0.512612 0.127611
0.811414 0.512474 0.127581
0.850797 0.512688 0.127993
0.888716 0.513634 0.129274
0.924392 0.515175 0.131533
0.954131 0.518471 0.135607
0.976516 0.523735 0.142229
0.995224 0.529793 0.149706
1 0.536477 0.15758
1 0.543038 0.165591
0.132601 0.497444 0.0572061
0.141131 0.503456 0.065156
0.148974 0.50988 0.0735332
0.156603 0.516518 0.0821088
0.164813 0.523217 0.0906539
0.174273 0.529534 0.0986648
0.186313 0.535348 0.105974
0.20264 0.540261 0.111894
0.224002 0.543999 0.116533
0.247578 0.54728 0.120394
0.27303 0.550103 0.123919
0.300572 0.552514 0.126711
0.330327 0.554528 0.129061
0.362219 0.556115 0.130892
0.396231 0.556924 0.131792
0.432715 0.557565 0.132601
0.471458 0.557855 0.132967
0.511833 0.55758 0.13254
0.553643 0.556909 0.131716
0.596857 0.556069 0.130755
0.640681 0.555123 0.129702
0.684749 0.554437 0.128954
0.728267 0.553841 0.128359
0.770581 0.553384 0.127947
0.811902 0.55346 0.128191
0.85182 0.553964 0.129076
0.889967 0.555001 0.130617
0.925887 0.556954 0.13312
0.955734 0.560113 0.13727
0.978225 0.565438 0.143984
0.997238 0.57174 0.151797
1 0.578317 0.15938
1 0.585245 0.167987
0.127108 0.532326 0.0477913
0.135897 0.538735 0.0563821
0.143938 0.545434 0.0652781
0.152148 0.552636 0.0749371
0.16054 0.559625 0.0838941
0.170275 0.566262 0.0924392
0.182498 0.572442 0.10013
0.199359 0.577523 0.106416
0.220798 0.581979 0.112001
0.244602 0.585595 0.116258
0.270375 0.588602 0.120058
0.298024 0.591379 0.123293
0.327977 0.593637 0.125948
0.360098 0.595315 0.127871
0.394903 0.596963 0.130053
0.43154 0.597864 0.13109
0.4701 0.598032 0.131258
0.510781 0.597971 0.131197
0.552956 0.597665 0.130861
0.596368 0.597025 0.130114
0.640711 0.596597 0.129686
0.684825 0.595956 0.129015
0.728298 0.595315 0.128344
0.771023 0.595209 0.128359
0.812314 0.5953 0.128618
0.852537 0.59617 0.129839
0.890974 0.597543 0.13167
0.926741 0.599145 0.134005
0.956832 0.602564 0.138399
0.979019 0.607843 0.144915
0.99826 0.61416 0.152819
1 0.620935 0.160891
1 0.62771 0.169314
0.122286 0.56846 0.0392157
0.131594 0.57557 0.0489357
0.139971 0.582773 0.0585794
0.148074 0.590036 0.0681926
0.156741 0.597238 0.0777295
0.166751 0.604196 0.0868086
0.179309 0.610834 0.0951095
0.196765 0.616648 0.102373
0.218173 0.621073 0.107942
0.242023 0.624765 0.112337
0.26804 0.62829 0.116777
0.296117 0.631434 0.1205
0.326207 0.633814 0.123522
0.358984 0.636194 0.126345
0.393606 0.637797 0.128222
0.43032 0.638743 0.12932
0.469245 0.639445 0.130144
0.510109 0.639597 0.130312
0.552361 0.639368 0.130068
0.596292 0.639246 0.129961
0.640375 0.63856 0.129213
0.684703 0.638132 0.128801
0.728328 0.637644 0.128328
0.771191 0.637613 0.128435
0.813169 0.638285 0.12958
0.853178 0.638849 0.13048
0.891493 0.640101 0.132189
0.927275 0.641779 0.134524
0.957321 0.645212 0.138903
0.979751 0.650599 0.145708
0.999146 0.657038 0.153735
1 0.663767 0.161608
1 0.670161 0.16968
0.118593 0.60621 0.0323796
0.127947 0.613413 0.0423896
0.136584 0.620935 0.0526436
0.145083 0.628611 0.0630655
0.153887 0.636027 0.0729229
0.164157 0.643397 0.0825055
0.177264 0.650599 0.0917525
0.194583 0.656229 0.0988937
0.216083 0.661128 0.104814
0.240467 0.665263 0.110033
0.266423 0.668833 0.11429
0.295064 0.67245 0.118868
0.325567 0.675364 0.122316
0.357961 0.677562 0.124895
0.392996 0.679301 0.127199
0.429999 0.680598 0.12874
0.468986 0.681224 0.129473
0.510292 0.682002 0.130419
0.552666 0.681865 0.130251
0.596399 0.681605 0.130007
0.640696 0.681132 0.129519
0.684947 0.680629 0.129
0.728908 0.680446 0.128908
0.771923 0.680613 0.129259
0.813535 0.68101 0.129885
0.85362 0.681514 0.130907
0.89189 0.682734 0.13257
0.927581 0.684459 0.134813
0.957732 0.687846 0.1393
0.980438 0.693446 0.146395
0.999313 0.699428 0.153887
1 0.706004 0.161578
1 0.712276 0.169421
0.116152 0.644892 0.0275425
0.125673 0.652323 0.0380407
0.134478 0.66009 0.0487373
0.143084 0.667826 0.0594492
0.152483 0.676066 0.0703593
0.163134 0.683909 0.0806134
0.176013 0.690837 0.0895247
0.193668 0.696864 0.0972152
0.215473 0.701946 0.103655
0.239765 0.706233 0.108843
0.266606 0.710506 0.114214
0.29482 0.713954 0.118334
0.325521 0.716899 0.122072
0.358267 0.719463 0.125139
0.393194 0.721279 0.127275
0.430365 0.722759 0.12903
0.469871 0.723812 0.13048
0.510979 0.724285 0.131106
0.553506 0.7243 0.131167
0.597238 0.72401 0.130861
0.641657 0.723659 0.130526
0.685863 0.723125 0.129961
0.730144 0.723217 0.13022
0.772747 0.723049 0.130144
0.814298 0.723384 0.130709
0.854429 0.724086 0.131746
0.892515 0.725032 0.133196
0.928695 0.727092 0.135973
0.958419 0.730083 0.139986
0.980606 0.735302 0.14641
0.999512 0.74136 0.15407
1 0.74757 0.161486
1 0.753872 0.169406
0.115206 0.684123 0.0253147
0.125063 0.69189 0.0365454
0.134035 0.699763 0.0475776
0.143038 0.708171 0.0589761
0.152483 0.716426 0.0699626
0.163195 0.724315 0.0803235
0.176593 0.731685 0.090074
0.194156 0.737804 0.0976272
0.216098 0.743053 0.104295
0.241077 0.747875 0.110384
0.267613 0.75201 0.115358
0.296284 0.755718 0.120058
0.326863 0.758694 0.123598
0.359854 0.761288 0.12694
0.395087 0.763439 0.129488
0.432395 0.765072 0.131441
0.471687 0.76611 0.132677
0.512718 0.766415 0.133043
0.555337 0.766537 0.133227
0.598978 0.76611 0.132753
0.643702 0.766033 0.132753
0.687984 0.765545 0.132265
0.731762 0.765164 0.13193
0.774441 0.765133 0.132036
0.815763 0.765103 0.132296
0.855741 0.765621 0.133211
0.894026 0.766751 0.134752
0.929625 0.768383 0.136904
0.959411 0.77142 0.140993
0.981308 0.776165 0.147082
0.999863 0.781964 0.154406
1 0.788205 0.161761
1 0.794354 0.169421
0.115953 0.723644 0.0261692
0.12604 0.731777 0.0377661
0.135546 0.740383 0.0496834
0.144472 0.748684 0.060914
0.154192 0.757046 0.0722972
0.16495 0.764996 0.0826886
0.178424 0.772564 0.0924849
0.196628 0.779217 0.100969
0.218799 0.784619 0.107805
0.24361 0.78938 0.113573
0.27013 0.793439 0.1187
0.298817 0.797238 0.123278
0.329763 0.800458 0.127352
0.36289 0.803174 0.130587
0.398123 0.805402 0.133303
0.43534 0.806683 0.135012
0.474708 0.80763 0.136156
0.515618 0.807904 0.136477
0.558312 0.80795 0.136584
0.602182 0.807904 0.136584
0.646464 0.807355 0.135973
0.690822 0.80676 0.135378
0.734157 0.806149 0.134737
0.776852 0.80592 0.134615
0.818189 0.805997 0.134874
0.857984 0.806546 0.135698
0.89601 0.807233 0.136828
0.931289 0.808469 0.138628
0.960571 0.811261 0.142168
0.982422 0.816037 0.148318
1 0.82179 0.155596
1 0.827573 0.162417
1 0.83328 0.169619
0.118654 0.763851 0.0305638
0.128893 0.772122 0.042237
0.138415 0.780621 0.0540322
0.147768 0.789258 0.0658274
0.157397 0.797681 0.0769818
0.168521 0.805997 0.0878157
0.182071 0.813626 0.0976272
0.200427 0.820356 0.106218
0.222629 0.82562 0.112856
0.247562 0.830411 0.118914
0.274388 0.83473 0.124117
0.303029 0.8383 0.128634
0.334264 0.841871 0.132906
0.367163 0.844266 0.135988
0.402411 0.846296 0.138415
0.439536 0.847593 0.13994
0.478706 0.848493 0.141009
0.520043 0.849012 0.141649
0.562448 0.848859 0.141497
0.606119 0.848386 0.140993
0.650172 0.847639 0.140139
0.69424 0.846876 0.13933
0.737743 0.84622 0.138643
0.78024 0.845762 0.138247
0.821393 0.84567 0.138277
0.860838 0.845869 0.13872
0.898512 0.846143 0.139452
0.933532 0.847227 0.140948
0.962371 0.849821 0.144259
0.984161 0.854459 0.150225
1 0.859663 0.156847
1 0.865309 0.163485
1 0.87068 0.170382
0.12311 0.804028 0.037995
0.133532 0.812436 0.0496986
0.14313 0.820844 0.061387
0.152544 0.829602 0.0730755
0.162325 0.838132 0.0842756
0.173938 0.846769 0.0957198
0.187533 0.854353 0.10544
0.205554 0.860914 0.113771
0.228183 0.866331 0.120424
0.253025 0.870863 0.126055
0.280003 0.875212 0.131518
0.308766 0.879011 0.136049
0.339818 0.882109 0.139986
0.372747 0.884443 0.142763
0.407736 0.886336 0.145006
0.444907 0.887617 0.146517
0.48426 0.888243 0.147494
0.525353 0.88864 0.147997
0.567819 0.888289 0.147601
0.610895 0.88751 0.146578
0.654902 0.886595 0.145418
0.698756 0.885588 0.144305
0.742107 0.884855 0.143542
0.78439 0.884245 0.142962
0.825116 0.883741 0.142504
0.864149 0.883375 0.142214
0.901579 0.883604 0.142916
0.936355 0.884474 0.144137
0.965209 0.886854 0.147189
0.986374 0.890944 0.152483
1 0.895827 0.158724
1 0.901167 0.164981
1 0.906294 0.171542
0.129137 0.843748 0.0479744
0.139773 0.852186 0.0597086
0.149401 0.860716 0.0711376
0.158953 0.869551 0.0828107
0.169207 0.87837 0.0945144
0.180499 0.886702 0.105241
0.194247 0.894377 0.115023
0.212238 0.90071 0.123003
0.234989 0.906004 0.129656
0.259815 0.910597 0.135225
0.286992 0.914977 0.140642
0.315648 0.918547 0.144915
0.346426 0.921248 0.148333
0.379461 0.923613 0.151125
0.414267 0.925231 0.153017
0.451774 0.926543 0.154833
0.490822 0.926986 0.155352
0.53138 0.926711 0.155016
0.573602 0.926223 0.154376
0.616693 0.925414 0.153292
0.660502 0.924132 0.151812
0.70428 0.923033 0.150591
0.747295 0.921828 0.149264
0.789273 0.920851 0.148226
0.829587 0.919951 0.147265
0.868345 0.919493 0.146899
0.905562 0.919509 0.147082
0.940063 0.920119 0.147997
0.968414 0.921874 0.150515
0.989303 0.925704 0.155489
1 0.930404 0.16083
1 0.935241 0.166979
1 0.940185 0.173266
0.137346 0.882795 0.0613718
0.148028 0.891279 0.0727398
0.158175 0.900328 0.0846571
0.167712 0.908843 0.0959945
0.177752 0.917479 0.107118
0.188922 0.925566 0.117418
0.202716 0.933165 0.127016
0.220844 0.939544 0.135012
0.243717 0.944823 0.141588
