OFX Video Plug-Ins/Vfx1.ofx.bundle/Contents/Resources/AutoLooks/18.cube
TITLE "Generated by Resolve"
LUT_3D_SIZE 5
0.199496 0.221973 0.157794
0.24097 0.206561 0.139208
0.444572 0.172961 0.0976577
0.721828 0.109972 0.0124514
0.883177 0.0919509 0
0.178149 0.260227 0.127352
0.239216 0.269001 0.137057
0.474418 0.26862 0.136294
0.790585 0.241138 0.103441
0.987442 0.253407 0.119463
0.138308 0.463981 0.0666819
0.227543 0.507774 0.121706
0.472694 0.518761 0.134493
0.811414 0.512474 0.127581
1 0.543038 0.165591
0.118654 0.763851 0.0305638
0.222629 0.82562 0.112856
0.478706 0.848493 0.141009
0.821393 0.84567 0.138277
1 0.87068 0.170382
0.227787 1 0.194217
0.33286 1 0.256764
0.582757 1 0.262196
0.903426 1 0.226764
1 1 0.207034
0.197436 0.219669 0.229603
0.240757 0.206256 0.214206
0.441123 0.169451 0.170565
0.720211 0.108339 0.0989548
0.886854 0.0953536 0.0837415
0.182696 0.266087 0.209384
0.253452 0.285618 0.23151
0.483253 0.27776 0.222095
0.802182 0.252033 0.192813
1 0.266529 0.210285
0.147936 0.476173 0.159792
0.240604 0.522515 0.214923
0.489158 0.535164 0.229252
0.831037 0.530327 0.224186
1 0.561578 0.261723
0.133516 0.782528 0.136904
0.240146 0.845212 0.212787
0.497765 0.867002 0.238483
0.84033 0.862287 0.233783
1 0.885359 0.262364
0.243473 1 0.28838
0.347036 1 0.345678
0.595728 1 0.348058
0.907423 1 0.303593
1 1 0.28043
0.182681 0.20209 0.489586
0.230884 0.195422 0.482444
0.42414 0.151339 0.436179
0.705364 0.0934157 0.375601
0.877882 0.0867018 0.368841
0.173144 0.254917 0.477653
0.248478 0.280201 0.504219
0.478294 0.272801 0.496208
0.799741 0.249607 0.472038
1 0.2663 0.489845
0.145922 0.474281 0.442359
0.240742 0.523003 0.495094
0.490501 0.536492 0.509453
0.835447 0.533913 0.506981
1 0.566339 0.542428
0.136492 0.786694 0.428504
0.244038 0.849683 0.498085
0.501839 0.870863 0.521233
0.842954 0.864347 0.514626
1 0.885618 0.538613
0.244862 1 0.565011
0.346944 1 0.616815
0.590845 1 0.614069
0.894041 1 0.563973
1 1 0.539345
0.163195 0.178088 0.810819
0.210559 0.171359 0.80415
0.403586 0.129152 0.762783
0.689097 0.0769818 0.712367
0.865538 0.0745556 0.709941
0.161074 0.240116 0.808545
0.238621 0.268986 0.837278
0.470008 0.264195 0.832425
0.792584 0.242786 0.81117
0.997635 0.262211 0.830396
0.140795 0.468345 0.783627
0.237491 0.519432 0.836179
0.490532 0.536507 0.853605
0.835218 0.53373 0.850721
1 0.566461 0.884352
0.135988 0.786404 0.776623
0.243839 0.849485 0.842741
0.500633 0.869657 0.863752
0.839719 0.861387 0.855268
1 0.880415 0.875425
0.241398 1 0.902586
0.341161 1 0.949737
0.577966 1 0.940764
0.873381 1 0.88661
1 1 0.862119
0.15462 0.167239 0.9673
0.20177 0.160906 0.96141
0.396719 0.12166 0.923842
0.687297 0.0751965 0.880018
0.867384 0.0762951 0.880964
0.161624 0.240711 0.976379
0.241062 0.271809 1
0.474617 0.268971 1
0.800183 0.249897 0.985229
1 0.271397 1
0.147387 0.476493 0.959381
0.246845 0.529931 1
0.502449 0.548272 1
0.849088 0.546258 1
1 0.578439 1
0.146792 0.79939 0.957778
0.255299 0.861997 1
0.511727 0.880171 1
0.8495 0.869993 1
1 0.886824 1
0.248768 1 1
0.346487 1 1
0.574777 1 1
0.866194 1 1
1 1 1
