OFX Video Plug-Ins/Vfx1.ofx.bundle/Contents/Resources/AutoLooks/19.cube
LUT_3D_SIZE 6
0.000000 0.000000 0.000000
0.166120 -0.036551 0.073410
0.295487 -0.075729 0.095709
0.660555 -0.186684 -0.085362
1.097292 -0.305447 -0.043870
1.298441 -0.361823 -0.230950
0.041581 0.062674 0.061078
0.171185 0.047940 0.038070
0.296096 -0.048235 0.079348
0.660165 -0.179271 -0.103510
1.098071 -0.299178 -0.072109
1.299287 -0.358280 -0.235397
0.165888 0.250712 0.170048
0.191501 0.256425 0.157723
0.274932 0.270020 -0.168792
0.672396 0.212316 -0.229768
1.108509 -0.157818 -0.204554
1.311272 -0.302115 -0.291097
0.370307 0.561380 0.373918
0.382010 0.562432 0.374643
0.404183 0.566451 0.367076
0.607482 0.604043 -0.397959
1.139185 0.523369 -0.471925
1.357176 0.394146 -0.498520
0.506693 0.768258 0.511008
0.514240 0.768851 0.511730
0.530799 0.770808 0.511038
0.618239 0.800743 0.367001
1.111153 0.796988 -0.663254
1.365118 0.699100 -0.691824
0.592422 0.898246 0.597478
0.597936 0.898645 0.598092
0.609377 0.899679 0.598510
0.676317 0.918535 0.550839
0.906435 0.961132 -0.561159
1.297722 0.929119 -0.722040
0.061404 0.055761 0.237477
0.147510 0.071733 0.237495
0.246217 0.106452 0.246533
0.634953 -0.141485 0.280196
1.091665 -0.296959 0.208590
1.292466 -0.352531 -0.119672
0.062527 0.077542 0.234439
0.146911 0.087852 0.233284
0.251012 0.116170 0.233050
0.652038 -0.154402 0.244330
1.092288 -0.289672 0.208039
1.292418 -0.346372 -0.103157
0.150457 0.257618 0.262652
0.194269 0.257108 0.235884
0.280278 0.262808 0.198319
0.666603 0.209647 0.151969
1.104354 -0.136938 0.090034
1.305189 -0.284280 -0.214536
0.371130 0.562880 0.410081
0.382273 0.564693 0.394817
0.409254 0.565298 0.392759
0.611673 0.601839 -0.362921
1.136661 0.525399 -0.434527
1.353641 0.403154 -0.465093
0.507684 0.769085 0.533803
0.514338 0.770704 0.523113
0.532316 0.771512 0.523715
0.620522 0.799864 0.399125
1.110715 0.796966 -0.642158
1.363935 0.699935 -0.671528
0.593206 0.898696 0.613675
0.598573 0.900368 0.606706
0.610751 0.901007 0.607613
0.679450 0.918486 0.566819
0.909524 0.961298 -0.548057
1.297262 0.928901 -0.705376
0.083217 0.079002 0.340078
0.157954 0.089249 0.336376
0.251427 0.114378 0.335848
0.598044 0.099530 0.385046
1.076082 -0.270805 0.359685
1.276976 -0.326613 0.291202
0.084385 0.096461 0.335059
0.155481 0.102005 0.334718
0.256378 0.124215 0.336335
0.611860 0.092984 0.382082
1.076533 -0.261978 0.360983
1.276700 -0.319350 0.296585
0.149228 0.261175 0.348645
0.187656 0.259206 0.346569
0.270304 0.264677 0.349199
0.623172 0.256584 0.378775
1.088149 0.161098 0.350518
1.287776 -0.172843 0.295156
0.368259 0.565378 0.449801
0.379264 0.567803 0.446059
0.409515 0.563125 0.445608
0.616888 0.596444 -0.144198
1.128200 0.539501 -0.276406
1.343004 0.446069 -0.342952
0.507734 0.770318 0.561219
0.514177 0.773301 0.557709
0.533988 0.774054 0.557211
0.630540 0.796293 0.487123
1.109073 0.797851 -0.567155
1.359216 0.707622 -0.602146
0.593726 0.899541 0.634414
0.598818 0.902704 0.632042
0.614956 0.905258 0.633600
0.692312 0.919198 0.611234
0.931915 0.961756 -0.520337
1.295442 0.928482 -0.647784
0.146311 0.141382 0.610664
0.192419 0.145398 0.606116
0.273353 0.156243 0.593497
0.543007 0.237479 0.599986
0.981269 0.218420 0.662669
1.185129 0.171091 0.626257
0.145383 0.150101 0.602776
0.189822 0.152558 0.601024
0.277476 0.163908 0.603111
0.551047 0.243383 0.605393
0.981099 0.230873 0.664702
1.183182 0.193598 0.631279
0.186241 0.285237 0.596841
0.217076 0.283437 0.604981
0.286479 0.282065 0.593046
0.553417 0.331610 0.606006
0.989638 0.359073 0.681561
1.183811 0.348573 0.660479
0.328909 0.579191 0.631719
0.340546 0.580862 0.629385
0.379643 0.574888 0.625216
0.600679 0.597150 0.647018
1.043252 0.610018 0.703977
1.235481 0.597863 0.694019
0.491959 0.779477 0.682180
0.501120 0.781209 0.672715
0.523836 0.779278 0.671736
0.672926 0.786232 0.693719
1.092399 0.796834 0.587441
1.322418 0.734487 0.560407
0.589615 0.904585 0.716895
0.596259 0.906799 0.706407
0.614236 0.909330 0.704071
0.734947 0.916934 0.742799
0.987640 0.958357 0.100654
1.295795 0.921590 0.384422
0.155031 0.146503 0.628397
0.196793 0.151041 0.628969
0.275949 0.163605 0.631068
0.536508 0.237214 0.635660
0.958190 0.271697 0.700511
1.126095 0.326795 0.722219
0.156016 0.157429 0.629663
0.196874 0.160749 0.629928
0.277881 0.169936 0.629658
0.543107 0.241841 0.633936
0.959057 0.279125 0.700934
1.126730 0.331940 0.722322
0.195376 0.288984 0.640877
0.224190 0.287850 0.638551
0.298177 0.297292 0.641634
0.548134 0.329412 0.643977
0.973176 0.380324 0.708841
1.141568 0.410581 0.726972
0.323350 0.573902 0.679777
0.335578 0.575574 0.678283
0.381027 0.575715 0.681665
0.601808 0.599264 0.692905
1.037674 0.617124 0.718381
1.222369 0.610923 0.719152
0.480516 0.783169 0.726676
0.487118 0.785524 0.727677
0.509838 0.783823 0.729143
0.669143 0.791403 0.741873
1.090051 0.802147 0.607618
1.321723 0.765315 0.551367
0.578409 0.910031 0.783096
0.583681 0.912902 0.785432
0.601970 0.915625 0.788326
0.735144 0.919390 0.799783
1.048395 0.952053 0.500941
1.290730 0.923168 0.423131
0.177481 0.167285 0.715781
0.209032 0.169969 0.713428
0.269533 0.176243 0.704312
0.515506 0.234940 0.694227
0.848859 0.325990 0.723760
1.106673 0.360236 0.748265
0.177251 0.174933 0.711662
0.212428 0.180128 0.716436
0.274484 0.185887 0.714761
0.523360 0.241855 0.708097
0.870063 0.330244 0.734471
1.106768 0.365541 0.749145
0.202299 0.277806 0.703256
0.233872 0.283586 0.717225
0.312446 0.313717 0.713814
0.539680 0.335989 0.709434
0.886358 0.397670 0.742701
1.117557 0.440913 0.758551
0.309142 0.539562 0.721171
0.325792 0.544224 0.737466
0.382766 0.562709 0.734521
0.609453 0.609167 0.739662
0.967518 0.629345 0.780476
1.182805 0.639125 0.779220
0.442076 0.751034 0.750534
0.448669 0.754379 0.757859
0.480962 0.758210 0.757992
0.659462 0.778747 0.767058
1.074562 0.806776 0.733960
1.296012 0.777386 0.700252
0.574017 0.911529 0.801956
0.579138 0.913948 0.803483
0.597391 0.916340 0.805022
0.733376 0.920461 0.817575
1.047249 0.951089 0.640453
1.288902 0.921490 0.586963
