OFX Video Plug-Ins/Vfx1.ofx.bundle/Contents/Resources/AutoLooks/19.cube
LUT_3D_SIZE 16
0.000000 0.000000 0.000000
0.053399 0.017978 0.042133
0.110273 0.025008 0.075299
0.166120 -0.036551 0.073410
0.201620 -0.052298 0.062242
0.230473 -0.057212 0.082818
0.295487 -0.075729 0.095709
0.426357 -0.116709 0.083958
0.569917 -0.160317 -0.050340
0.660555 -0.186684 -0.085362
0.770459 -0.219170 -0.128334
0.965615 -0.277996 -0.208412
1.097292 -0.305447 -0.043870
1.175390 -0.327352 -0.153044
1.245972 -0.347142 -0.201615
1.298441 -0.361823 -0.230950
0.012874 0.014981 0.025088
0.056069 0.015857 0.036054
0.111707 0.023004 0.071727
0.166473 -0.035948 0.070771
0.201798 -0.051475 0.060448
0.230598 -0.056427 0.081646
0.295415 -0.075078 0.094744
0.426121 -0.116244 0.082814
0.569832 -0.160005 -0.052812
0.660494 -0.186426 -0.086587
0.770425 -0.218919 -0.128971
0.965183 -0.277724 -0.208599
1.097335 -0.305155 -0.045881
1.175439 -0.327107 -0.153436
1.246027 -0.346916 -0.201891
1.298498 -0.361669 -0.231195
0.025894 0.034561 0.047486
0.055620 0.036858 0.048662
0.115128 0.029072 0.060896
0.167878 -0.026615 0.061241
0.202743 -0.044879 0.052584
0.231272 -0.050411 0.076600
0.295267 -0.070667 0.090488
0.425293 -0.113468 0.077264
0.569308 -0.158124 -0.062156
0.660247 -0.184865 -0.091866
0.769720 -0.217447 -0.131778
0.964483 -0.276515 -0.209972
1.097508 -0.303606 -0.054479
1.175687 -0.325814 -0.155359
1.246217 -0.345841 -0.203282
1.298671 -0.360755 -0.232332
0.041581 0.062674 0.061078
0.062418 0.064075 0.062569
0.122156 0.057901 0.051105
0.171185 0.047940 0.038070
0.205341 0.036839 0.023047
0.233704 0.028536 0.062974
0.296096 -0.048235 0.079348
0.424457 -0.102646 0.060895
0.568601 -0.151174 -0.079359
0.660165 -0.179271 -0.103510
0.768623 -0.212525 -0.138747
0.962618 -0.272563 -0.213298
1.098071 -0.299178 -0.072109
1.176287 -0.322161 -0.160614
1.246827 -0.342798 -0.207048
1.299287 -0.358280 -0.235397
0.069561 0.103689 0.077758
0.080883 0.104701 0.079162
0.117573 0.109760 -0.057593
0.176130 0.101272 -0.078107
0.210080 0.096241 -0.077623
0.239203 0.094882 -0.055472
0.299861 0.085130 0.020611
0.425005 -0.045304 -0.055406
0.569160 -0.126818 -0.107048
0.661085 -0.160477 -0.125210
0.768124 -0.197328 -0.153743
0.960478 -0.261328 -0.221356
1.099495 -0.287687 -0.101195
1.177792 -0.312761 -0.172986
1.248393 -0.335163 -0.216177
1.300745 -0.352136 -0.242746
0.109493 0.164945 0.114215
0.115972 0.165486 0.115055
0.129979 0.169786 0.103114
0.157314 0.175528 -0.067587
0.196969 0.174641 -0.126328
0.234742 0.171798 -0.132672
0.303899 0.165401 -0.128504
0.429808 0.144162 -0.130188
0.572429 0.093155 -0.151198
0.664289 -0.072069 -0.162733
0.768816 -0.143236 -0.182385
0.958722 -0.227089 -0.238096
1.102782 -0.257421 -0.145196
1.181317 -0.288917 -0.198965
1.251974 -0.316314 -0.236225
1.304173 -0.337512 -0.258960
0.165888 0.250712 0.170048
0.169684 0.251031 0.170594
0.180560 0.252660 0.169525
0.191501 0.256425 0.157723
0.201227 0.260133 0.133524
0.216267 0.264303 0.082119
0.274932 0.270020 -0.168792
0.428961 0.256053 -0.220227
0.579210 0.231712 -0.225772
0.672396 0.212316 -0.229768
0.774886 0.179856 -0.239451
0.961267 -0.091047 -0.277691
1.108509 -0.157818 -0.204554
1.187560 -0.220340 -0.242944
1.258334 -0.265380 -0.272082
1.311272 -0.302115 -0.291097
0.234327 0.354776 0.238093
0.236710 0.354938 0.238432
0.244489 0.355775 0.238761
0.253619 0.357390 0.236499
0.260264 0.359143 0.231431
0.266880 0.361456 0.221936
0.286571 0.369802 0.180700
0.388037 0.382212 -0.248814
0.572451 0.365329 -0.322357
0.676255 0.349885 -0.324593
0.781429 0.329774 -0.325374
0.967003 0.280554 -0.343816
1.119709 0.249429 -0.286246
1.200133 0.181572 -0.313593
1.271707 -0.091471 -0.334753
1.322949 -0.208086 -0.342858
0.305644 0.463149 0.309212
0.307269 0.463224 0.309436
0.312900 0.463666 0.309847
0.320225 0.464523 0.309466
0.326011 0.465427 0.307997
0.331849 0.466561 0.305015
0.344966 0.470935 0.291048
0.388371 0.487322 0.177206
0.527500 0.497790 -0.352872
0.653632 0.487208 -0.411262
0.774680 0.468050 -0.423532
0.970526 0.428640 -0.430616
1.131799 0.400278 -0.379140
1.214810 0.359775 -0.399759
1.288270 0.307611 -0.414900
1.340224 0.232843 -0.416139
0.370307 0.561380 0.373918
0.371546 0.561462 0.374089
0.375953 0.561815 0.374499
0.382010 0.562432 0.374643
0.386903 0.562913 0.374102
0.392187 0.563643 0.372928
0.404183 0.566451 0.367076
0.432626 0.577431 0.322534
0.506057 0.597450 -0.182766
0.607482 0.604043 -0.397959
0.741554 0.593302 -0.485769
0.962301 0.556302 -0.518013
1.139185 0.523369 -0.471925
1.226019 0.489466 -0.489047
1.302912 0.448205 -0.501039
1.357176 0.394146 -0.498520
0.423400 0.641944 0.427203
0.424409 0.642019 0.427310
0.428083 0.642322 0.427709
0.433172 0.642733 0.427947
0.437567 0.643147 0.427849
0.442264 0.643723 0.427292
0.453351 0.645740 0.424393
0.478686 0.654098 0.400901
0.524713 0.671457 0.280067
0.589679 0.684665 -0.256366
0.700108 0.690091 -0.463535
0.939458 0.662835 -0.581614
1.138238 0.626071 -0.551926
1.229364 0.595858 -0.567621
1.310188 0.559460 -0.578661
1.368270 0.512576 -0.575952
0.467835 0.709372 0.471901
0.468693 0.709375 0.471993
0.471826 0.709585 0.472319
0.476426 0.710130 0.472718
0.480333 0.710459 0.472759
0.484580 0.710915 0.472489
0.494680 0.712473 0.470965
0.518218 0.718932 0.456971
0.554561 0.733539 0.387538
0.598474 0.747064 0.229650
0.673794 0.758573 -0.349835
0.905987 0.752488 -0.608544
1.128752 0.715486 -0.616422
1.224075 0.687828 -0.631438
1.308737 0.654406 -0.642439
1.370996 0.611217 -0.641106
0.506693 0.768258 0.511008
0.507427 0.768321 0.511102
0.510218 0.768478 0.511433
0.514240 0.768851 0.511730
0.517818 0.769157 0.511894
0.521688 0.769558 0.511849
0.530799 0.770808 0.511038
0.552710 0.775955 0.502475
0.585090 0.788271 0.457637
0.618239 0.800743 0.367001
0.669123 0.813322 -0.070454
0.850800 0.823424 -0.574447
1.111153 0.796988 -0.663254
1.209972 0.771447 -0.678360
1.298410 0.740473 -0.690435
1.365118 0.699100 -0.691824
0.541180 0.820517 0.545791
0.541838 0.820541 0.545860
0.544321 0.820769 0.546164
0.547924 0.821087 0.546456
0.551234 0.821332 0.546649
0.554714 0.821658 0.546711
0.562806 0.822645 0.546323
0.582829 0.826653 0.541091
0.613031 0.837020 0.511022
0.641431 0.848707 0.449135
0.676619 0.859936 0.331920
0.802454 0.877843 -0.462904
1.076352 0.864384 -0.683527
1.187842 0.849258 -0.703942
1.278940 0.820771 -0.718334
1.349976 0.781215 -0.725040
0.570936 0.865594 0.575804
0.571524 0.865647 0.575871
0.573727 0.865798 0.576124
0.577013 0.866061 0.576435
0.580067 0.866288 0.576635
0.583177 0.866526 0.576692
0.590247 0.867361 0.576631
0.608014 0.870520 0.573661
0.636541 0.879035 0.553517
0.662868 0.889825 0.508041
0.689533 0.899975 0.436691
0.770105 0.918276 -0.259683
1.017691 0.923091 -0.699445
1.145535 0.909071 -0.702691
1.252835 0.895206 -0.721997
1.326530 0.857654 -0.736326
0.592422 0.898246 0.597478
0.592939 0.898296 0.597569
0.594934 0.898364 0.597779
0.597936 0.898645 0.598092
0.600885 0.898959 0.598332
0.603618 0.899134 0.598415
0.609377 0.899679 0.598510
0.623938 0.901939 0.597133
0.650062 0.908593 0.584921
0.676317 0.918535 0.550839
0.697857 0.927432 0.503341
0.744826 0.942636 0.347356
0.906435 0.961132 -0.561159
1.091020 0.952639 -0.686705
1.195286 0.941589 -0.703841
1.297722 0.929119 -0.722040
0.022915 0.020587 0.087527
0.053776 0.026812 0.090322
0.101285 0.044366 0.105467
0.148320 0.047028 0.114775
0.186537 0.028885 0.118529
0.218013 0.004542 0.129066
0.286720 -0.056941 0.139297
0.421198 -0.108324 0.135934
0.566684 -0.155426 0.109998
0.658013 -0.182919 0.087279
0.768568 -0.216367 -0.073071
0.964223 -0.276124 -0.187808
1.096709 -0.304603 0.072228
1.174829 -0.326505 -0.138284
1.245376 -0.346230 -0.191967
1.297818 -0.360946 -0.223414
0.022011 0.023121 0.085953
0.052824 0.028327 0.087721
0.100523 0.045029 0.101714
0.154572 0.036317 0.106266
0.195035 -0.035362 0.098375
0.225848 -0.044515 0.108925
0.293445 -0.068860 0.118097
0.426472 -0.113820 0.110072
0.570093 -0.158589 0.068914
0.660436 -0.185256 -0.037020
0.771442 -0.218394 -0.110236
0.967285 -0.277762 -0.200518
1.096774 -0.304372 0.069398
1.174880 -0.326285 -0.139067
1.245402 -0.346012 -0.192152
1.297795 -0.360707 -0.223048
0.030950 0.038072 0.094598
0.053765 0.039594 0.085502
0.100185 0.050213 0.090839
0.158251 0.037147 0.098366
0.196864 -0.027970 0.091965
0.226870 -0.037929 0.104382
0.293384 -0.064608 0.114185
0.425556 -0.111209 0.105723
0.569531 -0.156826 0.059755
0.660159 -0.183774 -0.052140
0.770593 -0.216935 -0.113839
0.966105 -0.276501 -0.201838
1.096988 -0.302848 0.063665
1.175073 -0.324976 -0.141247
1.245592 -0.344935 -0.193628
1.298022 -0.359755 -0.224243
0.042498 0.064618 0.102305
0.058263 0.064854 0.086065
0.107623 0.066815 0.088123
0.164188 0.056798 0.085630
0.200864 0.046132 0.079268
0.229799 0.041556 0.094801
0.294206 -0.039498 0.105391
0.424606 -0.100606 0.094861
0.568879 -0.150147 0.016234
0.660028 -0.178342 -0.074596
0.769539 -0.212157 -0.122579
0.964128 -0.272613 -0.205400
1.097544 -0.298423 0.040940
1.175673 -0.321315 -0.147167
1.246247 -0.341887 -0.197661
1.298645 -0.357285 -0.227466
0.063470 0.106176 0.108228
0.076998 0.105156 0.089354
0.113962 0.109646 0.056479
0.173991 0.101325 -0.017329
0.208067 0.096764 -0.023608
0.236848 0.095861 0.061370
0.298217 0.086869 0.079903
0.425367 -0.044712 0.060053
0.569296 -0.126086 -0.081301
0.660889 -0.159879 -0.105568
0.768832 -0.197208 -0.140181
0.962337 -0.261723 -0.214143
1.098931 -0.286918 -0.071695
1.177233 -0.311882 -0.160869
1.247900 -0.334227 -0.207298
1.300104 -0.351141 -0.235129
0.108701 0.166059 0.132775
0.113804 0.165715 0.120111
0.131401 0.169027 0.115711
0.156526 0.175257 0.010895
0.196820 0.174236 -0.115041
0.234920 0.171099 -0.118863
0.303809 0.164549 -0.110334
0.429890 0.143626 -0.112237
0.572483 0.092510 -0.137112
0.664137 -0.072752 -0.149886
0.769391 -0.143876 -0.171892
0.959980 -0.227751 -0.231371
1.102247 -0.256550 -0.129408
1.180786 -0.288001 -0.188970
1.251354 -0.315327 -0.228295
1.303540 -0.336389 -0.251942
0.166122 0.251209 0.181642
0.168401 0.251241 0.173415
0.180884 0.252625 0.173855
0.192478 0.256168 0.164020
0.201949 0.259800 0.141664
0.216571 0.263972 0.097516
0.275477 0.269583 -0.162054
0.429765 0.255083 -0.212618
0.579519 0.230783 -0.217878
0.672323 0.211344 -0.221864
0.775423 0.178424 -0.232112
0.962559 -0.095417 -0.272213
1.108037 -0.156343 -0.194824
1.186920 -0.219087 -0.235205
1.257720 -0.264122 -0.265422
1.310889 -0.301270 -0.285535
0.234646 0.355040 0.245620
0.235954 0.355235 0.240232
0.244370 0.355926 0.240974
0.254071 0.357427 0.239199
0.260930 0.359129 0.234398
0.267449 0.361194 0.225192
0.286915 0.369415 0.185841
0.388759 0.381893 -0.245600
0.573080 0.364514 -0.318126
0.676524 0.348971 -0.319763
0.782040 0.328738 -0.320483
0.968334 0.279219 -0.339594
1.119279 0.249958 -0.279968
1.199679 0.182935 -0.308027
1.271184 -0.086552 -0.329589
1.322266 -0.206152 -0.337882
0.305899 0.463305 0.314496
0.306747 0.463435 0.310684
0.312726 0.463896 0.311279
0.320426 0.464683 0.311106
0.326364 0.465444 0.309684
0.332238 0.466514 0.306776
0.345279 0.470714 0.293239
0.388535 0.487134 0.182682
0.528146 0.497427 -0.350957
0.654288 0.486578 -0.408647
0.775437 0.467282 -0.420444
0.971497 0.427683 -0.427417
1.131491 0.400535 -0.374775
1.214458 0.360036 -0.395629
1.287946 0.308267 -0.410958
1.339739 0.234124 -0.412224
0.370515 0.561499 0.377954
0.371218 0.561678 0.375050
0.375816 0.562020 0.375579
0.382079 0.562567 0.375749
0.387136 0.563041 0.375329
0.392402 0.563674 0.374142
0.404412 0.566381 0.368471
0.432773 0.577250 0.324771
0.506142 0.597358 -0.177343
0.607825 0.603916 -0.396424
0.742231 0.592955 -0.484149
0.963442 0.555695 -0.515819
1.138963 0.523362 -0.468594
1.225761 0.489562 -0.485866
1.302636 0.448418 -0.497956
1.356799 0.394629 -0.495422
0.423600 0.642016 0.430459
0.424134 0.642168 0.428128
0.427937 0.642420 0.428545
0.433236 0.642930 0.428873
0.437711 0.643339 0.428773
0.442435 0.643764 0.428277
0.453516 0.645742 0.425507
0.478816 0.653979 0.402466
0.524758 0.671327 0.282998
0.589720 0.684534 -0.252947
0.700480 0.689980 -0.462339
0.940368 0.662553 -0.580219
1.138153 0.626033 -0.549271
1.229245 0.595870 -0.565041
1.310048 0.559502 -0.576143
1.368057 0.512764 -0.573430
0.468001 0.709420 0.474660
0.468479 0.709548 0.472694
0.471713 0.709818 0.473061
0.476375 0.710139 0.473400
0.480432 0.710518 0.473523
0.484682 0.710937 0.473286
0.494734 0.712443 0.471833
0.518347 0.718866 0.458226
0.554696 0.733396 0.389431
0.598522 0.746931 0.233488
0.673995 0.758625 -0.348051
0.906831 0.752276 -0.607703
1.128674 0.715476 -0.614268
1.223919 0.687804 -0.629314
1.308709 0.654408 -0.640344
1.370864 0.611275 -0.638993
0.506826 0.768343 0.513423
0.507276 0.768489 0.511730
0.510116 0.768618 0.512077
0.514245 0.768984 0.512406
0.517888 0.769212 0.512543
0.521799 0.769683 0.512547
0.530875 0.770854 0.511800
0.552712 0.775816 0.503427
0.585194 0.788293 0.459073
0.618317 0.800674 0.369055
0.669169 0.813274 -0.043046
0.851126 0.823378 -0.573599
1.111125 0.796972 -0.661424
1.209997 0.771414 -0.676517
1.298280 0.740420 -0.688646
1.365050 0.699108 -0.690054
0.541323 0.820559 0.547859
0.541687 0.820671 0.546459
0.544185 0.820862 0.546714
0.547964 0.821154 0.547096
0.551330 0.821412 0.547255
0.554806 0.821736 0.547274
0.562867 0.822710 0.547062
0.582846 0.826688 0.541921
0.613120 0.836976 0.512258
0.641525 0.848662 0.450668
0.676653 0.859881 0.334334
0.802551 0.877838 -0.461620
1.076298 0.864375 -0.681828
1.187879 0.849240 -0.702331
1.278919 0.820732 -0.716642
1.349793 0.781189 -0.723433
0.571040 0.865663 0.577644
0.571353 0.865710 0.576354
0.573625 0.865902 0.576645
0.577062 0.866257 0.577011
0.580139 0.866411 0.577203
0.583267 0.866696 0.577290
0.590268 0.867396 0.577204
0.608000 0.870459 0.574350
0.636672 0.879021 0.554550
0.663039 0.889820 0.509271
0.689622 0.899958 0.438225
0.770067 0.918251 -0.256085
1.018046 0.923064 -0.698770
1.145495 0.909053 -0.701073
1.252815 0.895180 -0.720515
1.326638 0.857620 -0.734906
0.592504 0.898310 0.599109
0.592868 0.898344 0.598045
0.594868 0.898492 0.598293
0.597973 0.898739 0.598632
0.600910 0.898998 0.598835
0.603711 0.899187 0.598981
0.609470 0.899837 0.599096
0.623960 0.901960 0.597743
0.650107 0.908549 0.585729
0.676465 0.918544 0.551943
0.697990 0.927443 0.504521
0.744830 0.942573 0.349481
0.906571 0.961154 -0.560273
1.090986 0.952701 -0.685119
1.195255 0.941565 -0.702289
1.297624 0.929091 -0.720612
0.044761 0.040295 0.171300
0.064352 0.042884 0.172025
0.105773 0.052207 0.174572
0.143762 0.064301 0.177990
0.168573 0.073454 0.179447
0.192753 0.082785 0.185356
0.256876 0.084737 0.202487
0.401867 -0.059398 0.219807
0.554317 -0.134210 0.214411
0.648420 -0.167632 0.205935
0.761243 -0.205332 0.184431
0.959196 -0.268989 0.043221
1.094701 -0.301583 0.149819
1.172721 -0.323290 0.020619
1.243197 -0.342937 -0.148617
1.295733 -0.357671 -0.191530
0.043834 0.041641 0.171694
0.062457 0.043407 0.170015
0.105140 0.052788 0.173226
0.144167 0.064800 0.175381
0.168877 0.073635 0.174538
0.193429 0.082731 0.180004
0.262380 0.078644 0.198305
0.407450 -0.070627 0.212258
0.557912 -0.137970 0.204768
0.650977 -0.170122 0.195618
0.764269 -0.207428 0.172084
0.962675 -0.270776 -0.078153
1.094751 -0.301298 0.149196
1.172674 -0.323030 0.013129
1.243207 -0.342674 -0.148623
1.295701 -0.357409 -0.191039
0.043566 0.048357 0.168482
0.061316 0.049877 0.167799
0.104075 0.057654 0.169861
0.142818 0.068409 0.170380
0.168650 0.076147 0.163580
0.199210 0.078332 0.168004
0.277763 0.055671 0.181537
0.422363 -0.092893 0.183178
0.568498 -0.148038 0.166679
0.658729 -0.177228 0.153358
0.774181 -0.213716 0.115999
0.973875 -0.276090 -0.154522
1.094897 -0.299626 0.148892
1.172755 -0.321474 0.025476
1.243186 -0.341146 -0.146256
1.295428 -0.355772 -0.187232
0.052100 0.070289 0.174152
0.062971 0.070506 0.167915
0.104655 0.074187 0.163742
0.143081 0.081866 0.159230
0.169627 0.087742 0.155166
0.203296 0.086264 0.163600
0.279443 0.068589 0.175785
0.421387 -0.082296 0.176044
0.567803 -0.142160 0.158579
0.658545 -0.172460 0.144861
0.772680 -0.209350 0.104909
0.971735 -0.272543 -0.160312
1.095459 -0.295145 0.143625
1.173405 -0.317744 -0.050555
1.243809 -0.338038 -0.152068
1.296074 -0.353193 -0.191365
0.066988 0.109468 0.179471
0.071877 0.109382 0.167475
0.108063 0.110418 0.152155
0.146279 0.114088 0.148576
0.179145 0.114094 0.151715
0.213253 0.112808 0.159413
0.284749 0.103535 0.166960
0.421799 0.044583 0.162779
0.567908 -0.118553 0.141642
0.659231 -0.154846 0.125439
0.771567 -0.195264 0.072261
0.969036 -0.262144 -0.172641
1.096870 -0.283416 0.128710
1.174979 -0.308131 -0.090318
1.245433 -0.330174 -0.165410
1.297715 -0.346788 -0.200977
0.097142 0.170343 0.189651
0.101897 0.170167 0.175093
0.130261 0.169555 0.153878
0.159327 0.172126 0.152964
0.196280 0.171557 0.113431
0.232623 0.168304 0.123968
0.298614 0.164015 0.133014
0.427379 0.145431 0.124749
0.571120 0.096445 0.089708
0.662990 -0.071204 0.044911
0.772448 -0.146341 -0.102276
0.967164 -0.231875 -0.197918
1.100247 -0.252446 0.072679
1.178566 -0.283682 -0.139573
1.249100 -0.310768 -0.192610
1.301109 -0.331590 -0.221312
0.162219 0.253787 0.217001
0.165607 0.253629 0.207581
0.179375 0.253465 0.192783
0.198774 0.254803 0.193911
0.207980 0.257658 0.182429
0.219299 0.261727 0.157415
0.277498 0.267515 -0.104428
0.431994 0.251478 -0.160859
0.579741 0.228110 -0.168633
0.671353 0.208791 -0.174892
0.777215 0.174413 -0.191102
0.967745 -0.107610 -0.243573
1.106006 -0.147900 -0.147927
1.185568 -0.214917 -0.203490
1.256984 -0.261798 -0.241003
1.308559 -0.295342 -0.260037
0.234327 0.356321 0.270075
0.235690 0.356547 0.263461
0.243155 0.356944 0.252028
0.256249 0.357589 0.252974
0.264674 0.358542 0.250230
0.271237 0.359990 0.243116
0.289560 0.367845 0.212563
0.391780 0.380258 -0.224643
0.575897 0.361363 -0.294589
0.677359 0.345771 -0.294304
0.784482 0.325098 -0.295245
0.973130 0.274491 -0.318374
1.117564 0.253546 -0.253610
1.197775 0.189970 -0.284938
1.269165 -0.050254 -0.308576
1.320300 -0.196001 -0.317832
0.306283 0.464051 0.332447
0.307026 0.464361 0.327459
0.311863 0.464875 0.318596
0.321284 0.465341 0.319396
0.328259 0.465754 0.318620
0.334326 0.466229 0.316191
0.347469 0.469743 0.304750
0.389722 0.486155 0.208769
0.530621 0.496260 -0.339326
0.656516 0.484400 -0.395155
0.778822 0.464443 -0.405052
0.976466 0.424436 -0.412185
1.130137 0.401809 -0.356922
1.212940 0.362217 -0.379024
1.286281 0.311981 -0.395283
1.338023 0.241374 -0.396899
0.371050 0.562022 0.391939
0.371510 0.562308 0.387996
0.375134 0.562847 0.380912
0.382410 0.563228 0.381594
0.388255 0.563555 0.381460
0.393635 0.563819 0.380480
0.405786 0.566033 0.375774
0.433999 0.576455 0.335911
0.506768 0.596819 -0.144921
0.609138 0.603255 -0.387432
0.745785 0.591390 -0.475651
0.968312 0.553440 -0.505246
1.138094 0.523910 -0.455331
1.224791 0.490499 -0.473206
1.301374 0.450032 -0.485784
1.355489 0.397390 -0.483355
0.424073 0.642409 0.442042
0.424447 0.642699 0.438716
0.427365 0.643118 0.432814
0.433388 0.643454 0.433388
0.438414 0.643750 0.433488
0.443261 0.644066 0.433101
0.454358 0.645662 0.430870
0.479887 0.653464 0.410073
0.525310 0.670768 0.297080
0.590280 0.684196 -0.235580
0.702667 0.689592 -0.456574
0.944814 0.661082 -0.573283
1.137566 0.626239 -0.538694
1.228572 0.596203 -0.554764
1.309228 0.560163 -0.566160
1.367079 0.514130 -0.563525
0.468462 0.709826 0.484558
0.468808 0.710044 0.481716
0.471240 0.710446 0.476656
0.476471 0.710701 0.477195
0.481014 0.711028 0.477460
0.485312 0.711264 0.477278
0.495380 0.712603 0.476211
0.519191 0.718564 0.464103
0.555348 0.733098 0.398502
0.598939 0.746523 0.250991
0.674829 0.758459 -0.338412
0.910578 0.751539 -0.603353
1.128403 0.715544 -0.605480
1.223611 0.687949 -0.620751
1.308071 0.654684 -0.631972
1.370241 0.611883 -0.630575
0.507255 0.768566 0.522037
0.507534 0.768842 0.519534
0.509733 0.769167 0.515236
0.514309 0.769485 0.515729
0.518420 0.769788 0.516028
0.522279 0.770035 0.516009
0.531260 0.771061 0.515481
0.553368 0.775741 0.508210
0.585971 0.787989 0.466010
0.618904 0.800419 0.378379
0.669612 0.813118 0.109843
0.853028 0.823163 -0.569950
1.110968 0.796968 -0.653916
1.209792 0.771374 -0.669190
1.298087 0.740472 -0.681379
1.364598 0.699195 -0.682689
0.541694 0.820832 0.555519
0.541928 0.821072 0.553225
0.543974 0.821424 0.549552
0.548045 0.821701 0.549987
0.551727 0.821878 0.550291
0.555215 0.822147 0.550384
0.563223 0.822984 0.550223
0.583313 0.826658 0.545991
0.613929 0.836839 0.517782
0.642233 0.848526 0.457635
0.677148 0.859740 0.344938
0.803400 0.877834 -0.456047
1.076161 0.864349 -0.675012
1.187775 0.849196 -0.695723
1.278888 0.820680 -0.710252
1.349663 0.781149 -0.716931
0.571381 0.865884 0.584347
0.571561 0.865988 0.582306
0.573486 0.866457 0.579260
0.577148 0.866710 0.579680
0.580555 0.866975 0.579977
0.583673 0.867032 0.580043
0.590622 0.867758 0.580109
0.608419 0.870700 0.577793
0.637271 0.878939 0.559066
0.663865 0.889756 0.514929
0.690198 0.899866 0.445427
0.770427 0.918226 -0.240604
1.019513 0.922947 -0.695740
1.145425 0.908961 -0.694724
1.252684 0.895010 -0.714432
1.326508 0.857588 -0.728895
0.592820 0.898439 0.605097
0.593050 0.898700 0.603288
0.594883 0.899106 0.600806
0.598182 0.899261 0.601201
0.601346 0.899518 0.601484
0.604127 0.899662 0.601585
0.609810 0.900152 0.601740
0.624357 0.902211 0.600758
0.650867 0.908623 0.589656
0.677328 0.918497 0.556651
0.698773 0.927419 0.510182
0.745343 0.942625 0.358990
0.907260 0.961167 -0.556242
1.090984 0.952609 -0.678717
1.195246 0.941469 -0.696113
1.297479 0.928994 -0.714640
0.061404 0.055761 0.237477
0.076308 0.057535 0.238088
0.112164 0.063262 0.237305
0.147510 0.071733 0.237495
0.172555 0.079282 0.238850
0.196421 0.087661 0.241764
0.246217 0.106452 0.246533
0.376265 0.100314 0.272855
0.536981 -0.090502 0.283530
0.634953 -0.141485 0.280196
0.750987 -0.188075 0.267200
0.952210 -0.258627 0.215697
1.091665 -0.296959 0.208590
1.169541 -0.318371 0.163929
1.239894 -0.337790 0.085634
1.292466 -0.352531 -0.119672
0.060799 0.056822 0.238188
0.074283 0.057821 0.236512
0.111388 0.063708 0.236733
0.148140 0.072383 0.237673
0.173119 0.079678 0.238036
0.197150 0.088051 0.240207
0.247681 0.107067 0.244815
0.380514 0.096965 0.271535
0.539745 -0.094387 0.280832
0.636985 -0.143429 0.277097
0.753731 -0.189733 0.263469
0.955498 -0.260061 0.209935
1.091711 -0.296678 0.208289
1.169575 -0.318104 0.163607
1.239911 -0.337559 0.085369
1.292452 -0.352277 -0.119192
0.059359 0.061759 0.235726
0.072794 0.062794 0.235682
0.109303 0.067375 0.234164
0.146811 0.075545 0.235143
0.173232 0.082357 0.234903
0.198205 0.090353 0.235251
0.251310 0.109422 0.238927
0.394174 0.084420 0.265605
0.549983 -0.106736 0.269695
0.644425 -0.150152 0.264088
0.764397 -0.195837 0.247602
0.968539 -0.265527 0.184059
1.091887 -0.294889 0.208411
1.169643 -0.316478 0.164348
1.239890 -0.335994 0.089427
1.292395 -0.350678 -0.113436
0.062527 0.077542 0.234439
0.071610 0.078150 0.233943
0.109937 0.081458 0.233013
0.146911 0.087852 0.233284
0.173043 0.093464 0.232186
0.197448 0.099975 0.231379
0.251012 0.116170 0.233050
0.402329 0.079678 0.256626
0.558313 -0.112691 0.253641
0.652038 -0.154402 0.244330
0.775600 -0.200407 0.222728
0.982649 -0.270173 0.137160
1.092288 -0.289672 0.208039
1.169937 -0.311798 0.164890
1.240065 -0.331644 0.094511
1.292418 -0.346372 -0.103157
0.075116 0.113559 0.239136
0.079879 0.113778 0.236026
0.113043 0.114426 0.232109
0.149819 0.117255 0.230052
0.176064 0.121228 0.226641
0.199891 0.126338 0.225280
0.253235 0.137359 0.229536
0.404297 0.107561 0.250195
0.559239 -0.084106 0.244646
0.652887 -0.136854 0.235055
0.773981 -0.187210 0.213024
0.979483 -0.260656 0.118770
1.093725 -0.277407 0.199807
1.171513 -0.301667 0.152249
1.241824 -0.323278 0.057424
1.293930 -0.339448 -0.124120
0.100498 0.172677 0.247449
0.102885 0.173001 0.242909
0.123682 0.172977 0.230371
0.159419 0.173376 0.226517
0.185084 0.173856 0.222515
0.207461 0.177286 0.222792
0.263063 0.182121 0.231437
0.411149 0.162639 0.239511
0.563495 0.117591 0.227043
0.656609 0.033210 0.215519
0.774105 -0.138840 0.190688
0.976718 -0.232074 0.042197
1.097149 -0.244929 0.177055
1.175262 -0.275915 0.112612
1.245532 -0.302721 -0.107682
1.297473 -0.323118 -0.159776
0.150457 0.257618 0.262652
0.153434 0.257883 0.257923
