OFX Video Plug-Ins/Vfx1.ofx.bundle/Contents/Resources/AutoLooks/20.cube
TITLE "Generated by Resolve"
LUT_3D_SIZE 5
0 0.13875 0.272389
0.244022 0.0898299 0.224308
0.483436 0.0475471 0.183322
0.668589 0.0260624 0.162371
0.807553 0.0345006 0.170199
0 0.240238 0.265064
0.256153 0.215747 0.236103
0.536995 0.209445 0.222583
0.754192 0.227817 0.228916
0.903517 0.271382 0.253986
0 0.504326 0.247425
0.227649 0.50869 0.234318
0.526055 0.517098 0.22739
0.754604 0.545556 0.236576
0.733852 0.605554 0.432837
0 0.822217 0.257221
0.229114 0.82916 0.250645
0.623636 0.73904 0.534783
0.718486 0.764523 0.748745
0.795697 0.820783 0.73019
0.58851 0.84033 0.634012
0.764935 0.830137 0.84126
0.822904 0.865415 0.914504
0.860517 0.906004 0.950607
0.894926 0.947143 0.960388
0 0.140032 0.331502
0.248981 0.0907301 0.281849
0.489082 0.0497902 0.240208
0.67747 0.0317082 0.221332
0.821805 0.0459144 0.235889
0 0.248386 0.327672
0.275059 0.228321 0.301274
0.555474 0.224399 0.289311
0.770916 0.245792 0.298802
0.919219 0.291341 0.327153
0 0.523095 0.313466
0.252338 0.527062 0.301106
0.547204 0.536767 0.295781
0.757946 0.567575 0.317617
0.776242 0.627604 0.493751
0 0.841627 0.325902
0.309667 0.822278 0.337957
0.680583 0.726864 0.775204
0.74313 0.788113 0.794781
0.815412 0.84036 0.776791
0.626291 0.853223 0.715572
0.767269 0.86154 0.836515
0.83772 0.886976 0.924346
0.877317 0.922698 0.974746
0.910048 0.962798 0.99147
0 0.137789 0.451972
0.243397 0.0881819 0.405173
0.48603 0.0484321 0.368826
0.679622 0.0339361 0.360769
0.829267 0.0525978 0.391241
0 0.254231 0.452293
0.286976 0.237201 0.434958
0.567483 0.234989 0.432319
0.782315 0.257939 0.453315
0.929656 0.303655 0.494926
0 0.537881 0.434501
0.270573 0.541405 0.429541
0.563241 0.551583 0.43328
0.701625 0.592035 0.543664
0.837873 0.640543 0.577447
0 0.856641 0.440558
0.476112 0.771832 0.587198
0.710323 0.754772 0.806836
0.767391 0.810864 0.840284
0.835019 0.858763 0.823056
0.543038 0.912291 0.722942
0.739223 0.902052 0.823224
0.842329 0.913741 0.921492
0.89366 0.941146 0.992828
0.925765 0.978927 1
0 0.126314 0.711254
0.219394 0.0779583 0.66511
0.467658 0.0392462 0.629084
0.671702 0.0298161 0.628473
0.826612 0.0513771 0.667002
0 0.251133 0.724498
0.283757 0.236439 0.712139
0.567285 0.235904 0.713558
0.784192 0.259464 0.738705
0.933135 0.306325 0.784619
0 0.541009 0.707881
0.273793 0.545296 0.707942
0.566369 0.555154 0.714961
0.783093 0.583429 0.737469
0.915404 0.631067 0.775082
0 0.856367 0.711589
0.435691 0.806348 0.733898
0.685771 0.804776 0.796597
0.791348 0.832654 0.883085
0.859281 0.874769 0.87071
0.368124 0.987442 0.806439
0.633066 0.961501 0.840284
0.807553 0.953689 0.90576
0.898848 0.966461 0.99089
0.938201 1 1
0 0.115496 0.955489
0.196963 0.0696422 0.9084
0.45388 0.0334478 0.871427
0.667887 0.0287633 0.871794
0.827924 0.0534524 0.907378
0 0.250126 0.984237
0.283955 0.237995 0.970214
0.570016 0.239658 0.968872
0.789685 0.264851 0.989731
0.939193 0.312718 1
0 0.54464 0.978882
0.278859 0.549889 0.975311
0.57113 0.559731 0.976837
0.791974 0.586267 0.993973
0.934585 0.628229 1
0 0.8589 0.979187
0.281559 0.857877 0.97673
0.555459 0.853132 0.971817
0.767773 0.855497 0.97293
0.902541 0.870756 0.987442
0.162585 1 0.996979
0.435309 1 0.979232
0.671138 1 0.971054
0.838254 1 0.99118
0.925658 1 1
