OFX Video Plug-Ins/Vfx1.ofx.bundle/Contents/Resources/AutoLooks/20.cube
TITLE "Generated by Resolve"
LUT_3D_SIZE 33
0 0.13875 0.272389
0.00276188 0.135424 0.269108
0.0479133 0.126116 0.259892
0.0862898 0.118563 0.252461
0.116152 0.113436 0.247578
0.14612 0.108248 0.242481
0.17847 0.102098 0.236484
0.211582 0.0959487 0.230457
0.244022 0.0898299 0.224308
0.276219 0.0839094 0.218692
0.30782 0.0781415 0.213153
0.338537 0.0723583 0.207355
0.368948 0.0668956 0.20206
0.39855 0.0616922 0.196887
0.427558 0.0564736 0.192035
0.455879 0.0518807 0.187579
0.483436 0.0475471 0.183322
0.509819 0.0433814 0.179156
0.535515 0.0397192 0.175601
0.560204 0.0364538 0.172656
0.583795 0.0335546 0.169711
0.606775 0.0311284 0.167422
0.62829 0.0289006 0.165194
0.649134 0.0272221 0.163561
0.668589 0.0260624 0.162371
0.687526 0.0254063 0.161669
0.70605 0.0255131 0.161715
0.723613 0.0256962 0.161868
0.740719 0.0265202 0.1626
0.757229 0.0276493 0.163607
0.773877 0.0293278 0.16524
0.790814 0.0319677 0.167712
0.807553 0.0345006 0.170199
0 0.148531 0.272953
0.00515755 0.145281 0.269749
0.0518654 0.135409 0.260029
0.0883955 0.128359 0.253086
0.117937 0.12314 0.248188
0.147585 0.117662 0.243107
0.180087 0.111666 0.237171
0.213336 0.105547 0.231266
0.245731 0.0992752 0.225193
0.277699 0.0933852 0.219608
0.309194 0.0877089 0.214008
0.340215 0.0819715 0.208469
0.370672 0.0767834 0.20322
0.400824 0.0719158 0.198474
0.430091 0.0669413 0.193881
0.458518 0.0626078 0.189532
0.48632 0.0584268 0.185489
0.513329 0.0546731 0.181827
0.539254 0.0515297 0.178622
0.564355 0.0484627 0.175738
0.588693 0.0458839 0.173404
0.611811 0.0436561 0.171221
0.634455 0.042298 0.169879
0.656001 0.0413214 0.168933
0.676814 0.041001 0.168643
0.69662 0.0410315 0.168643
0.715816 0.0419623 0.169528
0.734661 0.0432746 0.170825
0.753124 0.0451362 0.17258
0.771145 0.0476081 0.174701
0.788632 0.0502174 0.17731
0.806119 0.0531624 0.180179
0.823606 0.0566567 0.18349
0 0.158953 0.273106
0.00517281 0.155642 0.269795
0.0513466 0.145708 0.260044
0.0881208 0.138537 0.253132
0.117403 0.133242 0.248295
0.147112 0.127825 0.24303
0.179873 0.121843 0.237339
0.213046 0.11548 0.231342
0.245869 0.109529 0.225544
0.278386 0.103777 0.220386
0.310399 0.098146 0.215076
0.341833 0.0928054 0.209842
0.373205 0.0878157 0.205203
0.403525 0.082887 0.200534
0.433448 0.0785229 0.196414
0.462531 0.074403 0.192538
0.491005 0.0704204 0.1888
0.518364 0.0671397 0.185595
0.54519 0.0642252 0.182712
0.571389 0.0620432 0.180621
0.596521 0.0601205 0.178836
0.620874 0.0588998 0.177676
0.64416 0.0580148 0.176867
0.667369 0.0582437 0.17705
0.689342 0.0589914 0.177798
0.710521 0.0601816 0.178897
0.730663 0.0621195 0.180728
0.750164 0.0641337 0.182773
0.769223 0.0667124 0.18529
0.787747 0.0699474 0.188327
0.805829 0.0732891 0.191241
0.82388 0.0768902 0.194842
0.841321 0.0805676 0.19826
0 0.16939 0.272618
0.00389105 0.165866 0.269261
0.0497139 0.156222 0.260044
0.0871901 0.148882 0.252964
0.116762 0.14345 0.24828
0.147127 0.138323 0.243595
0.180224 0.132479 0.238193
0.213611 0.12639 0.232334
0.24712 0.120607 0.227024
0.280064 0.115099 0.222156
0.31249 0.109789 0.216999
0.344823 0.104845 0.212406
0.376486 0.099855 0.207813
0.407446 0.0954299 0.203571
0.437858 0.0912337 0.19968
0.468009 0.0875563 0.19649
0.497765 0.0847181 0.193927
0.526207 0.0819715 0.191211
0.55407 0.0798199 0.189212
0.58088 0.0782635 0.187762
0.607324 0.077348 0.186938
0.63331 0.077409 0.186954
0.65832 0.0778973 0.18735
0.681971 0.0786297 0.187961
0.704753 0.0802167 0.189578
0.72636 0.0821851 0.191287
0.747005 0.0847028 0.193301
0.766766 0.087602 0.195865
0.786252 0.0909743 0.199115
0.804883 0.0946517 0.202426
0.822965 0.0984054 0.205768
0.840772 0.102312 0.209277
0.858228 0.106401 0.212924
0 0.179843 0.271962
0.00265507 0.176532 0.268727
0.0478523 0.167346 0.259831
0.0867018 0.160052 0.253056
0.116854 0.154864 0.248661
0.147311 0.14995 0.244221
0.180621 0.144183 0.238956
0.215 0.138506 0.233829
0.249241 0.133028 0.228977
0.282521 0.127733 0.224018
0.315648 0.122805 0.219776
0.348394 0.117983 0.215366
0.38117 0.113893 0.211612
0.413275 0.110018 0.207889
0.445029 0.106722 0.204868
0.475975 0.103838 0.202152
0.506767 0.101701 0.200153
0.53669 0.100069 0.198627
0.566018 0.0990005 0.197543
0.594354 0.0986801 0.197162
0.621408 0.0985733 0.196963
0.648035 0.0992599 0.197498
0.673457 0.100435 0.198428
0.69778 0.10219 0.199863
0.720821 0.104173 0.201633
0.742397 0.106706 0.203769
0.763317 0.109941 0.206394
0.782971 0.113512 0.20911
0.802243 0.117235 0.212299
0.820508 0.121157 0.215457
0.838239 0.125368 0.218875
0.855863 0.129793 0.222538
0.873579 0.134676 0.226246
0 0.191272 0.271092
0.00140383 0.188434 0.268391
0.0459754 0.179828 0.260151
0.0859846 0.172335 0.253223
0.116838 0.167712 0.249241
0.147906 0.162951 0.244892
0.181582 0.157641 0.240101
0.216434 0.152316 0.235264
0.25124 0.147265 0.23061
0.285664 0.14287 0.226474
0.319829 0.138521 0.222507
0.353796 0.134661 0.219257
0.387243 0.131075 0.21593
0.420935 0.128298 0.213367
0.454215 0.126253 0.211322
0.486503 0.124468 0.209445
0.518166 0.123156 0.208042
0.548867 0.122332 0.207187
0.578775 0.12195 0.206668
0.607645 0.122438 0.20676
0.63537 0.123186 0.207065
0.662226 0.124529 0.208011
0.687556 0.126131 0.208972
0.711589 0.128267 0.210239
0.734646 0.13077 0.212161
0.75639 0.134051 0.214603
0.776974 0.137743 0.217334
0.796429 0.141558 0.220295
0.815106 0.145769 0.223209
0.833326 0.150225 0.226307
0.850889 0.15491 0.229831
0.868437 0.160082 0.233463
0.885801 0.165057 0.237293
0 0.204593 0.269978
0 0.202335 0.267674
0.0415808 0.194537 0.260105
0.0844434 0.186892 0.252979
0.115419 0.182452 0.248951
0.147509 0.178408 0.24535
0.182589 0.174014 0.24126
0.218418 0.169406 0.236942
0.253803 0.165103 0.232944
0.289448 0.161349 0.22945
0.324834 0.158099 0.226078
0.360281 0.155627 0.223468
0.395178 0.153353 0.221027
0.429557 0.151339 0.218921
0.463203 0.149859 0.217197
0.496422 0.148928 0.2159
0.52845 0.148379 0.214984
0.559564 0.14815 0.214496
0.589776 0.148562 0.214282
0.618799 0.149676 0.214679
0.646326 0.150912 0.215106
0.672908 0.152514 0.2159
0.6981 0.154559 0.216968
0.722011 0.157061 0.218494
0.744915 0.160418 0.220432
0.766491 0.164233 0.222782
0.786709 0.1682 0.225269
0.805585 0.172595 0.22797
0.824109 0.177188 0.231022
0.842313 0.182391 0.234409
0.859754 0.18764 0.237583
0.87689 0.192981 0.241016
0.894041 0.198535 0.244633
0 0.220401 0.268086
0 0.218524 0.265904
0.0311589 0.213504 0.260777
0.0810712 0.204837 0.252293
0.113863 0.201282 0.249058
0.146242 0.197925 0.245731
0.18265 0.194491 0.242161
0.21976 0.190997 0.238392
0.256352 0.188037 0.235065
0.293248 0.185428 0.232197
0.329107 0.183001 0.229358
0.365255 0.18117 0.227039
0.400595 0.179614 0.224857
0.435584 0.178668 0.22327
0.469459 0.177768 0.221729
0.502327 0.177295 0.220462
0.534371 0.177386 0.219638
0.565698 0.177844 0.21915
0.595789 0.178866 0.219242
0.624445 0.180026 0.219303
0.652094 0.181582 0.219883
0.678614 0.183642 0.220737
0.704021 0.186374 0.222004
0.728008 0.189487 0.223407
0.750835 0.193179 0.225498
0.772076 0.197116 0.227634
0.79205 0.201541 0.23035
0.811215 0.206302 0.233158
0.829786 0.211627 0.23624
0.847791 0.216938 0.23949
0.86511 0.222492 0.242725
0.882445 0.228138 0.246281
0.899367 0.234012 0.24979
0 0.240238 0.265064
0 0.239719 0.263844
0.0200961 0.236393 0.260075
0.0745251 0.227863 0.251102
0.110201 0.225528 0.248417
0.143862 0.223438 0.245731
0.180514 0.220645 0.242359
0.218692 0.218082 0.239155
0.256153 0.215747 0.236103
0.29366 0.213748 0.233402
0.330266 0.212345 0.231113
0.36669 0.211154 0.229068
0.402228 0.21004 0.227054
0.437079 0.209293 0.225345
0.47129 0.208804 0.224002
0.504479 0.208804 0.222965
0.536995 0.209445 0.222583
0.568246 0.210193 0.222126
0.598321 0.211337 0.222126
0.627176 0.212924 0.222324
0.654887 0.214893 0.222797
0.68188 0.21735 0.223926
0.707424 0.220356 0.225162
0.731334 0.223789 0.226627
0.754192 0.227817 0.228916
0.77554 0.232166 0.231174
0.795544 0.236881 0.23389
0.815152 0.242252 0.237064
0.833494 0.2477 0.239994
0.851621 0.253269 0.243366
0.869139 0.259068 0.246677
0.886427 0.264988 0.250278
0.903517 0.271382 0.253986
0 0.264469 0.261799
0 0.265415 0.261402
0.0120089 0.264012 0.259159
0.0690013 0.256138 0.250324
0.105531 0.253834 0.247288
0.140017 0.252781 0.245304
0.177493 0.250828 0.242359
0.216266 0.248615 0.23917
0.254261 0.246769 0.236347
0.292271 0.245502 0.234134
0.329854 0.244221 0.23212
0.36614 0.243214 0.230045
0.401907 0.242435 0.228168
0.436973 0.241962 0.226581
0.47158 0.24213 0.22562
0.505074 0.242496 0.22472
0.537743 0.24332 0.224308
0.569406 0.244236 0.224018
0.599573 0.24567 0.22417
0.62884 0.247639 0.224521
0.656962 0.250217 0.225315
0.683864 0.252918 0.226413
0.709484 0.256046 0.227634
0.733608 0.2598 0.229343
0.756619 0.264057 0.231693
0.778256 0.268879 0.234134
0.798733 0.274022 0.237247
0.81796 0.279393 0.240101
0.836545 0.285023 0.243107
0.854597 0.290898 0.246418
0.872206 0.296971 0.249882
0.889632 0.303395 0.253651
0.906844 0.309834 0.257267
0 0.292897 0.25951
0 0.294774 0.259724
0.00569162 0.294545 0.258015
0.0630961 0.287526 0.249714
0.102083 0.285374 0.246647
0.13666 0.284459 0.2448
0.173953 0.283024 0.242206
0.213565 0.281437 0.239338
0.252049 0.280034 0.236774
0.289906 0.278904 0.234485
0.327565 0.27779 0.232364
0.364553 0.276997 0.230594
0.40058 0.276631 0.228962
0.436332 0.276768 0.22768
0.471214 0.277012 0.226764
0.504952 0.277729 0.226078
0.537789 0.278676 0.225528
0.569482 0.279988 0.225513
0.600076 0.281773 0.225788
0.629633 0.284199 0.226368
0.657725 0.286809 0.2271
0.68484 0.289799 0.228229
0.710689 0.293248 0.229648
0.734936 0.297185 0.231357
0.758129 0.301717 0.233753
0.77995 0.306828 0.236301
0.800473 0.312139 0.239429
0.820035 0.3178 0.242313
0.838636 0.323674 0.245472
0.85658 0.329778 0.248737
0.874662 0.336309 0.252628
0.891783 0.342794 0.256107
0.908904 0.34931 0.259617
0 0.324193 0.257694
0 0.326833 0.258396
0.000366217 0.327382 0.257176
0.0563363 0.320989 0.249302
0.0976883 0.318639 0.245686
0.132982 0.317968 0.243839
0.170413 0.317174 0.24184
0.210132 0.315923 0.239246
0.248936 0.314733 0.236698
0.287068 0.313817 0.234424
0.32488 0.313039 0.232502
0.362142 0.312505 0.230823
0.398993 0.312657 0.22945
0.434546 0.312901 0.228214
0.469627 0.313359 0.227344
0.50396 0.314412 0.22681
0.53698 0.315587 0.226596
0.569085 0.31754 0.226688
0.600107 0.319509 0.227008
0.629435 0.322026 0.227588
0.657938 0.324804 0.228595
0.685023 0.328084 0.229587
0.711055 0.331762 0.231083
0.736004 0.336187 0.233249
0.759045 0.34081 0.235355
0.780941 0.345785 0.237934
0.801389 0.351202 0.240787
0.821012 0.356939 0.243763
0.839796 0.363439 0.247105
0.858122 0.369909 0.250706
0.875822 0.376349 0.254231
0.893111 0.382849 0.257877
0.910002 0.389563 0.261158
0 0.357565 0.255894
0 0.360494 0.256611
0 0.361593 0.256046
0.0471809 0.356527 0.249226
0.0929122 0.353643 0.244633
0.128801 0.353414 0.24303
0.166247 0.352895 0.241245
0.206043 0.351797 0.238651
0.244999 0.350896 0.236255
0.283345 0.350317 0.234134
0.322179 0.350011 0.232547
0.359564 0.349935 0.231022
0.396262 0.350042 0.229557
0.432242 0.350469 0.228367
0.467613 0.351217 0.227588
0.502159 0.352392 0.227329
0.535744 0.35433 0.227314
0.567697 0.356207 0.227298
0.598871 0.358373 0.227665
0.628672 0.361013 0.228519
0.657206 0.364096 0.229419
0.684489 0.36759 0.230518
0.711208 0.371679 0.232395
0.735988 0.375937 0.23415
0.759243 0.380697 0.236378
0.781155 0.385885 0.23888
0.801633 0.39147 0.24181
0.821332 0.397406 0.244785
0.840055 0.403937 0.24799
0.858183 0.410285 0.251377
0.876051 0.416693 0.255055
0.893263 0.423331 0.258442
0.910292 0.430014 0.26186
0 0.392126 0.253605
0 0.395575 0.254612
0 0.397375 0.254505
0.0330053 0.395209 0.250431
0.0875868 0.390188 0.243656
0.124254 0.390173 0.24239
0.161471 0.390066 0.240528
0.201389 0.389227 0.237919
0.240925 0.38854 0.235584
0.28011 0.388327 0.233768
0.318654 0.38819 0.232258
0.356313 0.388327 0.230686
0.393103 0.388785 0.229404
0.429313 0.389471 0.228321
0.465019 0.390311 0.227771
0.499886 0.391943 0.227481
0.533257 0.393668 0.227237
0.565972 0.395972 0.227527
0.597284 0.398322 0.228168
0.627482 0.401068 0.228824
0.656382 0.404623 0.229953
0.684047 0.408225 0.231373
0.710384 0.412222 0.232822
0.735271 0.416602 0.234745
0.758816 0.421393 0.236881
0.780545 0.426734 0.239322
0.801526 0.432731 0.242557
0.821134 0.438712 0.245411
0.840009 0.444892 0.248463
0.857923 0.451316 0.251804
0.875761 0.457755 0.255283
0.893004 0.464393 0.258839
0.908522 0.471717 0.262913
0 0.428183 0.25127
0 0.43209 0.252537
0 0.434775 0.25301
0.0234684 0.433951 0.250141
0.0821088 0.428077 0.242542
0.119448 0.428336 0.241337
0.15642 0.428473 0.239689
0.196414 0.428122 0.237476
0.236774 0.427787 0.235416
0.275959 0.427634 0.233371
0.3149 0.427588 0.231693
0.352697 0.427939 0.230259
0.390158 0.428443 0.229175
0.426856 0.429572 0.228351
0.462593 0.430869 0.227756
0.497368 0.432303 0.227359
0.531243 0.434058 0.227207
0.563745 0.43624 0.22742
0.595071 0.438911 0.227955
0.625696 0.442039 0.22887
0.65481 0.44538 0.230015
0.682368 0.449119 0.231266
0.70898 0.453346 0.233188
0.734096 0.457786 0.234867
0.757656 0.462669 0.237003
0.779904 0.46836 0.239765
0.800595 0.474022 0.242451
0.820401 0.479896 0.245579
0.839155 0.486122 0.248371
0.857252 0.492485 0.251637
0.872953 0.499184 0.256474
0.87892 0.507332 0.266346
0.875059 0.516411 0.281117
0 0.465629 0.249317
0 0.47013 0.250919
0 0.473167 0.251408
0.015671 0.473274 0.249439
0.0764172 0.467155 0.24152
0.114595 0.467231 0.239857
0.151644 0.468193 0.238834
0.191928 0.468071 0.236988
0.232166 0.467811 0.234836
0.271656 0.467826 0.232959
0.31075 0.468025 0.231464
0.349203 0.468452 0.230091
0.386725 0.469429 0.228992
0.423621 0.470573 0.228122
0.459525 0.47187 0.227466
0.494774 0.473365 0.227344
0.528542 0.475319 0.227192
0.56109 0.477623 0.227314
0.593271 0.480491 0.228107
0.623575 0.483482 0.228931
0.652598 0.486854 0.229862
0.680476 0.490517 0.231281
0.706966 0.494575 0.232853
0.732555 0.499214 0.23476
0.756176 0.504204 0.236866
0.778103 0.509529 0.2392
0.799191 0.515038 0.242008
0.818998 0.521141 0.245136
0.835142 0.52752 0.250004
0.842512 0.534905 0.261143
0.840986 0.542855 0.277394
0.831022 0.551965 0.298741
0.813962 0.563134 0.323018
0 0.504326 0.247425
0 0.508995 0.249378
0 0.512505 0.249989
0.00932326 0.513375 0.248783
0.0706188 0.507378 0.240711
0.110582 0.507622 0.239216
0.147234 0.508461 0.238087
0.187472 0.508598 0.236225
0.227649 0.50869 0.234318
0.267781 0.508766 0.2327
0.307073 0.509209 0.231281
0.345785 0.510079 0.230167
0.383551 0.510948 0.228931
0.420462 0.512032 0.228183
0.456458 0.513405 0.227497
0.491737 0.515007 0.227222
0.526055 0.517098 0.22739
0.559213 0.51957 0.227573
0.590707 0.522255 0.228
0.621592 0.525078 0.228962
0.650523 0.528466 0.229908
0.678294 0.532174 0.231083
0.705333 0.536339 0.232929
0.730877 0.540795 0.234638
0.754604 0.545556 0.236576
0.776822 0.550683 0.238911
0.794354 0.556252 0.244388
0.803784 0.562661 0.256474
0.805203 0.569665 0.274311
0.798413 0.57731 0.297292
0.784878 0.586511 0.323522
0.763333 0.596109 0.36556
0.733852 0.605554 0.432837
0 0.543648 0.246021
0 0.548714 0.24802
0 0.55256 0.249195
0.00410468 0.554101 0.248188
0.0658732 0.548653 0.240696
0.106538 0.548516 0.238666
0.143114 0.549538 0.237629
0.183093 0.549706 0.236027
0.224033 0.549691 0.233982
0.264103 0.550011 0.232288
0.303731 0.550729 0.230991
0.342641 0.551293 0.229969
0.380346 0.552499 0.229145
0.417487 0.553674 0.22826
0.45388 0.555032 0.227726
0.489464 0.556756 0.227436
0.523796 0.559014 0.227481
0.556741 0.561273 0.227695
0.588556 0.563851 0.228168
0.619547 0.566644 0.228885
0.648814 0.569879 0.229877
0.676921 0.573846 0.231342
0.703517 0.577752 0.232761
0.729076 0.581872 0.234684
0.749371 0.586389 0.240253
0.761746 0.591073 0.253025
0.766705 0.596643 0.272129
0.764385 0.602792 0.296971
0.755016 0.610239 0.325124
0.738231 0.617609 0.372457
0.714519 0.624643 0.44419
0.714107 0.631662 0.474311
0.73138 0.63859 0.472587
0 0.583688 0.244953
0 0.588998 0.247395
0 0.59321 0.248737
0.000885023 0.595376 0.248325
0.061265 0.590097 0.240803
0.103258 0.589776 0.238743
0.140169 0.590875 0.237827
0.179721 0.591287 0.236179
0.221195 0.591653 0.234379
0.261479 0.591913 0.232898
0.301122 0.592371 0.231434
0.339925 0.593042 0.230289
0.378042 0.593896 0.22945
0.415198 0.595071 0.228626
0.45182 0.59675 0.228077
0.487419 0.598291 0.227695
0.521706 0.600153 0.22768
0.554635 0.60238 0.227771
0.586557 0.604852 0.228061
0.617517 0.607645 0.229053
0.647028 0.611002 0.229999
0.675196 0.61474 0.231403
0.698787 0.617884 0.23772
0.715236 0.620905 0.251438
0.725048 0.624567 0.271458
0.728176 0.628611 0.297688
0.724697 0.63386 0.327916
0.71368 0.638498 0.380331
0.696925 0.64303 0.455741
0.687526 0.648417 0.512459
0.703929 0.655665 0.509606
0.720546 0.66273 0.507683
0.737133 0.669932 0.50573
0 0.623896 0.244648
0 0.629892 0.247364
0 0.634394 0.24918
0 0.636637 0.248875
0.0573892 0.631769 0.241871
0.101228 0.631067 0.2392
0.138186 0.632258 0.238361
0.17789 0.633127 0.237293
0.219196 0.633143 0.235325
0.259449 0.633433 0.233646
0.299138 0.63386 0.232456
0.338033 0.634485 0.231327
0.376196 0.63534 0.230243
0.413764 0.636744 0.229679
0.450172 0.63798 0.229129
0.485756 0.639414 0.228656
0.519951 0.641215 0.228397
0.553353 0.643168 0.228565
0.585199 0.645609 0.228901
0.61622 0.648371 0.229892
0.643183 0.650172 0.236561
0.665202 0.65153 0.251118
0.68101 0.652979 0.272129
0.690547 0.654398 0.298985
0.694286 0.657252 0.331716
0.690379 0.658778 0.389242
0.680674 0.660761 0.468299
0.66688 0.662852 0.553704
0.682094 0.670253 0.551446
0.697948 0.677836 0.548592
0.713161 0.685267 0.545449
0.728756 0.692348 0.542748
0.743938 0.699336 0.540429
0 0.664607 0.245136
0 0.670283 0.247929
0 0.674907 0.249668
0 0.677378 0.249912
0.0543374 0.673136 0.243214
0.0999466 0.672007 0.240314
0.137819 0.67364 0.239963
0.177127 0.67422 0.23856
0.218387 0.674205 0.236866
0.258564 0.674495 0.235264
0.298009 0.674952 0.233875
0.337621 0.6757 0.232898
0.375708 0.676448 0.231998
0.413001 0.677378 0.231113
0.449348 0.678538 0.230411
0.485023 0.679774 0.230091
0.519326 0.681346 0.229725
0.552712 0.683406 0.23035
0.584329 0.683482 0.237385
0.612207 0.682338 0.252399
0.635691 0.681483 0.27422
0.652659 0.680293 0.301656
0.664424 0.680217 0.336294
0.667872 0.678782 0.398642
0.666224 0.677653 0.481224
0.6598 0.677241 0.568551
0.666362 0.682826 0.59556
0.680781 0.690639 0.592386
0.695277 0.698116 0.589212
0.709361 0.705592 0.585748
0.72369 0.712825 0.582528
0.738003 0.719997 0.57966
0.75227 0.727123 0.576867
0 0.704997 0.246738
0 0.710765 0.249454
0 0.715373 0.251514
0 0.717983 0.251682
0.0543526 0.714168 0.245655
0.100694 0.712947 0.242527
0.137957 0.714 0.241718
0.177172 0.714473 0.240589
0.21828 0.714427 0.238697
0.258549 0.714549 0.237034
0.298604 0.715084 0.235966
0.337911 0.715572 0.234867
0.375814 0.716243 0.233829
0.413184 0.717006 0.233021
0.449653 0.717968 0.232319
0.485359 0.718822 0.232578
0.52195 0.717525 0.239994
0.557214 0.713848 0.255009
0.588525 0.710002 0.277195
0.614466 0.705974 0.305318
0.634974 0.702403 0.341848
0.647135 0.697993 0.408881
0.652705 0.694102 0.493843
0.653986 0.691096 0.583795
0.657511 0.693126 0.640055
0.670344 0.701106 0.636851
0.682963 0.708965 0.633951
0.696147 0.716594 0.630442
0.709056 0.724147 0.627436
0.722194 0.731655 0.624048
0.735668 0.739178 0.620966
0.748959 0.746456 0.618311
0.762066 0.753384 0.615137
0 0.744976 0.249104
0 0.750652 0.252094
0 0.755337 0.254093
0.000350958 0.758129 0.254505
0.0568093 0.754147 0.248417
0.102922 0.752697 0.245472
0.139834 0.753735 0.244739
0.178759 0.754192 0.243427
0.219989 0.753948 0.241703
0.260563 0.754253 0.240223
0.299916 0.754391 0.238758
0.338964 0.754559 0.237507
0.376944 0.754925 0.236545
0.415122 0.754833 0.236408
0.457542 0.75172 0.244297
0.50016 0.745602 0.259174
0.540749 0.738384 0.281407
0.57644 0.731365 0.309682
0.60618 0.724559 0.34789
0.62739 0.716762 0.419257
0.641718 0.709529 0.50753
0.650202 0.704204 0.598886
0.655421 0.701778 0.67985
0.666178 0.709728 0.680018
0.677409 0.7178 0.677424
0.688762 0.725811 0.67451
0.700328 0.733654 0.671641
0.712276 0.741512 0.668833
0.724544 0.749294 0.665904
0.736461 0.756542 0.663081
0.748425 0.76379 0.659678
0.760739 0.770733 0.656764
0.772457 0.777615 0.653742
0 0.784222 0.252659
0 0.789914 0.255619
0 0.794644 0.257954
0.00448615 0.797253 0.258213
0.0612955 0.792859 0.252186
0.106432 0.791547 0.249287
0.143481 0.792325 0.248508
0.182696 0.792691 0.247471
0.22356 0.792554 0.245731
0.263569 0.79237 0.244053
0.302953 0.792248 0.24271
0.343847 0.791119 0.242573
0.391363 0.785824 0.249912
0.442329 0.777249 0.264851
0.491936 0.766751 0.286625
0.538827 0.756405 0.31487
0.578637 0.745998 0.355352
0.60914 0.734844 0.430426
0.632013 0.72459 0.52105
0.647898 0.716701 0.614023
0.659037 0.712428 0.694316
0.668269 0.716915 0.718761
0.677867 0.725231 0.717281
0.687587 0.733471 0.715526
0.697749 0.741527 0.713726
0.708354 0.749859 0.711772
0.718791 0.757519 0.709209
0.729335 0.765087 0.706584
0.740276 0.772427 0.703792
0.751186 0.779507 0.70106
0.76199 0.786419 0.698192
0.772747 0.793256 0.694881
0.783627 0.800076 0.692317
0 0.822217 0.257221
0 0.827848 0.260441
0 0.832151 0.262409
0.0109865 0.834424 0.262989
0.0685435 0.829679 0.25658
0.112093 0.828885 0.254383
0.149157 0.829602 0.253941
0.188357 0.829755 0.252659
0.229114 0.82916 0.250645
0.271992 0.827207 0.250492
0.3252 0.819577 0.257588
0.384771 0.808209 0.271901
0.444236 0.794827 0.293172
0.501335 0.780789 0.320821
0.551904 0.767056 0.363699
0.592081 0.752209 0.44181
0.623636 0.73904 0.534783
0.64654 0.728756 0.628733
0.6636 0.722667 0.70837
0.674647 0.723583 0.751522
0.682841 0.731975 0.75169
0.691524 0.740108 0.751507
0.700618 0.748653 0.751369
0.709453 0.756664 0.750225
0.718486 0.764523 0.748745
0.727901 0.772152 0.747143
0.737163 0.779629 0.745129
0.746731 0.786801 0.742962
0.756497 0.79382 0.740597
0.766247 0.8009 0.737957
0.77615 0.807767 0.735744
0.78616 0.81445 0.733364
0.795697 0.820783 0.73019
0 0.859236 0.26363
0 0.864332 0.26656
0 0.868406 0.268666
0.0199893 0.870359 0.269108
0.0788434 0.865003 0.262287
0.120119 0.864561 0.260761
0.15671 0.865125 0.259876
0.200839 0.862715 0.26038
0.260151 0.85304 0.266804
0.327413 0.839094 0.280324
0.39704 0.822431 0.301045
0.465171 0.804883 0.327352
0.526436 0.787335 0.372549
0.576074 0.769146 0.453086
0.616464 0.752941 0.548455
0.646632 0.740124 0.643442
0.669017 0.732555 0.722332
0.683818 0.730816 0.774075
0.691798 0.738354 0.779004
0.699336 0.746593 0.780896
0.707195 0.75494 0.782101
0.715023 0.762875 0.782681
0.722927 0.770672 0.782803
0.730922 0.778286 0.782437
0.738857 0.785733 0.781659
0.747051 0.793057 0.780423
0.755611 0.800229 0.778958
0.764477 0.807385 0.777768
0.773281 0.814313 0.775998
0.78175 0.820859 0.773739
0.790387 0.827237 0.771542
0.799023 0.833509 0.769238
0.80763 0.839521 0.766964
0 0.894682 0.27068
0 0.899413 0.273716
0 0.903136 0.275807
0.0309758 0.904662 0.275822
0.0903792 0.899214 0.268727
0.134752 0.896254 0.269551
0.194995 0.886229 0.27715
0.270848 0.869459 0.28954
0.350896 0.849439 0.309377
0.429435 0.828565 0.33492
0.50164 0.807065 0.381979
0.561761 0.785336 0.464851
0.610697 0.766339 0.562081
0.647608 0.75108 0.657252
0.675029 0.742199 0.735485
0.692775 0.739696 0.785046
0.701885 0.745281 0.798779
0.709117 0.75314 0.802518
0.71635 0.761257 0.805783
0.723369 0.769055 0.808179
0.730282 0.776623 0.81001
0.737163 0.784085 0.811109
0.74435 0.79144 0.81178
0.751583 0.798718 0.812085
0.759136 0.806058 0.812177
0.766766 0.813138 0.811765
0.77409 0.819821 0.810956
0.781628 0.826398 0.809796
0.789319 0.832807 0.808377
0.796963 0.839002 0.806851
0.804685 0.84535 0.805249
0.812177 0.851469 0.803281
0.819959 0.857221 0.801053
0 0.928786 0.278386
0 0.933196 0.281239
0.0103914 0.936767 0.283055
0.0552834 0.933394 0.283848
0.135668 0.917235 0.286259
0.21445 0.899519 0.299794
0.304494 0.875975 0.318318
0.395285 0.851606 0.342885
0.478004 0.826398 0.391791
