OFX Video Plug-Ins/Vfx1.ofx.bundle/Contents/Resources/AutoLooks/20.cube
TITLE "Generated by Resolve"
LUT_3D_SIZE 9
0 0.13875 0.272389
0.116152 0.113436 0.247578
0.244022 0.0898299 0.224308
0.368948 0.0668956 0.20206
0.483436 0.0475471 0.183322
0.583795 0.0335546 0.169711
0.668589 0.0260624 0.162371
0.740719 0.0265202 0.1626
0.807553 0.0345006 0.170199
0 0.179843 0.271962
0.116854 0.154864 0.248661
0.249241 0.133028 0.228977
0.38117 0.113893 0.211612
0.506767 0.101701 0.200153
0.621408 0.0985733 0.196963
0.720821 0.104173 0.201633
0.802243 0.117235 0.212299
0.873579 0.134676 0.226246
0 0.240238 0.265064
0.110201 0.225528 0.248417
0.256153 0.215747 0.236103
0.402228 0.21004 0.227054
0.536995 0.209445 0.222583
0.654887 0.214893 0.222797
0.754192 0.227817 0.228916
0.833494 0.2477 0.239994
0.903517 0.271382 0.253986
0 0.357565 0.255894
0.0929122 0.353643 0.244633
0.244999 0.350896 0.236255
0.396262 0.350042 0.229557
0.535744 0.35433 0.227314
0.657206 0.364096 0.229419
0.759243 0.380697 0.236378
0.840055 0.403937 0.24799
0.910292 0.430014 0.26186
0 0.504326 0.247425
0.0706188 0.507378 0.240711
0.227649 0.50869 0.234318
0.383551 0.510948 0.228931
0.526055 0.517098 0.22739
0.650523 0.528466 0.229908
0.754604 0.545556 0.236576
0.805203 0.569665 0.274311
0.733852 0.605554 0.432837
0 0.664607 0.245136
0.0543374 0.673136 0.243214
0.218387 0.674205 0.236866
0.375708 0.676448 0.231998
0.519326 0.681346 0.229725
0.635691 0.681483 0.27422
0.666224 0.677653 0.481224
0.695277 0.698116 0.589212
0.75227 0.727123 0.576867
0 0.822217 0.257221
0.0685435 0.829679 0.25658
0.229114 0.82916 0.250645
0.444236 0.794827 0.293172
0.623636 0.73904 0.534783
0.682841 0.731975 0.75169
0.718486 0.764523 0.748745
0.756497 0.79382 0.740597
0.795697 0.820783 0.73019
0 0.961654 0.286046
0.258793 0.902495 0.327947
0.60209 0.791775 0.588678
0.719676 0.762966 0.815915
0.748669 0.789822 0.843473
0.773449 0.816907 0.859403
0.796597 0.842496 0.865904
0.820066 0.86659 0.866316
0.844877 0.889342 0.86247
0.58851 0.84033 0.634012
0.718669 0.816205 0.788098
0.764935 0.830137 0.84126
0.798383 0.846845 0.883391
0.822904 0.865415 0.914504
0.842741 0.885283 0.936446
0.860517 0.906004 0.950607
0.877287 0.926513 0.958083
0.894926 0.947143 0.960388
0 0.139315 0.304128
0.117693 0.113909 0.279133
0.245563 0.0903334 0.255558
0.370535 0.0675517 0.232898
0.485359 0.0484932 0.213809
0.586618 0.0352178 0.20061
0.67216 0.0286107 0.19411
0.745464 0.0304723 0.19585
0.813977 0.039826 0.205325
0 0.180514 0.303777
0.118837 0.156069 0.280751
0.252201 0.134508 0.261067
0.386007 0.116609 0.244266
0.513588 0.106233 0.234287
0.629389 0.10428 0.232151
0.728725 0.110887 0.238056
0.809766 0.124666 0.249744
0.881041 0.142367 0.264744
0 0.243565 0.298436
0.116838 0.230442 0.282582
0.265003 0.221866 0.27097
0.411215 0.216876 0.262715
0.545663 0.216754 0.258335
0.663432 0.223056 0.259556
0.762142 0.236423 0.266255
0.841596 0.257038 0.278706
0.911299 0.280873 0.293462
0 0.364706 0.290639
0.102968 0.360906 0.279896
0.255604 0.358846 0.271977
0.406668 0.358557 0.265827
0.545022 0.362844 0.263584
0.666758 0.373724 0.266651
0.768185 0.390768 0.274311
0.848447 0.414237 0.286854
0.918135 0.440406 0.301656
0 0.513542 0.282887
0.083711 0.515892 0.275975
0.239506 0.517555 0.270024
0.394659 0.520195 0.265019
0.53637 0.526787 0.264042
0.660349 0.538491 0.267277
0.762539 0.555703 0.27509
0.773159 0.584466 0.342687
0.752865 0.617197 0.468498
0 0.674586 0.28098
0.0716869 0.681193 0.277821
0.230564 0.683284 0.272618
0.38706 0.685481 0.268223
0.530556 0.689479 0.269688
0.637842 0.683146 0.355489
0.653712 0.681041 0.628244
0.710826 0.711406 0.614786
0.768383 0.739422 0.603174
0 0.831708 0.293721
0.0848402 0.837232 0.291981
0.254154 0.831693 0.292088
0.507317 0.776272 0.383078
0.655268 0.726543 0.695842
0.698222 0.745159 0.775586
0.731182 0.776577 0.773556
0.768048 0.805554 0.766125
0.805737 0.830823 0.75523
0 0.962798 0.330617
0.389776 0.862058 0.419974
0.674739 0.766537 0.74519
0.731563 0.7785 0.822721
0.761517 0.80238 0.855695
0.785336 0.827588 0.875242
0.807279 0.852186 0.884474
0.829221 0.875456 0.885863
0.852781 0.897505 0.882567
0.640894 0.83061 0.717067
0.713924 0.836133 0.781979
0.767193 0.846174 0.838514
0.804227 0.859983 0.884627
0.83125 0.876692 0.920516
0.851942 0.894926 0.946609
0.869032 0.914351 0.963714
0.885725 0.934813 0.97351
0.902922 0.955215 0.977218
0 0.140032 0.331502
0.120684 0.114519 0.306142
0.248981 0.0907301 0.281849
0.373648 0.0681315 0.259007
0.489082 0.0497902 0.240208
0.590524 0.0369421 0.227024
0.67747 0.0317082 0.221332
0.752392 0.0354009 0.225025
0.821805 0.0459144 0.235889
0 0.181704 0.331563
0.122591 0.15729 0.308141
0.257527 0.136202 0.288212
0.392645 0.119753 0.27277
0.522377 0.111101 0.264286
0.638819 0.110582 0.263371
0.737896 0.118059 0.269688
0.818021 0.132357 0.281834
0.889677 0.150835 0.297734
0 0.248386 0.327672
0.125154 0.235966 0.312337
0.275059 0.228321 0.301274
0.421241 0.223972 0.293111
0.555474 0.224399 0.289311
0.672999 0.231693 0.291356
0.770916 0.245792 0.298802
0.84947 0.266636 0.311498
0.919219 0.291341 0.327153
0 0.372717 0.320729
0.113481 0.368902 0.310552
0.267124 0.366857 0.302754
0.417853 0.36759 0.297124
0.555596 0.372473 0.295094
0.676432 0.383536 0.298665
0.776761 0.401266 0.306767
0.856367 0.424811 0.31989
0.912703 0.4542 0.339025
0 0.523095 0.313466
0.0964065 0.525139 0.306905
0.252338 0.527062 0.301106
0.406424 0.530159 0.296742
0.547204 0.536767 0.295781
0.670115 0.548699 0.299062
0.757946 0.567575 0.317617
0.730175 0.599435 0.456031
0.776242 0.627604 0.493751
0 0.685069 0.312581
0.0869917 0.690257 0.308858
0.243793 0.692821 0.303944
0.398795 0.69482 0.299474
0.546349 0.693385 0.316457
0.636988 0.682185 0.488106
0.66807 0.694255 0.651026
0.725719 0.723629 0.637369
0.782925 0.75024 0.626276
0 0.841627 0.325902
0.0999466 0.845441 0.323445
0.309667 0.822278 0.337957
0.564691 0.755245 0.527642
0.680583 0.726864 0.775204
0.711223 0.757107 0.794888
0.74313 0.788113 0.794781
0.778119 0.815625 0.787045
0.815412 0.84036 0.776791
0.0869764 0.942779 0.374014
0.509209 0.820676 0.56939
0.693507 0.775097 0.774197
0.739834 0.792935 0.826429
0.772519 0.814313 0.864591
0.796551 0.837674 0.888334
0.816968 0.861112 0.899458
0.837842 0.88394 0.902434
0.860349 0.905501 0.899123
0.626291 0.853223 0.715572
0.70808 0.854871 0.779004
0.767269 0.86154 0.836515
0.808331 0.872557 0.88539
0.83772 0.886976 0.924346
0.859876 0.904051 0.954177
0.877317 0.922698 0.974746
0.893538 0.942382 0.986603
0.910048 0.962798 0.99147
0 0.140398 0.368917
0.121416 0.114427 0.343404
0.249592 0.0907149 0.319875
0.374899 0.0684825 0.298253
0.49044 0.0503548 0.281239
0.592416 0.0380865 0.270375
0.680766 0.0341039 0.268238
0.757198 0.0393683 0.276631
0.827466 0.050721 0.291585
0 0.182239 0.369131
0.125002 0.158419 0.346563
0.261128 0.138201 0.328481
0.398169 0.122942 0.315038
0.529 0.115343 0.309529
0.645884 0.11603 0.312215
0.744823 0.124041 0.321752
0.824674 0.138674 0.337865
0.895918 0.15761 0.357671
0 0.252766 0.366857
0.132677 0.241352 0.352972
0.283833 0.234226 0.343603
0.429633 0.230381 0.337194
0.563729 0.231434 0.335744
0.680842 0.239002 0.34052
0.778302 0.253788 0.351232
0.856214 0.274708 0.367376
0.925734 0.299306 0.386679
0 0.380056 0.360403
0.122866 0.376455 0.35108
0.277317 0.374685 0.344381
0.427726 0.375708 0.340597
0.56527 0.38114 0.340673
0.685435 0.392477 0.346609
0.784756 0.410239 0.357931
0.863249 0.433646 0.374014
0.880369 0.471214 0.421485
0 0.531991 0.352789
0.107332 0.533806 0.346716
0.264225 0.535912 0.342443
0.417105 0.538949 0.339147
0.557397 0.546014 0.339849
0.679515 0.557885 0.344976
0.736721 0.579095 0.408484
0.731106 0.611078 0.525154
0.803967 0.635752 0.528069
0 0.694575 0.351751
0.0997177 0.699016 0.347951
0.256214 0.701579 0.344396
0.409934 0.703593 0.340841
0.562951 0.691402 0.414649
0.638056 0.682719 0.629068
0.68333 0.707607 0.676722
0.741772 0.735348 0.663096
0.8 0.761151 0.653681
0 0.850385 0.365194
0.113436 0.853056 0.363149
0.386404 0.800671 0.437675
0.621042 0.737469 0.672969
0.697398 0.739193 0.797925
0.725628 0.76965 0.815274
0.755077 0.79939 0.816999
0.788937 0.826291 0.810117
0.824872 0.849638 0.799725
0.215854 0.904128 0.471824
0.609262 0.790097 0.704082
0.688838 0.797147 0.768566
0.74461 0.809918 0.826001
0.781765 0.827298 0.869841
0.807034 0.847929 0.899565
0.826886 0.870268 0.915053
0.846342 0.8925 0.919646
0.868162 0.913756 0.917571
0.595376 0.880125 0.714717
0.690166 0.877195 0.773465
0.759426 0.879713 0.830411
0.80824 0.887587 0.882033
0.842313 0.899321 0.925261
0.866865 0.913939 0.959594
0.885618 0.931472 0.984863
0.901625 0.950515 1
0.91783 0.970703 1
0 0.137789 0.451972
0.115465 0.111879 0.427466
0.243397 0.0881819 0.405173
0.369345 0.066041 0.384298
0.48603 0.0484321 0.368826
0.589532 0.0368658 0.359869
0.679622 0.0339361 0.360769
0.757824 0.0401617 0.37229
0.829267 0.0525978 0.391241
0 0.180133 0.453178
0.121111 0.156527 0.432395
0.258686 0.137514 0.416571
0.398383 0.123751 0.406165
0.530571 0.117052 0.403632
0.648234 0.118334 0.408881
0.747478 0.126635 0.421256
0.827436 0.141421 0.440162
0.899092 0.160845 0.4636
0 0.254231 0.452293
0.13547 0.243885 0.441489
0.286976 0.237201 0.434958
0.433082 0.233539 0.430884
0.567483 0.234989 0.432319
0.684581 0.242878 0.439551
0.782315 0.257939 0.453315
0.860151 0.278965 0.472297
0.929656 0.303655 0.494926
0 0.384222 0.44477
0.128023 0.380804 0.438499
0.282734 0.379263 0.434546
0.432609 0.380072 0.433127
0.57052 0.386114 0.436667
0.690364 0.397604 0.44535
0.789349 0.415198 0.459236
0.864134 0.43946 0.479484
0.87097 0.4813 0.524056
0 0.537881 0.434501
0.114122 0.539483 0.431357
0.270573 0.541405 0.429541
0.423346 0.544442 0.429267
0.563241 0.551583 0.43328
0.679942 0.563714 0.447257
0.701625 0.592035 0.543664
0.767514 0.616419 0.566278
0.837873 0.640543 0.577447
0 0.701289 0.430137
0.107301 0.705058 0.42945
0.263172 0.706859 0.428336
0.425025 0.704372 0.43975
0.581201 0.685832 0.559869
0.646082 0.689982 0.717159
0.69894 0.720562 0.703395
0.760754 0.74667 0.691386
0.819593 0.769787 0.684932
0 0.856641 0.440558
0.152911 0.845838 0.45658
0.476112 0.771832 0.587198
0.663401 0.734188 0.755611
0.710323 0.754772 0.806836
0.740353 0.782177 0.834516
0.767391 0.810864 0.840284
0.79881 0.836469 0.833539
0.835019 0.858763 0.823056
0.378485 0.851957 0.619715
0.569467 0.823285 0.701076
0.668772 0.823911 0.760143
0.739818 0.830457 0.819242
0.787198 0.842649 0.870192
0.816693 0.859449 0.907698
0.837064 0.879622 0.929519
0.855238 0.901076 0.937652
0.875685 0.922164 0.936309
0.543038 0.912291 0.722942
0.654551 0.904372 0.771252
0.739223 0.902052 0.823224
0.800168 0.905226 0.87451
0.842329 0.913741 0.921492
0.871992 0.925826 0.961166
0.89366 0.941146 0.992828
0.910201 0.959075 1
0.925765 0.978927 1
0 0.132921 0.570962
0.104875 0.106996 0.546838
0.232502 0.0835584 0.524468
0.359869 0.061799 0.504265
0.477729 0.0443732 0.488853
0.583459 0.033814 0.481819
0.676234 0.0323644 0.485374
0.755993 0.0394293 0.499809
0.828519 0.0523995 0.521569
0 0.17557 0.573648
0.113222 0.152636 0.553918
0.252293 0.13489 0.53994
0.394995 0.122454 0.531594
0.529046 0.116899 0.531197
0.647761 0.118502 0.538369
0.747311 0.126848 0.552728
0.82797 0.142107 0.574304
0.89984 0.161547 0.599847
0 0.25333 0.576562
0.13463 0.2439 0.567788
0.286351 0.237446 0.562661
0.433112 0.234195 0.560433
0.568383 0.236194 0.563424
0.686046 0.244297 0.572366
0.783505 0.258976 0.587518
0.862181 0.280766 0.609216
0.931807 0.305547 0.633707
0 0.385428 0.569467
0.129366 0.382223 0.564813
0.284596 0.381277 0.562875
0.434669 0.382315 0.562951
0.572473 0.388205 0.568002
0.692561 0.399725 0.578225
0.791623 0.417365 0.593927
0.847669 0.448096 0.61445
0.910613 0.475578 0.638224
0 0.540566 0.558495
0.11722 0.542351 0.557031
0.273457 0.544228 0.556954
0.426047 0.547265 0.558175
0.565591 0.554086 0.563134
0.665736 0.570153 0.587915
0.732799 0.594491 0.618799
0.812451 0.615488 0.634821
0.876554 0.639261 0.654398
0 0.704555 0.552483
0.110582 0.708202 0.553353
0.265888 0.709606 0.55378
0.454276 0.696361 0.58349
0.605188 0.68455 0.680964
0.661158 0.704341 0.745281
0.717494 0.732982 0.731868
0.783749 0.755215 0.723537
0.844694 0.775845 0.724865
0 0.859403 0.560891
0.23772 0.819806 0.599145
0.532906 0.761746 0.689372
0.642405 0.764141 0.744976
0.715068 0.774762 0.805264
0.754208 0.795331 0.848798
0.779202 0.821866 0.862669
0.80914 0.846632 0.857282
0.845914 0.867292 0.846769
0.354421 0.870741 0.684245
0.501289 0.86183 0.716823
0.623652 0.856504 0.759762
0.717021 0.856062 0.810437
0.782269 0.861158 0.863081
0.822507 0.872709 0.909163
0.846738 0.889632 0.940948
0.864286 0.909789 0.954925
0.883497 0.930541 0.955581
0.467155 0.948989 0.750378
0.596094 0.93666 0.782589
0.699535 0.929 0.821622
0.778134 0.927306 0.866773
0.833051 0.931243 0.912886
0.871977 0.939941 0.957137
0.899031 0.952316 0.995468
0.918654 0.968429 1
0.934081 0.987411 1
0 0.126314 0.711254
0.091371 0.100877 0.68751
0.219394 0.0779583 0.66511
0.347875 0.0563211 0.644388
0.467658 0.0392462 0.629084
0.576028 0.0298009 0.62295
0.671702 0.0298161 0.628473
0.753246 0.0379034 0.644266
0.826612 0.0513771 0.667002
0 0.169802 0.71635
0.103807 0.148119 0.697765
0.244877 0.131731 0.684871
0.389425 0.120333 0.677668
0.525734 0.115541 0.678126
0.645518 0.117464 0.685878
0.745876 0.12607 0.700862
0.82742 0.141955 0.722942
0.900008 0.161715 0.74876
0 0.251133 0.724498
0.131777 0.242496 0.71696
0.283757 0.236439 0.712139
0.431861 0.233631 0.710521
0.567285 0.235904 0.713558
0.686061 0.244587 0.723079
0.784192 0.259464 0.738705
0.863066 0.281163 0.760281
0.933135 0.306325 0.784619
0 0.384909 0.718898
0.128664 0.382361 0.715007
0.283925 0.38146 0.71339
0.434791 0.383139 0.714321
0.573007 0.389212 0.71957
0.693645 0.400732 0.730144
0.792569 0.418112 0.745708
0.871 0.441505 0.766445
0.937041 0.468223 0.788098
0 0.541009 0.707881
0.118379 0.543343 0.707851
0.273793 0.545296 0.707942
0.426749 0.548486 0.709758
0.566369 0.555154 0.714961
0.687266 0.565896 0.724285
0.783093 0.583429 0.737469
0.855268 0.606607 0.755474
0.915404 0.631067 0.775082
0 0.705425 0.701335
0.111513 0.709239 0.703471
0.273411 0.708522 0.703822
0.472648 0.695994 0.709163
0.606058 0.699702 0.732174
0.675929 0.718578 0.773678
0.744656 0.740185 0.764645
0.817868 0.757382 0.772274
0.877531 0.77499 0.785412
0 0.856367 0.711589
0.283635 0.81059 0.721538
0.435691 0.806348 0.733898
0.573083 0.803998 0.757168
0.685771 0.804776 0.796597
0.760067 0.812528 0.849439
0.791348 0.832654 0.883085
0.818769 0.856275 0.87982
0.859281 0.874769 0.87071
0.249851 0.913283 0.75877
0.404791 0.90338 0.770474
0.544244 0.894316 0.788968
0.661997 0.888228 0.816983
0.753811 0.886442 0.855619
0.816526 0.890578 0.901686
0.853346 0.901488 0.944564
0.873793 0.918669 0.970703
0.891157 0.93901 0.97525
0.368124 0.987442 0.806439
0.510262 0.972976 0.819867
0.633066 0.961501 0.840284
0.732387 0.954803 0.869154
0.807553 0.953689 0.90576
0.860761 0.957824 0.947631
0.898848 0.966461 0.99089
0.925063 0.979141 1
0.938201 1 1
0 0.120104 0.846876
0.0781415 0.0953231 0.822934
0.206394 0.0727855 0.800229
0.337148 0.0515908 0.779248
0.459159 0.0352789 0.763653
0.57026 0.0269474 0.757641
0.66807 0.0280308 0.763165
0.751995 0.0372473 0.778119
0.826246 0.0514534 0.798932
0 0.164279 0.853635
0.0950637 0.144274 0.835966
0.238605 0.129656 0.823774
0.385702 0.119127 0.816587
0.523217 0.115129 0.816327
0.644297 0.117357 0.822873
0.745708 0.126558 0.836225
0.828168 0.142962 0.856138
0.901534 0.1635 0.880125
0 0.249668 0.867338
0.129702 0.241764 0.859571
0.282445 0.236225 0.853956
0.431067 0.234073 0.851438
0.567391 0.236805 0.853452
0.686915 0.245869 0.861479
0.786114 0.26125 0.875135
0.865385 0.283375 0.894636
0.935744 0.308644 0.916854
0 0.384573 0.864897
0.129046 0.382849 0.860655
0.283955 0.382315 0.857832
0.435706 0.384405 0.85771
0.574624 0.390936 0.861723
0.695293 0.402411 0.870146
0.794995 0.420157 0.884047
0.87364 0.44361 0.90251
0.941756 0.4692 0.922713
0 0.541802 0.85658
0.119203 0.544137 0.855421
0.274815 0.546532 0.854536
0.428122 0.549981 0.855039
0.567926 0.556725 0.85861
0.688975 0.567346 0.865965
0.788602 0.583291 0.877775
0.866285 0.603922 0.893645
0.932326 0.626139 0.910872
0 0.706386 0.851591
0.111833 0.709819 0.852338
0.269764 0.710658 0.850126
0.418997 0.712749 0.851041
0.557641 0.716136 0.852735
0.677363 0.722637 0.857496
0.776593 0.733669 0.866148
0.853071 0.74844 0.878523
0.912779 0.76553 0.891188
0.0222019 0.847364 0.852369
0.185077 0.843381 0.84889
0.334554 0.841382 0.84799
0.474342 0.84033 0.848402
0.600092 0.840269 0.851316
0.7093 0.842313 0.860075
0.796445 0.84686 0.888365
0.830198 0.864836 0.901564
0.880644 0.877455 0.90103
0.150134 0.947646 0.86891
0.298451 0.940352 0.868101
0.441779 0.931868 0.867567
0.572259 0.923995 0.870726
0.685084 0.918318 0.880247
0.777005 0.916335 0.900862
0.843168 0.919493 0.936324
0.881498 0.929183 0.977905
0.899199 0.947524 0.99501
0.259464 1 0.893126
0.404517 1 0.890761
0.538338 0.997192 0.892515
0.656123 0.987213 0.900816
0.753323 0.981872 0.91725
0.82771 0.981582 0.944106
0.88307 0.985809 0.981262
0.924071 0.993759 1
0.935592 1 1
0 0.115496 0.955489
0.0675975 0.0917372 0.931533
0.196963 0.0696422 0.9084
0.329458 0.0486458 0.886549
0.45388 0.0334478 0.871427
0.56791 0.0267491 0.866194
0.667887 0.0287633 0.871794
0.75314 0.0386969 0.886702
0.827924 0.0534524 0.907378
0 0.160906 0.964218
0.0895399 0.142611 0.947402
0.235569 0.129595 0.936217
0.385138 0.120241 0.928939
0.523705 0.116793 0.928298
0.64538 0.119432 0.934218
0.747646 0.129198 0.947188
0.830732 0.145892 0.967254
0.904463 0.166995 0.991806
0 0.250126 0.984237
0.130388 0.242832 0.976226
0.283955 0.237995 0.970214
0.433204 0.236454 0.967529
0.570016 0.239658 0.968872
0.689632 0.2486 0.975906
0.789685 0.264851 0.989731
0.869078 0.287297 1
0.939193 0.312718 1
0 0.386389 0.984466
0.131701 0.385412 0.980026
0.287404 0.38526 0.976776
0.439109 0.38764 0.97583
0.578058 0.394293 0.978866
0.698817 0.406043 0.986847
0.799039 0.424002 0.999802
0.87744 0.447395 1
0.945357 0.472709 1
0 0.54464 0.978882
0.122896 0.547341 0.976822
0.278859 0.549889 0.975311
0.4318 0.553277 0.974624
0.57113 0.559731 0.976837
0.692073 0.570535 0.983291
0.791974 0.586267 0.993973
0.869215 0.606638 1
0.934585 0.628229 1
0 0.709224 0.975433
0.115267 0.712795 0.975174
0.269657 0.714168 0.973236
0.421347 0.715053 0.971313
0.559533 0.718105 0.971206
0.679301 0.724575 0.974456
0.778393 0.735103 0.981796
0.854124 0.749065 0.992447
0.917021 0.764309 1
0 0.8589 0.979187
0.136034 0.859083 0.978393
0.281559 0.857877 0.97673
0.42414 0.855299 0.973922
0.555459 0.853132 0.971817
0.671687 0.852888 0.970764
0.767773 0.855497 0.97293
0.841596 0.861982 0.978958
0.902541 0.870756 0.987442
0.0614786 0.974945 0.993515
0.211078 0.967224 0.98674
0.351568 0.959411 0.979385
0.482444 0.95172 0.972473
0.600839 0.945556 0.967117
0.703334 0.942596 0.965408
0.788144 0.943679 0.968292
0.855695 0.948287 0.978882
0.907912 0.956603 1
0.162585 1 0.996979
0.300404 1 0.988098
0.435309 1 0.979232
0.560418 1 0.972747
0.671138 1 0.971054
0.764843 1 0.976455
0.838254 1 0.99118
0.898283 1 1
0.925658 1 1
