OFX Video Plug-Ins/Vfx1.ofx.bundle/Contents/Resources/AutoLooks/21.cube
LUT_3D_SIZE 16
-0.020435 0.070201 0.042796
-0.026720 0.080716 0.049975
-0.030416 0.117754 0.072848
0.059850 0.166180 0.102493
0.158397 0.185446 0.111835
0.247817 0.181849 0.144752
0.345129 0.224748 0.186877
0.438926 0.265665 0.228516
0.500356 0.300642 0.265918
0.553215 0.330624 0.301240
0.625217 0.360604 0.338996
0.732243 0.393790 0.381149
0.883914 0.433753 0.429672
0.947169 0.454907 0.456419
0.964869 0.455798 0.455956
1.009375 0.464024 0.464169
-0.011954 0.082452 0.058003
-0.012489 0.072558 0.054561
-0.031295 0.120218 0.074300
0.057250 0.168669 0.102162
0.157358 0.188357 0.109607
0.248594 0.185405 0.144523
0.345666 0.227352 0.186931
0.439315 0.267809 0.228616
0.500670 0.302444 0.265996
0.553542 0.332122 0.301369
0.625374 0.361763 0.339124
0.732362 0.394785 0.381276
0.884008 0.434502 0.429760
0.947163 0.455598 0.456524
0.964981 0.456361 0.456053
1.009430 0.464535 0.464254
-0.043461 0.135293 0.077478
-0.043025 0.133894 0.076708
-0.037063 0.123756 0.074464
-0.033125 0.187637 0.092141
0.144222 0.215256 0.080720
0.254818 0.216288 0.132918
0.350534 0.251917 0.185551
0.443094 0.288418 0.228937
0.503725 0.319564 0.266595
0.556012 0.346348 0.302115
0.627232 0.373570 0.339991
0.733708 0.404589 0.382249
0.884879 0.442474 0.430704
0.947844 0.462595 0.457501
0.965543 0.462418 0.456792
1.010101 0.469886 0.464858
-0.086151 0.208622 0.079903
-0.085655 0.208579 0.079646
-0.078568 0.206815 0.074739
-0.064874 0.198893 0.077357
0.111922 0.251905 -0.067857
0.254527 0.264565 -0.036323
0.358058 0.290346 0.171279
0.449539 0.321455 0.225793
0.509344 0.348345 0.265558
0.560663 0.371408 0.302240
0.630918 0.395321 0.341138
0.736346 0.423404 0.383930
0.886795 0.458489 0.432642
0.949541 0.476520 0.459218
0.967091 0.474693 0.458263
1.011540 0.480903 0.466125
-0.139027 0.286825 -0.084037
-0.138442 0.286812 -0.084495
-0.130693 0.286778 -0.089854
-0.108115 0.284858 -0.098986
-0.048944 0.277609 -0.102555
0.236157 0.313035 -0.138919
0.362222 0.333748 0.113604
0.456865 0.359641 0.211429
0.516152 0.383636 0.259586
0.567164 0.403842 0.299671
0.636624 0.425062 0.341338
0.740859 0.450315 0.386099
0.890117 0.482231 0.435417
0.952307 0.497813 0.461724
0.969451 0.493501 0.460482
1.013895 0.497775 0.467970
-0.195630 0.361727 -0.172905
-0.195015 0.361720 -0.173179
-0.187520 0.361723 -0.176184
-0.162645 0.361339 -0.182186
-0.059854 0.358012 -0.186510
0.195775 0.348086 -0.180150
0.356176 0.376785 -0.135975
0.463052 0.401039 0.166306
0.524050 0.423782 0.238457
0.574930 0.442995 0.290463
0.644291 0.462638 0.338730
0.747299 0.485821 0.387708
0.894990 0.514680 0.438664
0.956527 0.527399 0.464921
0.973119 0.519239 0.463211
1.017444 0.520878 0.470279
-0.236647 0.433139 -0.209887
-0.236054 0.433126 -0.210187
-0.228156 0.433138 -0.213620
-0.202118 0.432782 -0.220259
-0.104694 0.431013 -0.226791
0.238020 0.424868 -0.224995
0.330361 0.412912 -0.204966
0.462254 0.445766 -0.098048
0.529948 0.472098 0.178848
0.583931 0.491794 0.257072
0.653784 0.510897 0.327294
0.756465 0.531881 0.385949
0.902217 0.557124 0.441410
0.962707 0.566310 0.468167
0.978506 0.553257 0.466178
1.022682 0.551460 0.472752
-0.286330 0.518266 -0.255973
-0.285683 0.518288 -0.256333
-0.277205 0.518300 -0.260222
-0.250002 0.518000 -0.267170
-0.164345 0.516365 -0.274682
0.246187 0.511906 -0.274533
0.372863 0.503317 -0.260130
0.447146 0.491068 -0.222448
0.527528 0.531064 -0.159620
0.587690 0.554195 0.153680
0.664003 0.570737 0.281431
0.767342 0.588125 0.374479
0.911822 0.608562 0.441206
0.971290 0.613530 0.469868
0.985878 0.595237 0.468293
1.029990 0.589490 0.474497
-0.345454 0.619864 -0.310705
-0.344758 0.619868 -0.311035
-0.336215 0.619890 -0.315169
-0.310176 0.619698 -0.322106
-0.241307 0.618501 -0.330578
0.188054 0.615174 -0.333552
0.364073 0.609781 -0.326631
0.453519 0.602139 -0.312034
0.509164 0.593536 -0.285495
0.578416 0.625476 -0.243488
0.666309 0.640451 0.132703
0.779105 0.651727 0.330724
0.922831 0.666501 0.434482
0.981557 0.667270 0.467409
0.995033 0.643731 0.467527
1.039470 0.633971 0.473855
-0.402293 0.719126 -0.362299
-0.401615 0.719134 -0.362699
-0.393290 0.719181 -0.366941
-0.369415 0.718984 -0.373960
-0.313888 0.718214 -0.383063
-0.164374 0.715743 -0.388874
0.306697 0.711873 -0.388191
0.415976 0.707664 -0.382091
0.486499 0.701685 -0.373727
0.551767 0.696097 -0.350475
0.654957 0.714952 -0.285964
0.784486 0.720399 0.224771
0.934597 0.727503 0.411531
0.992387 0.724034 0.457790
1.005289 0.696558 0.461293
1.050565 0.682974 0.468678
-0.453051 0.808655 -0.407804
-0.452355 0.808661 -0.408157
-0.444343 0.808702 -0.412383
-0.422603 0.808612 -0.419589
-0.376017 0.808014 -0.428716
-0.279619 0.806201 -0.436215
0.176335 0.803415 -0.438853
0.346705 0.800515 -0.437460
0.438598 0.797264 -0.433350
0.524251 0.791249 -0.425879
0.628132 0.786935 -0.394389
0.780560 0.790902 -0.246244
0.945490 0.789999 0.354801
1.003851 0.782480 0.429796
1.017018 0.750941 0.444883
1.062317 0.734138 0.456043
-0.498033 0.889212 -0.447429
-0.497388 0.889220 -0.447821
-0.489743 0.889269 -0.451888
-0.470063 0.889172 -0.459137
-0.430301 0.888841 -0.468019
-0.358628 0.887616 -0.476540
-0.234465 0.885613 -0.480938
0.219229 0.883400 -0.482239
0.364529 0.880895 -0.481168
0.478177 0.876935 -0.476564
0.603309 0.869341 -0.463810
0.766167 0.864152 -0.399369
0.951742 0.855529 0.233699
1.015025 0.842404 0.369996
1.029523 0.806672 0.404871
1.075752 0.786784 0.424765
-0.536586 0.959182 -0.481190
-0.535923 0.959189 -0.481539
-0.528807 0.959114 -0.485430
-0.511303 0.959200 -0.492560
-0.477231 0.958799 -0.500919
-0.421132 0.957969 -0.509676
-0.341367 0.956561 -0.515359
-0.224761 0.954869 -0.518124
0.238695 0.952851 -0.519228
0.408144 0.949847 -0.517825
0.560498 0.944083 -0.509242
0.730035 0.933278 -0.480163
0.962752 0.927507 -0.255793
1.022833 0.906226 0.247461
1.039299 0.863798 0.329718
1.088369 0.840335 0.364088
-0.565632 1.012322 -0.506588
-0.565031 1.012325 -0.506897
-0.558641 1.012355 -0.510454
-0.543410 1.012357 -0.517271
-0.514409 1.012133 -0.524952
-0.469334 1.011527 -0.533418
-0.410038 1.010479 -0.539918
-0.336492 1.009122 -0.543722
-0.211012 1.007423 -0.546120
0.296407 1.004857 -0.547096
0.486271 1.000191 -0.543765
0.668329 0.992429 -0.525867
0.880933 0.977968 -0.453094
1.033541 0.982692 -0.295234
1.046600 0.926057 0.123380
1.097033 0.896136 0.250390
-0.577973 1.038085 -0.516553
-0.577514 1.038087 -0.516789
-0.571947 1.038114 -0.519860
-0.559408 1.038142 -0.526250
-0.535286 1.038006 -0.533078
-0.498561 1.037581 -0.541012
-0.450346 1.036821 -0.547953
-0.393658 1.035755 -0.552645
-0.317110 1.034440 -0.555652
-0.139734 1.032585 -0.557800
0.362934 1.029491 -0.558266
0.549827 1.023735 -0.552141
0.740987 1.012867 -0.524610
0.960478 0.998550 -0.402915
1.056649 1.003731 -0.362677
1.103713 0.954700 -0.236163
-0.671977 1.207823 -0.608427
-0.671380 1.207798 -0.609088
-0.667017 1.207805 -0.613091
-0.657844 1.207840 -0.620514
-0.642012 1.207850 -0.628528
-0.620544 1.207746 -0.636854
-0.595843 1.207184 -0.644687
-0.569328 1.206087 -0.651451
-0.538349 1.204680 -0.657344
-0.495752 1.202569 -0.662341
-0.424997 1.199769 -0.666550
-0.248900 1.195485 -0.667965
0.459762 1.187804 -0.658451
0.760822 1.172388 -0.606114
0.956040 1.157554 -0.474942
1.085929 1.155014 -0.452745
-0.266836 -0.596716 -0.277260
-0.268285 -0.596636 -0.277105
-0.267716 -0.594991 -0.272407
-0.259286 -0.591361 -0.262033
-0.231054 -0.588610 -0.253222
-0.249215 -0.581255 -0.295488
0.050213 -0.573738 -0.276218
0.340334 -0.562188 -0.247281
0.431120 -0.548072 -0.208289
0.500709 -0.532002 -0.132555
0.594383 -0.511457 0.186592
0.727811 -0.482626 0.293317
0.899894 -0.440201 0.377760
0.936213 -0.417094 0.410245
0.948014 -0.417352 0.408843
0.988521 -0.408902 0.417886
-0.001987 0.081629 0.059342
-0.011189 0.074740 0.056772
-0.017372 0.110852 0.075262
0.066146 0.161179 0.104663
0.160355 0.179110 0.116052
0.246182 0.174497 0.144312
0.343951 0.218676 0.185887
0.438104 0.260659 0.227440
0.499718 0.296603 0.264935
0.552803 0.327369 0.300374
0.624821 0.357957 0.338217
0.731958 0.391694 0.380541
0.883690 0.432077 0.429105
0.947020 0.453503 0.455938
0.964746 0.454502 0.455550
1.009304 0.462852 0.463818
-0.040110 0.135222 0.082937
-0.044528 0.133530 0.077533
-0.037494 0.126019 0.075763
-0.022683 0.184963 0.095562
0.146560 0.210778 0.088792
0.253639 0.210440 0.137544
0.349402 0.246991 0.186543
0.442191 0.284153 0.229269
0.503034 0.315939 0.266800
0.555370 0.343229 0.302256
0.626790 0.371003 0.340089
0.733384 0.402454 0.382234
0.884589 0.440695 0.430704
0.947655 0.461062 0.457533
0.965414 0.461135 0.456876
1.009932 0.468733 0.464978
-0.083801 0.208341 0.090296
-0.087475 0.208393 0.080490
-0.079437 0.206805 0.077563
-0.064893 0.199895 0.078153
0.113683 0.250029 -0.062512
0.254862 0.261279 0.042239
0.357435 0.287372 0.173853
0.448933 0.318665 0.226623
0.508779 0.345793 0.266064
0.560193 0.369046 0.302596
0.630549 0.393182 0.341323
0.736113 0.421499 0.384038
0.886557 0.456845 0.432637
0.949375 0.475155 0.459301
0.966875 0.473459 0.458367
1.011375 0.479837 0.466221
-0.137243 0.286575 -0.068801
-0.140365 0.286627 -0.083749
-0.132122 0.286632 -0.087152
-0.109664 0.284784 -0.097066
-0.047533 0.278042 -0.102129
0.236602 0.311794 -0.136882
0.362108 0.332078 0.118363
0.456425 0.357903 0.212963
0.515811 0.381818 0.260374
0.566774 0.402080 0.300218
0.636257 0.423385 0.341692
0.740464 0.448802 0.386148
0.889812 0.480855 0.435514
0.952127 0.496538 0.461845
0.969317 0.492398 0.460598
1.013726 0.496775 0.468117
-0.194327 0.361503 -0.165563
-0.196920 0.361669 -0.173012
-0.189176 0.361579 -0.174859
-0.165138 0.361258 -0.181139
-0.068523 0.358031 -0.185945
0.196148 0.348304 -0.179864
0.356333 0.376025 -0.133698
0.462871 0.400016 0.168455
0.523842 0.422506 0.239915
0.574623 0.441610 0.291362
0.643917 0.461214 0.339197
0.747324 0.484477 0.387944
0.894646 0.513324 0.438776
0.956319 0.526143 0.465025
0.972983 0.518154 0.463372
1.017274 0.519978 0.470434
-0.235301 0.432860 -0.202636
-0.238089 0.433041 -0.210060
-0.230099 0.433086 -0.212400
-0.205109 0.432790 -0.219222
-0.112846 0.431009 -0.226248
0.235654 0.424917 -0.224792
0.330542 0.413008 -0.204689
0.462304 0.445237 -0.094669
0.529862 0.471159 0.181173
0.583717 0.490640 0.258666
0.653453 0.509673 0.328158
0.756294 0.530611 0.386449
0.901883 0.555869 0.441536
0.962629 0.565169 0.468354
0.978344 0.552253 0.466390
1.022480 0.550493 0.472931
-0.284991 0.518067 -0.248993
-0.287885 0.518171 -0.256104
-0.279280 0.518170 -0.258861
-0.253227 0.517950 -0.266086
-0.171225 0.516408 -0.274096
0.241817 0.512051 -0.274436
0.371689 0.503381 -0.260072
0.447205 0.491228 -0.222256
0.527498 0.530497 -0.157517
0.587687 0.553246 0.157703
0.663845 0.569693 0.282982
0.767281 0.587121 0.375291
0.911439 0.607540 0.441451
0.971095 0.612554 0.470107
0.985650 0.594422 0.468540
1.029799 0.588664 0.474726
-0.344151 0.619671 -0.304220
-0.347064 0.619821 -0.310699
-0.338261 0.619833 -0.313770
-0.313233 0.619666 -0.321002
-0.246580 0.618571 -0.329910
0.178975 0.615234 -0.333297
0.362034 0.609811 -0.326540
0.452983 0.602142 -0.311867
0.509175 0.593676 -0.285394
0.578497 0.625034 -0.242234
0.666297 0.639881 0.136803
0.779146 0.650885 0.332169
0.922516 0.665735 0.434815
0.981425 0.666319 0.467763
0.994957 0.642974 0.467818
1.039276 0.633236 0.474162
-0.401071 0.718920 -0.356241
-0.403967 0.719115 -0.362302
-0.395292 0.719117 -0.365549
-0.372274 0.718982 -0.372912
-0.317945 0.718311 -0.382404
-0.173584 0.715834 -0.388504
0.303333 0.711941 -0.388058
0.414928 0.707737 -0.381971
0.486072 0.701792 -0.373588
0.551756 0.696157 -0.350313
0.655011 0.714470 -0.284866
0.784728 0.719677 0.227547
0.934416 0.726896 0.412223
0.992421 0.723482 0.458219
1.005140 0.695961 0.461707
1.050378 0.682364 0.469038
-0.451862 0.808454 -0.402128
-0.454678 0.808622 -0.407716
-0.446204 0.808631 -0.410972
-0.425146 0.808555 -0.418541
-0.379235 0.808009 -0.427928
-0.284273 0.806248 -0.435748
0.168220 0.803441 -0.438548
0.345159 0.800504 -0.437224
0.437681 0.797258 -0.433139
0.523816 0.791261 -0.425728
0.628176 0.787028 -0.394179
0.780659 0.790660 -0.244743
0.945294 0.789781 0.355413
1.003722 0.781884 0.430545
1.016902 0.750438 0.445408
1.062169 0.733860 0.456527
-0.496887 0.889066 -0.442140
-0.499598 0.889151 -0.447290
-0.491484 0.889162 -0.450551
-0.472363 0.889161 -0.458091
-0.432980 0.888813 -0.467173
-0.361905 0.887573 -0.475960
-0.238703 0.885577 -0.480542
0.215423 0.883461 -0.481923
0.363231 0.880954 -0.480906
0.477165 0.876925 -0.476363
0.602689 0.869346 -0.463648
0.766526 0.864178 -0.398865
0.951859 0.855459 0.234839
1.014979 0.842187 0.370792
1.029437 0.806226 0.405644
1.075671 0.786338 0.425415
-0.535517 0.958956 -0.476337
-0.538085 0.959155 -0.481011
-0.530472 0.959158 -0.484167
-0.513403 0.959149 -0.491629
-0.479545 0.958896 -0.500128
-0.423652 0.958106 -0.509084
-0.343770 0.956678 -0.514974
-0.227906 0.954977 -0.517813
0.235426 0.952977 -0.519002
0.406490 0.949910 -0.517662
0.559620 0.944073 -0.509062
0.729644 0.933468 -0.480127
0.962925 0.927598 -0.254990
1.022825 0.905994 0.249180
1.039270 0.863643 0.330578
1.088280 0.839997 0.365055
-0.564712 1.012181 -0.502310
-0.566928 1.012303 -0.506329
-0.560005 1.012309 -0.509271
-0.545152 1.012328 -0.516411
-0.516254 1.012114 -0.524135
-0.471256 1.011523 -0.532778
-0.411743 1.010479 -0.539474
-0.338194 1.009121 -0.543380
-0.214107 1.007423 -0.545756
0.294259 1.004859 -0.546783
0.484918 1.000209 -0.543565
0.667294 0.992467 -0.525771
0.880619 0.978017 -0.453058
1.033596 0.982684 -0.294864
1.046607 0.926075 0.125881
1.097105 0.896005 0.251752
-0.577170 1.037985 -0.512904
-0.579132 1.038090 -0.516398
-0.573200 1.038097 -0.518798
-0.560700 1.038131 -0.525284
-0.536850 1.038010 -0.532339
-0.500106 1.037595 -0.540449
-0.451770 1.036841 -0.547540
-0.394913 1.035775 -0.552341
-0.318604 1.034461 -0.555360
-0.144209 1.032608 -0.557553
0.361335 1.029507 -0.558013
0.549136 1.023767 -0.551982
0.740022 1.012921 -0.524641
0.959882 0.998648 -0.403352
1.056697 1.003762 -0.362312
1.103708 0.954616 -0.234975
-0.671374 1.207606 -0.605806
-0.672736 1.207771 -0.608938
-0.668132 1.207812 -0.612529
-0.659073 1.207827 -0.620264
-0.643326 1.207871 -0.628877
-0.621789 1.207796 -0.637839
-0.596931 1.207176 -0.646101
-0.570222 1.206149 -0.653252
-0.539033 1.204731 -0.659234
-0.496502 1.202614 -0.664427
-0.426313 1.199816 -0.668669
-0.250969 1.195517 -0.669934
0.458350 1.187847 -0.660466
0.759783 1.172408 -0.608327
0.955818 1.157597 -0.477679
1.085943 1.155042 -0.455133
-0.264558 -0.595641 -0.272429
-0.264916 -0.595443 -0.271658
-0.267008 -0.595017 -0.270718
-0.258290 -0.591293 -0.257582
-0.229918 -0.588569 -0.245248
-0.248376 -0.581180 -0.287137
0.061143 -0.573618 -0.265143
0.336611 -0.561441 -0.236773
0.429470 -0.547509 -0.186608
0.500085 -0.531603 -0.052445
0.594161 -0.511097 0.224353
0.727550 -0.482160 0.315304
0.899780 -0.439533 0.393173
0.936015 -0.416492 0.423094
0.947751 -0.416839 0.420317
0.988184 -0.408358 0.428169
0.024015 0.118520 0.093470
0.039071 0.100829 0.089534
0.038628 0.109881 0.090875
0.079884 0.163054 0.128496
0.157190 0.185001 0.143533
0.245979 0.183046 0.169455
0.343686 0.226171 0.208448
0.437569 0.266972 0.248884
0.498944 0.301843 0.285666
0.551970 0.331738 0.319811
0.624026 0.361450 0.355610
0.731488 0.394415 0.395385
0.883343 0.433890 0.441093
0.946739 0.455119 0.466335
0.964552 0.455871 0.464627
1.009118 0.464052 0.471896
-0.027227 0.130752 0.093050
-0.029650 0.130529 0.093826
-0.022159 0.129094 0.093379
0.062426 0.171095 0.116189
0.154134 0.187480 0.119866
0.244817 0.178869 0.148424
0.342691 0.219684 0.188050
0.437320 0.260575 0.228767
0.499226 0.296337 0.266033
0.552316 0.327214 0.301503
0.624418 0.357995 0.339502
0.731607 0.392031 0.382012
0.883599 0.432624 0.430751
0.947135 0.454256 0.457774
0.964811 0.455412 0.457514
1.009305 0.463845 0.465798
-0.076002 0.207359 0.116260
-0.077772 0.207381 0.114580
-0.079649 0.205822 0.099400
-0.059862 0.202719 0.098377
0.117380 0.242929 0.059994
0.254191 0.248227 0.108561
0.353778 0.275498 0.186129
0.445941 0.307524 0.232424
0.506239 0.335634 0.270586
0.557907 0.360081 0.306401
0.628716 0.385403 0.344516
0.734776 0.414799 0.386732
0.885636 0.451294 0.434988
0.948668 0.470466 0.461584
0.966240 0.469628 0.460772
1.010668 0.476536 0.468664
-0.131721 0.285521 0.087181
-0.132982 0.285745 0.080899
-0.135754 0.284377 -0.062246
-0.112294 0.283254 -0.071703
-0.045744 0.278420 -0.086842
0.236346 0.306546 -0.122199
0.360629 0.325465 0.140549
0.454416 0.351223 0.221878
0.514084 0.375012 0.266183
0.565072 0.395531 0.304978
0.634621 0.417235 0.345437
0.739267 0.443179 0.389120
0.888934 0.475970 0.437931
0.951320 0.492321 0.464262
0.968572 0.488843 0.463077
1.013009 0.493740 0.470596
-0.190485 0.360601 -0.133760
-0.191409 0.360827 -0.137752
-0.194513 0.359662 -0.166944
-0.172120 0.359688 -0.170536
-0.092213 0.356911 -0.178391
0.194985 0.348039 -0.174023
0.355505 0.372916 -0.118929
0.461854 0.395730 0.182014
0.522507 0.417660 0.248733
0.573019 0.436461 0.297520
0.642370 0.456006 0.343627
0.745834 0.479524 0.391331
0.893746 0.508864 0.441386
0.955452 0.522141 0.467624
0.972143 0.514902 0.465933
1.016513 0.517099 0.473017
-0.231642 0.432017 -0.172605
-0.232477 0.432177 -0.176112
-0.236912 0.431780 -0.206406
-0.213954 0.431758 -0.210150
-0.137992 0.430444 -0.219930
0.225151 0.424392 -0.220372
0.330101 0.412766 -0.199943
0.461836 0.442853 -0.065193
0.529305 0.467561 0.195147
0.582634 0.486305 0.268291
0.652082 0.505064 0.334383
0.754990 0.526159 0.390505
0.900933 0.551841 0.444540
0.961732 0.561425 0.471090
0.977487 0.549116 0.469104
1.021680 0.547792 0.475627
-0.281504 0.517183 -0.220485
-0.282266 0.517313 -0.223813
-0.287146 0.517132 -0.253396
-0.263357 0.517149 -0.257793
-0.193704 0.515989 -0.268234
0.223759 0.511762 -0.270520
0.366516 0.502943 -0.256829
0.447117 0.491147 -0.217738
0.527542 0.528271 -0.141612
0.587334 0.549911 0.178427
0.663039 0.566093 0.292609
0.766205 0.583395 0.380737
0.910592 0.604046 0.444897
0.970340 0.609408 0.473209
0.984860 0.591521 0.471487
1.028980 0.586105 0.477644
-0.340990 0.618903 -0.278310
-0.341706 0.619037 -0.281362
-0.346636 0.619018 -0.308593
-0.323274 0.619033 -0.313396
-0.264062 0.618279 -0.324046
0.134693 0.615142 -0.329385
0.353451 0.609571 -0.323544
0.450415 0.601769 -0.308672
0.509128 0.593741 -0.281604
0.578552 0.623269 -0.233058
0.666098 0.637109 0.165240
0.778539 0.648043 0.340252
0.921874 0.663018 0.438851
0.980822 0.663684 0.471333
0.994335 0.640510 0.471110
1.038481 0.630996 0.477382
-0.398164 0.718285 -0.332509
-0.398829 0.718355 -0.335237
-0.403523 0.718387 -0.360184
-0.381374 0.718409 -0.365542
-0.331544 0.717781 -0.376197
-0.203544 0.715616 -0.384168
0.290493 0.711649 -0.384593
0.410802 0.707327 -0.378690
0.484629 0.701369 -0.370302
0.551531 0.696241 -0.346922
0.655060 0.713207 -0.276885
0.784396 0.717965 0.241176
0.933844 0.725066 0.417432
0.991815 0.721735 0.462304
1.004511 0.693868 0.465440
1.049706 0.680510 0.472636
-0.449210 0.807802 -0.380220
-0.449896 0.807970 -0.382773
-0.454416 0.808292 -0.405744
-0.433671 0.808321 -0.411593
-0.390588 0.807898 -0.421895
-0.301240 0.806385 -0.431353
0.128362 0.803505 -0.435051
0.338377 0.800512 -0.434063
0.434524 0.797052 -0.430005
0.521980 0.791227 -0.422889
0.628197 0.787136 -0.390736
0.780777 0.789621 -0.233853
0.945047 0.788536 0.362418
1.003308 0.780574 0.435778
1.016387 0.749104 0.449887
1.061591 0.732259 0.460678
-0.494524 0.888515 -0.422132
-0.495106 0.888571 -0.424378
-0.499161 0.888996 -0.445074
-0.479846 0.888986 -0.451171
-0.442251 0.888690 -0.461110
-0.373493 0.887591 -0.471160
-0.253498 0.885620 -0.476731
0.200196 0.883432 -0.478483
0.357666 0.880915 -0.477695
0.473511 0.876904 -0.473359
0.600732 0.869336 -0.460849
0.766753 0.864302 -0.395010
0.951935 0.854769 0.247189
1.014771 0.841288 0.377550
1.029063 0.805263 0.411310
1.075105 0.785241 0.430622
-0.533411 0.958411 -0.458258
-0.533906 0.958533 -0.460362
-0.537432 0.958928 -0.478530
-0.519575 0.958867 -0.484428
-0.487116 0.958684 -0.494014
-0.432104 0.957879 -0.503988
-0.352171 0.956549 -0.510864
-0.238534 0.954809 -0.514076
0.223463 0.952897 -0.515512
0.401623 0.949856 -0.514343
0.555882 0.944262 -0.506253
0.727584 0.933342 -0.477346
0.963182 0.927717 -0.246669
1.022831 0.905549 0.260479
1.039101 0.862960 0.338219
1.087947 0.839090 0.371983
-0.562808 1.011693 -0.486307
-0.563364 1.011757 -0.488256
-0.566076 1.012165 -0.503726
-0.550089 1.012074 -0.509142
-0.522327 1.011944 -0.518226
-0.477686 1.011428 -0.527636
-0.417619 1.010420 -0.535169
-0.344167 1.009075 -0.539533
-0.224160 1.007386 -0.542176
0.285662 1.004852 -0.543449
0.479690 1.000268 -0.540456
0.664298 0.992657 -0.523045
0.878771 0.978178 -0.450858
1.033774 0.982935 -0.288230
1.046556 0.925595 0.154439
1.096860 0.895372 0.263279
-0.575572 1.037560 -0.499298
-0.576089 1.037627 -0.500942
-0.578027 1.037989 -0.513435
-0.564442 1.037990 -0.518249
-0.541507 1.037920 -0.526635
-0.505045 1.037561 -0.535308
-0.456308 1.036847 -0.543024
-0.399160 1.035820 -0.548325
-0.323892 1.034506 -0.551639
-0.159469 1.032658 -0.554013
0.354649 1.029621 -0.554679
0.544741 1.023938 -0.549003
0.737405 1.013085 -0.521887
0.958952 0.998786 -0.399866
1.056768 1.003894 -0.357001
1.103614 0.954230 -0.223275
-0.669744 1.206977 -0.595455
-0.670265 1.207106 -0.597525
-0.671886 1.207459 -0.608305
-0.661985 1.207534 -0.615166
-0.646723 1.207782 -0.625369
-0.625224 1.207734 -0.635756
-0.600018 1.207186 -0.645300
-0.572936 1.206195 -0.653459
-0.541660 1.204696 -0.660191
-0.499359 1.202685 -0.665688
-0.430142 1.199950 -0.670094
-0.261022 1.195548 -0.671520
0.452097 1.187973 -0.662210
0.756396 1.172636 -0.610537
0.954185 1.157683 -0.480541
1.085907 1.155078 -0.455880
-0.259608 -0.593184 -0.257709
-0.258980 -0.592973 -0.256389
-0.256925 -0.592601 -0.254238
-0.256386 -0.591470 -0.251368
-0.226500 -0.588434 -0.229088
-0.254825 -0.579957 -0.277995
-0.077103 -0.572101 -0.253620
0.334497 -0.560601 -0.205846
0.429418 -0.547014 -0.110325
0.501017 -0.531246 0.192829
0.595103 -0.510704 0.281672
0.728163 -0.481513 0.353577
0.899686 -0.438386 0.420927
0.935912 -0.415495 0.446277
0.947418 -0.415864 0.441275
0.987837 -0.407420 0.447037
0.072356 0.149049 0.145432
0.069109 0.134835 0.141678
0.083339 0.142823 0.144386
0.095763 0.156627 0.147908
0.165269 0.182479 0.184241
0.243986 0.184812 0.200568
0.341292 0.228077 0.239246
0.435330 0.268883 0.280081
0.496758 0.303772 0.316837
0.549939 0.333545 0.349591
0.622349 0.363131 0.382873
0.730069 0.395884 0.419529
0.882226 0.435288 0.461656
0.945722 0.456319 0.484020
0.963755 0.456900 0.480439
1.008195 0.465048 0.486139
0.048112 0.177174 0.148558
0.051899 0.173444 0.148531
0.073025 0.153886 0.145505
0.091789 0.166686 0.149652
0.159453 0.189761 0.178038
0.243033 0.189836 0.192730
0.341356 0.230760 0.229693
0.435831 0.270734 0.269475
0.497550 0.305137 0.305845
0.550503 0.334613 0.338938
0.622838 0.364088 0.373128
0.730604 0.396791 0.410962
0.882905 0.436187 0.454597
0.946293 0.457235 0.478140
0.964158 0.457855 0.475217
1.008585 0.465973 0.481649
-0.054237 0.199698 0.142083
-0.056327 0.200692 0.142946
-0.051607 0.200652 0.143414
0.035459 0.206114 0.146702
0.126966 0.227016 0.149590
0.245362 0.216841 0.165774
0.341850 0.244124 0.204688
0.437034 0.277852 0.242722
0.499454 0.309590 0.278798
0.552359 0.338304 0.313912
0.624096 0.367753 0.351689
0.731296 0.400865 0.393828
0.883436 0.440662 0.442010
0.947379 0.462393 0.469177
0.965204 0.463623 0.468955
1.009480 0.471934 0.477039
-0.115826 0.283002 0.160245
-0.117202 0.283307 0.158996
-0.117552 0.281584 0.147533
-0.105969 0.277640 0.125148
0.015985 0.276955 0.108842
0.231072 0.296647 -0.030976
0.355486 0.313043 0.183622
0.449167 0.338628 0.243876
0.509779 0.362729 0.283521
0.560889 0.384264 0.320077
0.630747 0.407192 0.358603
0.736217 0.434619 0.400602
0.886800 0.469009 0.448101
0.949954 0.486983 0.474368
0.967266 0.485039 0.473219
1.011573 0.490899 0.480675
-0.179051 0.358137 0.109824
-0.180154 0.358509 0.103946
-0.181896 0.357211 -0.044577
-0.177360 0.352942 -0.127390
-0.115382 0.352217 -0.140811
0.186500 0.345321 -0.144740
0.351454 0.366563 -0.022540
0.458338 0.387738 0.214931
0.519069 0.409206 0.271986
0.569820 0.427889 0.315436
