OFX Video Plug-Ins/Vfx1.ofx.bundle/Contents/Resources/AutoLooks/21.cube
LUT_3D_SIZE 6
-0.020435 0.070201 0.042796
0.059850 0.166180 0.102493
0.345129 0.224748 0.186877
0.553215 0.330624 0.301240
0.883914 0.433753 0.429672
1.009375 0.464024 0.464169
-0.086151 0.208622 0.079903
-0.064874 0.198893 0.077357
0.358058 0.290346 0.171279
0.560663 0.371408 0.302240
0.886795 0.458489 0.432642
1.011540 0.480903 0.466125
-0.236647 0.433139 -0.209887
-0.202118 0.432782 -0.220259
0.330361 0.412912 -0.204966
0.583931 0.491794 0.257072
0.902217 0.557124 0.441410
1.022682 0.551460 0.472752
-0.402293 0.719126 -0.362299
-0.369415 0.718984 -0.373960
0.306697 0.711873 -0.388191
0.551767 0.696097 -0.350475
0.934597 0.727503 0.411531
1.050565 0.682974 0.468678
-0.536586 0.959182 -0.481190
-0.511303 0.959200 -0.492560
-0.341367 0.956561 -0.515359
0.408144 0.949847 -0.517825
0.962752 0.927507 -0.255793
1.088369 0.840335 0.364088
-0.671977 1.207823 -0.608427
-0.657844 1.207840 -0.620514
-0.595843 1.207184 -0.644687
-0.495752 1.202569 -0.662341
0.459762 1.187804 -0.658451
1.085929 1.155014 -0.452745
-0.259608 -0.593184 -0.257709
-0.256386 -0.591470 -0.251368
-0.077103 -0.572101 -0.253620
0.501017 -0.531246 0.192829
0.899686 -0.438386 0.420927
0.987837 -0.407420 0.447037
-0.054237 0.199698 0.142083
0.035459 0.206114 0.146702
0.341850 0.244124 0.204688
0.552359 0.338304 0.313912
0.883436 0.440662 0.442010
1.009480 0.471934 0.477039
-0.221060 0.429662 0.044712
-0.224573 0.427055 -0.180712
0.325701 0.410897 -0.178555
0.580223 0.478943 0.294082
0.898715 0.546053 0.455703
1.020073 0.545176 0.486105
-0.390849 0.716541 -0.270817
-0.395103 0.716078 -0.345134
0.264056 0.710552 -0.370524
0.550870 0.695492 -0.332252
0.932311 0.722259 0.433867
1.048251 0.678697 0.485011
-0.528481 0.957356 -0.417492
-0.528968 0.958107 -0.464318
-0.364920 0.956355 -0.495621
0.391867 0.949701 -0.501606
0.963538 0.927797 -0.210779
1.087092 0.838250 0.393178
-0.666144 1.205895 -0.574869
-0.664326 1.206747 -0.599428
-0.602499 1.206828 -0.634962
-0.503025 1.202629 -0.660025
0.443173 1.188264 -0.658041
1.085579 1.154993 -0.446076
-0.242519 -0.585680 0.289341
-0.209197 -0.584668 0.293593
0.204276 -0.578896 0.278303
0.516729 -0.533596 0.442515
0.900906 -0.435226 0.541674
0.988727 -0.404260 0.534419
0.140752 0.283453 0.389111
0.137013 0.223873 0.375274
0.341178 0.250069 0.379755
0.552970 0.348251 0.479818
0.879895 0.449283 0.557322
1.005106 0.478319 0.560037
0.125038 0.407481 0.392370
0.140025 0.403503 0.386478
0.336002 0.401813 0.392922
0.552694 0.455569 0.464138
0.885830 0.547930 0.571984
1.011985 0.578077 0.602135
-0.290007 0.700978 0.471430
-0.295113 0.700449 0.445982
0.163095 0.689102 0.339644
0.536090 0.683225 0.313851
0.921892 0.721718 0.577632
1.038539 0.697725 0.607351
-0.481083 0.948299 0.367562
-0.480191 0.949201 0.316679
-0.348611 0.946962 0.177898
0.360778 0.945490 -0.212922
0.958492 0.926650 0.432707
1.079217 0.845028 0.566907
-0.641624 1.199823 -0.432344
-0.641082 1.200653 -0.458968
-0.547928 1.198405 -0.409537
-0.475532 1.198103 -0.490072
0.449670 1.186797 -0.521380
1.080964 1.152892 0.166497
-0.180534 -0.559599 0.639160
-0.036254 -0.558756 0.639521
0.377101 -0.555899 0.630288
0.524944 -0.538998 0.625300
0.892082 -0.435841 0.670932
0.992399 -0.400928 0.633219
0.212886 0.349508 0.650174
0.208072 0.301121 0.645020
0.424741 0.315412 0.646552
0.563111 0.344252 0.655802
0.884189 0.451602 0.693243
1.006329 0.481617 0.668495
0.233061 0.478218 0.656623
0.242582 0.464898 0.653299
0.389809 0.434941 0.630492
0.560803 0.456745 0.652831
0.886404 0.553187 0.704605
1.009639 0.580512 0.694978
0.239300 0.679450 0.677356
0.252399 0.678298 0.676215
0.412206 0.658508 0.661813
0.570530 0.667024 0.676522
0.905629 0.765847 0.767112
1.029386 0.792779 0.792830
-0.324693 0.930082 0.692187
-0.319992 0.930535 0.684812
0.224668 0.927401 0.674459
0.518354 0.921515 0.707695
0.938792 0.922733 0.720327
1.063848 0.885421 0.781681
-0.580332 1.186496 0.402083
-0.580935 1.187166 0.378237
-0.472081 1.185162 0.435522
0.395482 1.173714 0.650086
0.631140 1.176317 0.537590
1.067677 1.146059 0.687769
0.153404 -0.522898 0.835288
0.255760 -0.521961 0.835112
0.425573 -0.519510 0.830642
0.537371 -0.516120 0.816323
0.879535 -0.443830 0.820125
0.999891 -0.400504 0.749883
0.278706 0.393440 0.828527
0.281722 0.364267 0.826182
0.454015 0.371098 0.826149
0.573360 0.375291 0.825662
0.900138 0.449953 0.840924
1.013177 0.480869 0.785672
0.294232 0.511006 0.833141
0.304466 0.496545 0.831350
0.446964 0.485633 0.821077
0.568886 0.485042 0.821644
0.903922 0.553300 0.849735
1.015442 0.580535 0.801320
0.325668 0.701144 0.846749
0.335745 0.694160 0.844961
0.466648 0.679867 0.834668
0.609611 0.718563 0.833150
0.913017 0.774542 0.877611
1.026243 0.798674 0.864012
0.311840 0.915172 0.875508
0.326536 0.915416 0.875572
0.474827 0.911718 0.874824
0.628631 0.904638 0.877766
0.921944 0.920991 0.890876
1.052760 0.946591 0.923374
-0.410383 1.163457 0.737162
-0.407981 1.163842 0.732718
-0.186732 1.162897 0.742761
0.568705 1.154032 0.819855
0.969213 1.143736 0.868398
1.052182 1.137713 0.882360
0.248190 -0.496365 0.915593
0.300083 -0.495609 0.915332
0.415628 -0.493549 0.913421
0.504257 -0.490443 0.908087
0.670425 -0.481757 0.902786
1.022035 -0.408720 0.907544
0.315243 0.411630 0.917358
0.325438 0.396852 0.916481
0.449183 0.398348 0.916212
0.549291 0.401264 0.915734
0.723663 0.413097 0.916014
1.033307 0.475402 0.922329
0.325504 0.502873 0.920407
0.337097 0.492884 0.919605
0.481955 0.525281 0.917134
0.560318 0.515469 0.917071
0.726457 0.523477 0.917587
1.034657 0.576691 0.929712
0.352680 0.661488 0.929527
0.362977 0.655089 0.928561
0.491818 0.666298 0.926003
0.649315 0.763240 0.930013
0.781139 0.753355 0.927193
1.039849 0.797161 0.952844
0.373471 0.835916 0.943910
0.384057 0.833111 0.943246
0.506894 0.833600 0.940139
0.648948 0.863673 0.939514
0.940425 0.932734 0.958737
1.042879 0.951134 0.976464
0.359770 1.044438 0.963099
0.373686 1.044636 0.963524
0.506780 1.043695 0.966857
0.671136 1.037922 0.974313
0.956329 1.036270 0.962839
1.066396 1.027261 0.966300
